P3
# Created by IrfanView
240 80
255
4 50 156 4 50 156 4 50 156 4 50 156 4 50 156 4 50 156 4 50 156 4 50 156 4 50 156 
4 50 156 4 50 156 4 50 156 4 50 156 4 50 156 4 50 156 4 50 156 4 50 156 
4 50 156 4 50 156 4 50 156 4 50 156 4 50 156 4 50 156 4 50 156 4 50 156 
4 50 156 4 50 156 4 50 156 4 50 156 4 50 156 4 50 156 4 50 156 4 50 156 
4 50 156 4 50 156 4 50 156 4 50 156 4 50 156 4 50 156 4 50 156 4 50 156 
4 50 156 4 50 156 4 50 156 4 50 156 4 50 156 4 50 156 4 50 156 4 50 156 
4 50 156 4 50 156 4 50 156 4 50 156 4 50 156 4 50 156 4 50 156 4 50 156 
4 50 156 4 50 156 4 50 156 4 50 156 4 50 156 4 50 156 4 50 156 4 50 156 
4 50 156 4 50 156 4 50 156 4 50 156 4 50 156 4 50 156 4 50 156 4 50 156 
4 50 156 4 50 156 4 50 156 4 50 156 4 50 156 4 50 156 4 50 156 4 50 156 
4 50 156 4 50 156 4 50 156 4 50 156 4 50 156 4 50 156 4 50 156 4 50 156 
4 50 156 4 50 156 4 50 156 4 50 156 4 50 156 4 50 156 4 50 156 4 50 156 
4 50 156 4 50 156 4 50 156 4 50 156 4 50 156 4 50 156 4 50 156 4 50 156 
4 50 156 4 50 156 4 50 156 4 50 156 4 50 156 4 50 156 4 50 156 4 50 156 
4 50 156 4 50 156 4 50 156 4 50 156 4 50 156 4 50 156 4 50 156 4 50 156 
4 50 156 4 50 156 4 50 156 4 50 156 4 50 156 4 50 156 4 50 156 4 50 156 
4 50 156 4 50 156 4 50 156 4 50 156 4 50 156 4 50 156 4 50 156 4 50 156 
4 50 156 4 50 156 4 50 156 4 50 156 4 50 156 4 50 156 4 50 156 4 50 156 
4 50 156 4 50 156 4 50 156 4 50 156 4 50 156 4 50 156 4 50 156 4 50 156 
4 50 156 4 50 156 4 50 156 4 50 156 4 50 156 4 50 156 4 50 156 4 50 156 
4 50 156 4 50 156 4 50 156 4 50 156 4 50 156 4 50 156 4 50 156 4 50 156 
4 50 156 4 50 156 4 50 156 4 50 156 4 50 156 4 50 156 4 50 156 4 50 156 
4 50 156 4 50 156 4 50 156 4 50 156 4 50 156 4 50 156 4 50 156 4 50 156 
4 50 156 4 50 156 4 50 156 4 50 156 4 50 156 4 50 156 4 50 156 4 50 156 
4 50 156 4 50 156 4 50 156 4 50 156 4 50 156 4 50 156 4 50 156 4 50 156 
4 50 156 4 50 156 4 50 156 4 50 156 4 50 156 4 50 156 4 50 156 4 50 156 
4 50 156 4 50 156 4 50 156 4 50 156 4 50 156 4 50 156 4 50 156 4 50 156 
4 50 156 4 50 156 4 50 156 4 50 156 4 50 156 4 50 156 4 50 156 4 50 156 
4 50 156 4 50 156 4 50 156 4 50 156 4 50 156 4 50 156 4 50 156 4 50 156 
4 50 156 4 50 156 4 50 156 4 50 156 4 50 156 4 50 156 4 50 156 4 50 156 4 50 156 4 50 156 4 50 156 4 50 156 4 50 156 4 50 156 4 50 156 4 50 156 
4 50 156 4 50 156 4 50 156 4 50 156 4 50 156 4 50 156 4 50 156 4 50 156 
4 50 156 4 50 156 4 50 156 4 50 156 4 50 156 4 50 156 4 50 156 4 50 156 
4 50 156 4 50 156 4 50 156 4 50 156 4 50 156 4 50 156 4 50 156 4 50 156 
4 50 156 4 50 156 4 50 156 4 50 156 4 50 156 4 50 156 4 50 156 4 50 156 
4 50 156 4 50 156 4 50 156 4 50 156 4 50 156 4 50 156 4 50 156 4 50 156 
4 50 156 4 50 156 4 50 156 4 50 156 4 50 156 4 50 156 4 50 156 4 50 156 
4 50 156 4 50 156 4 50 156 4 50 156 4 50 156 4 50 156 4 50 156 4 50 156 
4 50 156 4 50 156 4 50 156 4 50 156 4 50 156 4 50 156 4 50 156 4 50 156 
4 50 156 4 50 156 4 50 156 4 50 156 4 50 156 4 50 156 4 50 156 4 50 156 
4 50 156 4 50 156 4 50 156 4 50 156 4 50 156 4 50 156 4 50 156 4 50 156 
4 50 156 4 50 156 4 50 156 4 50 156 4 50 156 4 50 156 4 50 156 4 50 156 
4 50 156 4 50 156 4 50 156 4 50 156 4 50 156 4 50 156 4 50 156 4 50 156 
4 50 156 4 50 156 4 50 156 4 50 156 4 50 156 4 50 156 4 50 156 4 50 156 
4 50 156 4 50 156 4 50 156 4 50 156 4 50 156 4 50 156 4 50 156 4 50 156 
4 50 156 4 50 156 4 50 156 4 50 156 4 50 156 4 50 156 4 50 156 4 50 156 
4 50 156 4 50 156 4 50 156 4 50 156 4 50 156 4 50 156 4 50 156 4 50 156 
4 50 156 4 50 156 4 50 156 4 50 156 4 50 156 4 50 156 4 50 156 4 50 156 
4 50 156 4 50 156 4 50 156 4 50 156 4 50 156 4 50 156 4 50 156 4 50 156 
4 50 156 4 50 156 4 50 156 4 50 156 4 50 156 4 50 156 4 50 156 4 50 156 
4 50 156 4 50 156 4 50 156 4 50 156 4 50 156 4 50 156 4 50 156 4 50 156 
4 50 156 4 50 156 4 50 156 4 50 156 4 50 156 4 50 156 4 50 156 4 50 156 
4 50 156 4 50 156 4 50 156 4 50 156 4 50 156 4 50 156 4 50 156 4 50 156 
4 50 156 4 50 156 4 50 156 4 50 156 4 50 156 4 50 156 4 50 156 4 50 156 
4 50 156 4 50 156 4 50 156 4 50 156 4 50 156 4 50 156 4 50 156 4 50 156 
4 50 156 4 50 156 4 50 156 4 50 156 4 50 156 4 50 156 4 50 156 4 50 156 
4 50 156 4 50 156 4 50 156 4 50 156 4 50 156 4 50 156 4 50 156 4 50 156 
4 50 156 4 50 156 4 50 156 4 50 156 4 50 156 4 50 156 4 50 156 4 50 156 
4 50 156 4 50 156 4 50 156 4 50 156 4 50 156 4 50 156 4 50 156 4 50 156 
4 50 156 4 50 156 4 50 156 4 50 156 4 50 156 4 50 156 4 50 156 4 50 156 4 50 156 4 50 156 4 50 156 4 50 156 4 50 156 4 50 156 4 50 156 4 50 156 
4 50 156 4 50 156 4 50 156 4 50 156 4 50 156 4 50 156 4 50 156 4 50 156 
4 50 156 4 50 156 4 50 156 4 50 156 4 50 156 4 50 156 4 50 156 4 50 156 
4 50 156 4 50 156 4 50 156 4 50 156 4 50 156 4 50 156 4 50 156 236 234 236 
252 254 252 252 254 252 252 254 252 252 254 252 252 254 252 252 254 252 252 254 252 252 254 252 
252 254 252 252 254 252 252 254 252 252 254 252 252 254 252 236 234 236 236 234 236 4 50 156 
4 50 156 4 50 156 4 50 156 4 50 156 4 50 156 4 50 156 4 50 156 4 50 156 
4 50 156 4 50 156 4 50 156 4 50 156 4 50 156 4 50 156 4 50 156 4 50 156 
4 50 156 4 50 156 4 50 156 4 50 156 4 50 156 4 50 156 4 50 156 4 50 156 
4 50 156 4 50 156 4 50 156 4 50 156 4 50 156 4 50 156 4 50 156 4 50 156 
4 50 156 4 50 156 4 50 156 4 50 156 4 50 156 4 50 156 4 50 156 4 50 156 
4 50 156 4 50 156 4 50 156 4 50 156 4 50 156 4 50 156 4 50 156 4 50 156 
4 50 156 4 50 156 4 50 156 4 50 156 4 50 156 4 50 156 4 50 156 4 50 156 
4 50 156 4 50 156 4 50 156 4 50 156 4 50 156 4 50 156 4 50 156 4 50 156 
4 50 156 4 50 156 4 50 156 4 50 156 4 50 156 4 50 156 4 50 156 4 50 156 
4 50 156 4 50 156 4 50 156 4 50 156 4 50 156 4 50 156 4 50 156 4 50 156 
4 50 156 4 50 156 4 50 156 4 50 156 4 50 156 4 50 156 4 50 156 4 50 156 
4 50 156 4 50 156 4 50 156 4 50 156 4 50 156 4 50 156 4 50 156 4 50 156 
4 50 156 4 50 156 4 50 156 4 50 156 4 50 156 4 50 156 4 50 156 4 50 156 
4 50 156 4 50 156 4 50 156 4 50 156 4 50 156 4 50 156 4 50 156 4 50 156 
4 50 156 4 50 156 4 50 156 4 50 156 4 50 156 4 50 156 4 50 156 4 50 156 
4 50 156 4 50 156 4 50 156 4 50 156 4 50 156 4 50 156 4 50 156 4 50 156 
4 50 156 4 50 156 4 50 156 4 50 156 4 50 156 4 50 156 4 50 156 4 50 156 
4 50 156 4 50 156 4 50 156 4 50 156 4 50 156 4 50 156 4 50 156 4 50 156 
4 50 156 4 50 156 4 50 156 4 50 156 4 50 156 4 50 156 4 50 156 4 50 156 
4 50 156 4 50 156 4 50 156 4 50 156 4 50 156 4 50 156 4 50 156 4 50 156 
4 50 156 4 50 156 4 50 156 4 50 156 4 50 156 4 50 156 4 50 156 4 50 156 
4 50 156 4 50 156 4 50 156 4 50 156 4 50 156 4 50 156 4 50 156 4 50 156 
4 50 156 4 50 156 4 50 156 4 50 156 4 50 156 4 50 156 4 50 156 4 50 156 
4 50 156 4 50 156 4 50 156 4 50 156 4 50 156 4 50 156 4 50 156 4 50 156 4 50 156 4 50 156 4 50 156 4 50 156 4 50 156 4 50 156 4 50 156 4 50 156 
4 50 156 4 50 156 4 50 156 4 50 156 4 50 156 4 50 156 4 50 156 4 50 156 
4 50 156 4 50 156 4 50 156 4 50 156 4 50 156 4 50 156 4 50 156 4 50 156 
4 50 156 4 50 156 4 50 156 252 254 252 252 254 252 252 254 252 252 254 252 252 254 252 
252 254 252 252 254 252 252 254 252 252 254 252 252 254 252 252 254 252 252 254 252 252 254 252 
252 254 252 252 254 252 252 254 252 252 254 252 252 254 252 252 254 252 252 254 252 252 254 252 
252 254 252 252 254 252 236 234 236 4 50 156 4 50 156 4 50 156 4 50 156 4 50 156 
4 50 156 4 50 156 4 50 156 4 50 156 4 50 156 4 50 156 4 50 156 4 50 156 
4 50 156 4 50 156 4 50 156 4 50 156 4 50 156 4 50 156 4 50 156 4 50 156 
4 50 156 4 50 156 4 50 156 4 50 156 4 50 156 4 50 156 4 50 156 4 50 156 
4 50 156 4 50 156 4 50 156 4 50 156 4 50 156 4 50 156 4 50 156 4 50 156 
4 50 156 4 50 156 4 50 156 4 50 156 4 50 156 4 50 156 4 50 156 4 50 156 
4 50 156 4 50 156 4 50 156 4 50 156 4 50 156 4 50 156 4 50 156 4 50 156 
4 50 156 4 50 156 4 50 156 4 50 156 4 50 156 4 50 156 4 50 156 4 50 156 
4 50 156 4 50 156 4 50 156 4 50 156 4 50 156 4 50 156 4 50 156 4 50 156 
4 50 156 4 50 156 4 50 156 4 50 156 4 50 156 4 50 156 4 50 156 4 50 156 
4 50 156 4 50 156 4 50 156 4 50 156 4 50 156 4 50 156 4 50 156 4 50 156 
4 50 156 4 50 156 4 50 156 4 50 156 4 50 156 4 50 156 4 50 156 4 50 156 
4 50 156 4 50 156 4 50 156 4 50 156 4 50 156 4 50 156 4 50 156 4 50 156 
4 50 156 4 50 156 4 50 156 4 50 156 4 50 156 4 50 156 4 50 156 4 50 156 
4 50 156 4 50 156 4 50 156 4 50 156 4 50 156 4 50 156 4 50 156 4 50 156 
4 50 156 4 50 156 4 50 156 4 50 156 4 50 156 4 50 156 4 50 156 4 50 156 
4 50 156 4 50 156 4 50 156 4 50 156 4 50 156 4 50 156 4 50 156 4 50 156 
4 50 156 4 50 156 4 50 156 4 50 156 4 50 156 4 50 156 4 50 156 4 50 156 
4 50 156 4 50 156 4 50 156 4 50 156 4 50 156 4 50 156 4 50 156 4 50 156 
4 50 156 4 50 156 4 50 156 4 50 156 4 50 156 4 50 156 4 50 156 4 50 156 
4 50 156 4 50 156 4 50 156 4 50 156 4 50 156 4 50 156 4 50 156 4 50 156 
4 50 156 4 50 156 4 50 156 4 50 156 4 50 156 4 50 156 4 50 156 4 50 156 
4 50 156 4 50 156 4 50 156 4 50 156 4 50 156 4 50 156 4 50 156 4 50 156 
4 50 156 4 50 156 4 50 156 4 50 156 4 50 156 4 50 156 4 50 156 4 50 156 4 50 156 4 50 156 4 50 156 4 50 156 4 50 156 4 50 156 4 50 156 4 50 156 
4 50 156 4 50 156 4 50 156 4 50 156 4 50 156 4 50 156 4 50 156 4 50 156 
4 50 156 4 50 156 4 50 156 4 50 156 4 50 156 4 50 156 4 50 156 4 50 156 
252 254 252 252 254 252 252 254 252 252 254 252 252 254 252 252 254 252 252 254 252 252 254 252 
252 254 252 252 254 252 252 254 252 252 254 252 252 254 252 252 254 252 252 254 252 252 254 252 
252 254 252 252 254 252 252 254 252 252 254 252 252 254 252 252 254 252 252 254 252 252 254 252 
252 254 252 252 254 252 252 254 252 252 254 252 252 254 252 236 234 236 4 50 156 4 50 156 
4 50 156 4 50 156 4 50 156 4 50 156 4 50 156 4 50 156 4 50 156 4 50 156 
4 50 156 4 50 156 4 50 156 4 50 156 4 50 156 4 50 156 4 50 156 4 50 156 
4 50 156 4 50 156 4 50 156 4 50 156 4 50 156 4 50 156 4 50 156 4 50 156 
4 50 156 4 50 156 4 50 156 4 50 156 4 50 156 4 50 156 4 50 156 4 50 156 
4 50 156 4 50 156 4 50 156 4 50 156 4 50 156 4 50 156 4 50 156 4 50 156 
4 50 156 4 50 156 4 50 156 4 50 156 4 50 156 4 50 156 4 50 156 4 50 156 
4 50 156 4 50 156 4 50 156 4 50 156 4 50 156 4 50 156 4 50 156 4 50 156 
4 50 156 4 50 156 4 50 156 4 50 156 4 50 156 4 50 156 4 50 156 4 50 156 
4 50 156 4 50 156 4 50 156 4 50 156 4 50 156 4 50 156 4 50 156 4 50 156 
4 50 156 4 50 156 4 50 156 4 50 156 4 50 156 4 50 156 4 50 156 4 50 156 
4 50 156 4 50 156 4 50 156 4 50 156 4 50 156 4 50 156 4 50 156 4 50 156 
4 50 156 4 50 156 4 50 156 4 50 156 4 50 156 4 50 156 4 50 156 4 50 156 
4 50 156 4 50 156 4 50 156 4 50 156 4 50 156 4 50 156 4 50 156 4 50 156 
4 50 156 4 50 156 4 50 156 4 50 156 4 50 156 4 50 156 4 50 156 4 50 156 
4 50 156 4 50 156 4 50 156 4 50 156 4 50 156 4 50 156 4 50 156 4 50 156 
4 50 156 4 50 156 4 50 156 4 50 156 4 50 156 4 50 156 4 50 156 4 50 156 
4 50 156 4 50 156 4 50 156 4 50 156 4 50 156 4 50 156 4 50 156 4 50 156 
4 50 156 4 50 156 4 50 156 4 50 156 4 50 156 4 50 156 4 50 156 4 50 156 
4 50 156 4 50 156 4 50 156 4 50 156 4 50 156 4 50 156 4 50 156 4 50 156 
4 50 156 4 50 156 4 50 156 4 50 156 4 50 156 4 50 156 4 50 156 4 50 156 
4 50 156 4 50 156 4 50 156 4 50 156 4 50 156 4 50 156 4 50 156 4 50 156 
4 50 156 4 50 156 4 50 156 4 50 156 4 50 156 4 50 156 4 50 156 4 50 156 
4 50 156 4 50 156 4 50 156 4 50 156 4 50 156 4 50 156 4 50 156 4 50 156 4 50 156 4 50 156 4 50 156 4 50 156 4 50 156 4 50 156 4 50 156 4 50 156 
4 50 156 4 50 156 4 50 156 4 50 156 4 50 156 4 50 156 4 50 156 4 50 156 
4 50 156 4 50 156 4 50 156 4 50 156 4 50 156 236 234 236 252 254 252 252 254 252 
252 254 252 252 254 252 252 254 252 252 254 252 252 254 252 252 254 252 252 254 252 252 254 252 
252 254 252 252 254 252 252 254 252 252 254 252 252 254 252 252 254 252 252 254 252 252 254 252 
252 254 252 252 254 252 252 254 252 252 254 252 252 254 252 252 254 252 252 254 252 252 254 252 
252 254 252 252 254 252 252 254 252 252 254 252 252 254 252 252 254 252 252 254 252 252 254 252 
4 50 156 4 50 156 4 50 156 4 50 156 4 50 156 4 50 156 4 50 156 4 50 156 
4 50 156 4 50 156 4 50 156 4 50 156 4 50 156 4 50 156 4 50 156 4 50 156 
4 50 156 4 50 156 4 50 156 4 50 156 4 50 156 4 50 156 4 50 156 4 50 156 
4 50 156 4 50 156 4 50 156 4 50 156 4 50 156 4 50 156 4 50 156 4 50 156 
4 50 156 4 50 156 4 50 156 4 50 156 4 50 156 4 50 156 4 50 156 4 50 156 
4 50 156 4 50 156 4 50 156 4 50 156 4 50 156 4 50 156 4 50 156 4 50 156 
4 50 156 4 50 156 4 50 156 4 50 156 4 50 156 4 50 156 4 50 156 4 50 156 
4 50 156 4 50 156 4 50 156 4 50 156 4 50 156 4 50 156 4 50 156 4 50 156 
4 50 156 4 50 156 4 50 156 4 50 156 4 50 156 4 50 156 4 50 156 4 50 156 
4 50 156 4 50 156 4 50 156 4 50 156 4 50 156 4 50 156 4 50 156 4 50 156 
4 50 156 4 50 156 4 50 156 4 50 156 4 50 156 4 50 156 4 50 156 4 50 156 
4 50 156 4 50 156 4 50 156 4 50 156 4 50 156 4 50 156 4 50 156 4 50 156 
4 50 156 4 50 156 4 50 156 4 50 156 4 50 156 4 50 156 4 50 156 4 50 156 
4 50 156 4 50 156 4 50 156 4 50 156 4 50 156 4 50 156 4 50 156 4 50 156 
4 50 156 4 50 156 4 50 156 4 50 156 4 50 156 4 50 156 4 50 156 4 50 156 
4 50 156 4 50 156 4 50 156 4 50 156 4 50 156 4 50 156 4 50 156 4 50 156 
4 50 156 4 50 156 4 50 156 4 50 156 4 50 156 4 50 156 4 50 156 4 50 156 
4 50 156 4 50 156 4 50 156 4 50 156 4 50 156 4 50 156 4 50 156 4 50 156 
4 50 156 4 50 156 4 50 156 4 50 156 4 50 156 4 50 156 4 50 156 4 50 156 
4 50 156 4 50 156 4 50 156 4 50 156 4 50 156 4 50 156 4 50 156 4 50 156 
4 50 156 4 50 156 4 50 156 4 50 156 4 50 156 4 50 156 4 50 156 4 50 156 
4 50 156 4 50 156 4 50 156 4 50 156 4 50 156 4 50 156 4 50 156 4 50 156 
4 50 156 4 50 156 4 50 156 4 50 156 4 50 156 4 50 156 4 50 156 4 50 156 4 50 156 4 50 156 4 50 156 4 50 156 4 50 156 4 50 156 4 50 156 4 50 156 
4 50 156 4 50 156 4 50 156 4 50 156 4 50 156 4 50 156 4 50 156 4 50 156 
4 50 156 4 50 156 4 50 156 236 234 236 252 254 252 252 254 252 252 254 252 252 254 252 
252 254 252 252 254 252 252 254 252 252 254 252 252 254 252 252 254 252 252 254 252 252 254 252 
252 254 252 252 254 252 252 254 252 252 254 252 252 254 252 252 254 252 252 254 252 252 254 252 
252 254 252 252 254 252 252 254 252 252 254 252 252 254 252 252 254 252 252 254 252 252 254 252 
252 254 252 252 254 252 252 254 252 252 254 252 252 254 252 252 254 252 252 254 252 252 254 252 
252 254 252 252 254 252 4 50 156 4 50 156 4 50 156 4 50 156 4 50 156 4 50 156 
4 50 156 4 50 156 4 50 156 4 50 156 4 50 156 4 50 156 4 50 156 4 50 156 
4 50 156 4 50 156 4 50 156 4 50 156 4 50 156 4 50 156 4 50 156 4 50 156 
4 50 156 4 50 156 4 50 156 4 50 156 4 50 156 4 50 156 4 50 156 4 50 156 
4 50 156 4 50 156 4 50 156 4 50 156 4 50 156 4 50 156 4 50 156 4 50 156 
4 50 156 4 50 156 4 50 156 4 50 156 4 50 156 4 50 156 4 50 156 4 50 156 
4 50 156 4 50 156 4 50 156 4 50 156 4 50 156 4 50 156 4 50 156 4 50 156 
4 50 156 4 50 156 4 50 156 4 50 156 4 50 156 4 50 156 4 50 156 4 50 156 
4 50 156 4 50 156 4 50 156 4 50 156 4 50 156 4 50 156 4 50 156 4 50 156 
4 50 156 4 50 156 4 50 156 4 50 156 4 50 156 4 50 156 4 50 156 4 50 156 
4 50 156 4 50 156 4 50 156 4 50 156 4 50 156 4 50 156 4 50 156 4 50 156 
4 50 156 4 50 156 4 50 156 4 50 156 4 50 156 4 50 156 4 50 156 4 50 156 
4 50 156 4 50 156 4 50 156 4 50 156 4 50 156 4 50 156 4 50 156 4 50 156 
4 50 156 4 50 156 4 50 156 4 50 156 4 50 156 4 50 156 4 50 156 4 50 156 
4 50 156 4 50 156 4 50 156 4 50 156 4 50 156 4 50 156 4 50 156 4 50 156 
4 50 156 4 50 156 4 50 156 4 50 156 4 50 156 4 50 156 4 50 156 4 50 156 
4 50 156 4 50 156 4 50 156 4 50 156 4 50 156 4 50 156 4 50 156 4 50 156 
4 50 156 4 50 156 4 50 156 4 50 156 4 50 156 4 50 156 4 50 156 4 50 156 
4 50 156 4 50 156 4 50 156 4 50 156 4 50 156 4 50 156 4 50 156 4 50 156 
4 50 156 4 50 156 4 50 156 4 50 156 4 50 156 4 50 156 4 50 156 4 50 156 
4 50 156 4 50 156 4 50 156 4 50 156 4 50 156 4 50 156 4 50 156 4 50 156 
4 50 156 4 50 156 4 50 156 4 50 156 4 50 156 4 50 156 4 50 156 4 50 156 
4 50 156 4 50 156 4 50 156 4 50 156 4 50 156 4 50 156 4 50 156 4 50 156 4 50 156 4 50 156 4 50 156 4 50 156 4 50 156 4 50 156 4 50 156 4 50 156 
4 50 156 4 50 156 4 50 156 4 50 156 4 50 156 4 50 156 4 50 156 4 50 156 
4 50 156 4 50 156 252 254 252 252 254 252 252 254 252 252 254 252 252 254 252 252 254 252 
252 254 252 252 254 252 252 254 252 252 254 252 252 254 252 252 254 252 252 254 252 252 254 252 
252 254 252 252 254 252 252 254 252 252 254 252 252 254 252 252 254 252 252 254 252 252 254 252 
252 254 252 252 254 252 252 254 252 252 254 252 252 254 252 252 254 252 252 254 252 252 254 252 
252 254 252 252 254 252 252 254 252 252 254 252 252 254 252 252 254 252 252 254 252 252 254 252 
252 254 252 252 254 252 252 254 252 252 254 252 4 50 156 4 50 156 4 50 156 4 50 156 
4 50 156 4 50 156 4 50 156 4 50 156 4 50 156 4 50 156 4 50 156 4 50 156 
4 50 156 4 50 156 4 50 156 4 50 156 4 50 156 4 50 156 4 50 156 4 50 156 
4 50 156 4 50 156 4 50 156 4 50 156 4 50 156 4 50 156 4 50 156 4 50 156 
4 50 156 4 50 156 4 50 156 4 50 156 4 50 156 4 50 156 4 50 156 4 50 156 
4 50 156 4 50 156 4 50 156 4 50 156 4 50 156 4 50 156 4 50 156 4 50 156 
4 50 156 4 50 156 4 50 156 4 50 156 4 50 156 4 50 156 4 50 156 4 50 156 
4 50 156 4 50 156 4 50 156 4 50 156 4 50 156 4 50 156 4 50 156 4 50 156 
4 50 156 4 50 156 4 50 156 4 50 156 4 50 156 4 50 156 4 50 156 4 50 156 
4 50 156 4 50 156 4 50 156 4 50 156 4 50 156 4 50 156 4 50 156 4 50 156 
4 50 156 4 50 156 4 50 156 4 50 156 4 50 156 4 50 156 4 50 156 4 50 156 
4 50 156 4 50 156 4 50 156 4 50 156 4 50 156 4 50 156 4 50 156 4 50 156 
4 50 156 4 50 156 4 50 156 4 50 156 4 50 156 4 50 156 4 50 156 4 50 156 
4 50 156 4 50 156 4 50 156 4 50 156 4 50 156 4 50 156 4 50 156 4 50 156 
4 50 156 4 50 156 4 50 156 4 50 156 4 50 156 4 50 156 4 50 156 4 50 156 
4 50 156 4 50 156 4 50 156 4 50 156 4 50 156 4 50 156 4 50 156 4 50 156 
4 50 156 4 50 156 4 50 156 4 50 156 4 50 156 4 50 156 4 50 156 4 50 156 
4 50 156 4 50 156 4 50 156 4 50 156 4 50 156 4 50 156 4 50 156 4 50 156 
4 50 156 4 50 156 4 50 156 4 50 156 4 50 156 4 50 156 4 50 156 4 50 156 
4 50 156 4 50 156 4 50 156 4 50 156 4 50 156 4 50 156 4 50 156 4 50 156 
4 50 156 4 50 156 4 50 156 4 50 156 4 50 156 4 50 156 4 50 156 4 50 156 
4 50 156 4 50 156 4 50 156 4 50 156 4 50 156 4 50 156 4 50 156 4 50 156 
4 50 156 4 50 156 4 50 156 4 50 156 4 50 156 4 50 156 4 50 156 4 50 156 4 50 156 4 50 156 4 50 156 4 50 156 4 50 156 4 50 156 4 50 156 4 50 156 
4 50 156 4 50 156 4 50 156 4 50 156 4 50 156 4 50 156 4 50 156 4 50 156 
252 254 252 252 254 252 252 254 252 252 254 252 252 254 252 252 254 252 252 254 252 252 254 252 
252 254 252 252 254 252 252 254 252 252 254 252 252 254 252 252 254 252 252 254 252 252 254 252 
252 254 252 252 254 252 252 254 252 252 254 252 252 254 252 252 254 252 252 254 252 252 254 252 
252 254 252 252 254 252 252 254 252 252 254 252 252 254 252 252 254 252 252 254 252 252 254 252 
252 254 252 252 254 252 252 254 252 252 254 252 252 254 252 252 254 252 252 254 252 252 254 252 
252 254 252 252 254 252 252 254 252 252 254 252 252 254 252 236 234 236 4 50 156 4 50 156 
4 50 156 4 50 156 4 50 156 4 50 156 4 50 156 4 50 156 4 50 156 4 50 156 
4 50 156 4 50 156 4 50 156 4 50 156 4 50 156 4 50 156 4 50 156 4 50 156 
4 50 156 4 50 156 4 50 156 4 50 156 4 50 156 4 50 156 4 50 156 4 50 156 
4 50 156 4 50 156 4 50 156 4 50 156 4 50 156 4 50 156 4 50 156 4 50 156 
4 50 156 4 50 156 4 50 156 4 50 156 4 50 156 4 50 156 4 50 156 4 50 156 
4 50 156 4 50 156 4 50 156 4 50 156 4 50 156 4 50 156 4 50 156 4 50 156 
4 50 156 4 50 156 4 50 156 4 50 156 4 50 156 4 50 156 4 50 156 4 50 156 
4 50 156 4 50 156 4 50 156 4 50 156 4 50 156 4 50 156 4 50 156 4 50 156 
4 50 156 4 50 156 4 50 156 4 50 156 4 50 156 4 50 156 4 50 156 4 50 156 
4 50 156 4 50 156 4 50 156 4 50 156 4 50 156 4 50 156 4 50 156 4 50 156 
4 50 156 4 50 156 4 50 156 4 50 156 4 50 156 4 50 156 4 50 156 4 50 156 
4 50 156 4 50 156 4 50 156 4 50 156 4 50 156 4 50 156 4 50 156 4 50 156 
4 50 156 4 50 156 4 50 156 4 50 156 4 50 156 4 50 156 4 50 156 4 50 156 
4 50 156 4 50 156 4 50 156 4 50 156 4 50 156 4 50 156 4 50 156 4 50 156 
4 50 156 4 50 156 4 50 156 4 50 156 4 50 156 4 50 156 4 50 156 4 50 156 
4 50 156 4 50 156 4 50 156 4 50 156 4 50 156 4 50 156 4 50 156 4 50 156 
4 50 156 4 50 156 4 50 156 4 50 156 4 50 156 4 50 156 4 50 156 4 50 156 
4 50 156 4 50 156 4 50 156 4 50 156 4 50 156 4 50 156 4 50 156 4 50 156 
4 50 156 4 50 156 4 50 156 4 50 156 4 50 156 4 50 156 4 50 156 4 50 156 
4 50 156 4 50 156 4 50 156 4 50 156 4 50 156 4 50 156 4 50 156 4 50 156 
4 50 156 4 50 156 4 50 156 4 50 156 4 50 156 4 50 156 4 50 156 4 50 156 
4 50 156 4 50 156 4 50 156 4 50 156 4 50 156 4 50 156 4 50 156 4 50 156 4 50 156 4 50 156 4 50 156 4 50 156 4 50 156 4 50 156 4 50 156 4 50 156 
4 50 156 4 50 156 4 50 156 4 50 156 4 50 156 4 50 156 4 50 156 252 254 252 
252 254 252 252 254 252 252 254 252 252 254 252 252 254 252 252 254 252 252 254 252 252 254 252 
252 254 252 252 254 252 252 254 252 252 254 252 252 254 252 252 254 252 252 254 252 252 254 252 
252 254 252 252 254 252 252 254 252 252 254 252 252 254 252 252 254 252 252 254 252 252 254 252 
252 254 252 252 254 252 252 254 252 252 254 252 252 254 252 252 254 252 252 254 252 252 254 252 
252 254 252 252 254 252 252 254 252 252 254 252 252 254 252 252 254 252 252 254 252 252 254 252 
252 254 252 252 254 252 252 254 252 252 254 252 252 254 252 252 254 252 252 254 252 4 50 156 
4 50 156 4 50 156 4 50 156 4 50 156 4 50 156 4 50 156 4 50 156 4 50 156 
4 50 156 4 50 156 4 50 156 4 50 156 4 50 156 4 50 156 4 50 156 4 50 156 
4 50 156 4 50 156 4 50 156 4 50 156 4 50 156 4 50 156 4 50 156 4 50 156 
4 50 156 4 50 156 4 50 156 4 50 156 4 50 156 4 50 156 4 50 156 4 50 156 
4 50 156 4 50 156 4 50 156 4 50 156 4 50 156 4 50 156 4 50 156 4 50 156 
4 50 156 4 50 156 4 50 156 4 50 156 4 50 156 4 50 156 4 50 156 4 50 156 
4 50 156 4 50 156 4 50 156 4 50 156 4 50 156 4 50 156 4 50 156 4 50 156 
4 50 156 4 50 156 4 50 156 4 50 156 4 50 156 4 50 156 4 50 156 4 50 156 
4 50 156 4 50 156 4 50 156 4 50 156 4 50 156 4 50 156 4 50 156 4 50 156 
4 50 156 4 50 156 4 50 156 4 50 156 4 50 156 4 50 156 4 50 156 4 50 156 
4 50 156 4 50 156 4 50 156 4 50 156 4 50 156 4 50 156 4 50 156 4 50 156 
4 50 156 4 50 156 4 50 156 4 50 156 4 50 156 4 50 156 4 50 156 4 50 156 
4 50 156 4 50 156 4 50 156 4 50 156 4 50 156 4 50 156 4 50 156 4 50 156 
4 50 156 4 50 156 4 50 156 4 50 156 4 50 156 4 50 156 4 50 156 4 50 156 
4 50 156 4 50 156 4 50 156 4 50 156 4 50 156 4 50 156 4 50 156 4 50 156 
4 50 156 4 50 156 4 50 156 4 50 156 4 50 156 4 50 156 4 50 156 4 50 156 
4 50 156 4 50 156 4 50 156 4 50 156 4 50 156 4 50 156 4 50 156 4 50 156 
4 50 156 4 50 156 4 50 156 4 50 156 4 50 156 4 50 156 4 50 156 4 50 156 
4 50 156 4 50 156 4 50 156 4 50 156 4 50 156 4 50 156 4 50 156 4 50 156 
4 50 156 4 50 156 4 50 156 4 50 156 4 50 156 4 50 156 4 50 156 4 50 156 
4 50 156 4 50 156 4 50 156 4 50 156 4 50 156 4 50 156 4 50 156 4 50 156 
4 50 156 4 50 156 4 50 156 4 50 156 4 50 156 4 50 156 4 50 156 4 50 156 4 50 156 4 50 156 4 50 156 4 50 156 4 50 156 4 50 156 4 50 156 4 50 156 
4 50 156 4 50 156 4 50 156 4 50 156 4 50 156 236 234 236 252 254 252 252 254 252 
252 254 252 252 254 252 252 254 252 252 254 252 252 254 252 252 254 252 252 254 252 252 254 252 
252 254 252 252 254 252 252 254 252 252 254 252 252 254 252 252 254 252 252 254 252 252 254 252 
252 254 252 252 254 252 252 254 252 252 254 252 252 254 252 252 254 252 252 254 252 252 254 252 
100 102 100 156 154 156 236 234 236 252 254 252 252 254 252 252 254 252 252 254 252 252 254 252 
252 254 252 252 254 252 252 254 252 252 254 252 252 254 252 252 254 252 252 254 252 252 254 252 
252 254 252 252 254 252 252 254 252 252 254 252 252 254 252 252 254 252 252 254 252 252 254 252 
4 50 156 4 50 156 4 50 156 4 50 156 4 50 156 4 50 156 4 50 156 4 50 156 
4 50 156 4 50 156 4 50 156 4 50 156 4 50 156 4 50 156 4 50 156 4 50 156 
4 50 156 4 50 156 4 50 156 4 50 156 4 50 156 4 50 156 4 50 156 4 50 156 
4 50 156 4 50 156 4 50 156 4 50 156 4 50 156 4 50 156 4 50 156 4 50 156 
4 50 156 4 50 156 4 50 156 4 50 156 4 50 156 4 50 156 4 50 156 4 50 156 
4 50 156 4 50 156 4 50 156 4 50 156 4 50 156 4 50 156 4 50 156 4 50 156 
4 50 156 4 50 156 4 50 156 4 50 156 4 50 156 4 50 156 4 50 156 4 50 156 
4 50 156 4 50 156 4 50 156 4 50 156 4 50 156 4 50 156 4 50 156 4 50 156 
4 50 156 4 50 156 4 50 156 4 50 156 4 50 156 4 50 156 4 50 156 4 50 156 
4 50 156 4 50 156 4 50 156 4 50 156 4 50 156 4 50 156 4 50 156 4 50 156 
4 50 156 4 50 156 4 50 156 4 50 156 4 50 156 4 50 156 4 50 156 4 50 156 
4 50 156 4 50 156 4 50 156 4 50 156 4 50 156 4 50 156 4 50 156 4 50 156 
4 50 156 4 50 156 4 50 156 4 50 156 4 50 156 4 50 156 4 50 156 4 50 156 
4 50 156 4 50 156 4 50 156 4 50 156 4 50 156 4 50 156 4 50 156 4 50 156 
4 50 156 4 50 156 4 50 156 4 50 156 4 50 156 4 50 156 4 50 156 4 50 156 
4 50 156 4 50 156 4 50 156 4 50 156 4 50 156 4 50 156 4 50 156 4 50 156 
4 50 156 4 50 156 4 50 156 4 50 156 4 50 156 4 50 156 4 50 156 4 50 156 
4 50 156 4 50 156 4 50 156 4 50 156 4 50 156 4 50 156 4 50 156 4 50 156 
4 50 156 4 50 156 4 50 156 4 50 156 4 50 156 4 50 156 4 50 156 4 50 156 
4 50 156 4 50 156 4 50 156 4 50 156 4 50 156 4 50 156 4 50 156 4 50 156 
4 50 156 4 50 156 4 50 156 4 50 156 4 50 156 4 50 156 4 50 156 4 50 156 
4 50 156 4 50 156 4 50 156 4 50 156 4 50 156 4 50 156 4 50 156 4 50 156 4 50 156 4 50 156 4 50 156 4 50 156 4 50 156 4 50 156 4 50 156 4 50 156 
4 50 156 4 50 156 4 50 156 4 50 156 252 254 252 252 254 252 252 254 252 252 254 252 
252 254 252 252 254 252 252 254 252 252 254 252 252 254 252 252 254 252 252 254 252 252 254 252 
252 254 252 252 254 252 252 254 252 252 254 252 252 254 252 252 254 252 252 254 252 252 254 252 
252 254 252 252 254 252 252 254 252 252 254 252 252 254 252 252 254 252 204 206 204 52 50 52 
4 2 4 4 2 4 4 2 4 100 102 100 236 234 236 252 254 252 252 254 252 252 254 252 
252 254 252 252 254 252 252 254 252 252 254 252 252 254 252 252 254 252 252 254 252 252 254 252 
252 254 252 252 254 252 252 254 252 252 254 252 252 254 252 252 254 252 252 254 252 252 254 252 
252 254 252 236 234 236 4 50 156 4 50 156 4 50 156 4 50 156 4 50 156 4 50 156 
4 50 156 4 50 156 4 50 156 4 50 156 4 50 156 4 50 156 4 50 156 4 50 156 
4 50 156 4 50 156 4 50 156 4 50 156 4 50 156 4 50 156 4 50 156 4 50 156 
4 50 156 4 50 156 4 50 156 4 50 156 4 50 156 4 50 156 4 50 156 4 50 156 
4 50 156 4 50 156 4 50 156 4 50 156 4 50 156 4 50 156 4 50 156 4 50 156 
4 50 156 4 50 156 4 50 156 4 50 156 4 50 156 4 50 156 4 50 156 4 50 156 
4 50 156 4 50 156 4 50 156 4 50 156 4 50 156 4 50 156 4 50 156 4 50 156 
4 50 156 4 50 156 4 50 156 4 50 156 4 50 156 4 50 156 4 50 156 4 50 156 
4 50 156 4 50 156 4 50 156 4 50 156 4 50 156 4 50 156 4 50 156 4 50 156 
4 50 156 4 50 156 4 50 156 4 50 156 4 50 156 4 50 156 4 50 156 4 50 156 
4 50 156 4 50 156 4 50 156 4 50 156 4 50 156 4 50 156 4 50 156 4 50 156 
4 50 156 4 50 156 4 50 156 4 50 156 4 50 156 4 50 156 4 50 156 4 50 156 
4 50 156 4 50 156 4 50 156 4 50 156 4 50 156 4 50 156 4 50 156 4 50 156 
4 50 156 4 50 156 4 50 156 4 50 156 4 50 156 4 50 156 4 50 156 4 50 156 
4 50 156 4 50 156 4 50 156 4 50 156 4 50 156 4 50 156 4 50 156 4 50 156 
4 50 156 4 50 156 4 50 156 4 50 156 4 50 156 4 50 156 4 50 156 4 50 156 
4 50 156 4 50 156 4 50 156 4 50 156 4 50 156 4 50 156 4 50 156 4 50 156 
4 50 156 4 50 156 4 50 156 4 50 156 4 50 156 4 50 156 4 50 156 4 50 156 
4 50 156 4 50 156 4 50 156 4 50 156 4 50 156 4 50 156 4 50 156 4 50 156 
4 50 156 4 50 156 4 50 156 4 50 156 4 50 156 4 50 156 4 50 156 4 50 156 
4 50 156 4 50 156 4 50 156 4 50 156 4 50 156 4 50 156 4 50 156 4 50 156 
4 50 156 4 50 156 4 50 156 4 50 156 4 50 156 4 50 156 4 50 156 4 50 156 4 50 156 4 50 156 4 50 156 4 50 156 4 50 156 4 50 156 4 50 156 4 50 156 
4 50 156 4 50 156 4 50 156 252 254 252 252 254 252 252 254 252 252 254 252 252 254 252 
252 254 252 252 254 252 252 254 252 252 254 252 252 254 252 252 254 252 252 254 252 252 254 252 
252 254 252 252 254 252 252 254 252 252 254 252 252 254 252 252 254 252 252 254 252 252 254 252 
252 254 252 252 254 252 252 254 252 252 254 252 252 254 252 180 174 180 180 174 180 156 154 156 
52 50 52 4 2 4 4 2 4 4 2 4 76 70 68 204 206 204 252 254 252 236 234 236 
252 254 252 252 254 252 252 254 252 252 254 252 252 254 252 252 254 252 252 254 252 252 254 252 
252 254 252 252 254 252 252 254 252 252 254 252 252 254 252 252 254 252 252 254 252 252 254 252 
252 254 252 252 254 252 236 234 236 4 50 156 4 50 156 4 50 156 4 50 156 4 50 156 
4 50 156 4 50 156 4 50 156 4 50 156 4 50 156 4 50 156 4 50 156 4 50 156 
4 50 156 4 50 156 4 50 156 4 50 156 4 50 156 4 50 156 4 50 156 4 50 156 
4 50 156 4 50 156 4 50 156 4 50 156 4 50 156 4 50 156 4 50 156 4 50 156 
4 50 156 4 50 156 4 50 156 4 50 156 4 50 156 4 50 156 4 50 156 4 50 156 
4 50 156 4 50 156 4 50 156 4 50 156 4 50 156 4 50 156 4 50 156 4 50 156 
4 50 156 4 50 156 4 50 156 4 50 156 4 50 156 4 50 156 4 50 156 4 50 156 
4 50 156 4 50 156 4 50 156 4 50 156 4 50 156 4 50 156 4 50 156 4 50 156 
4 50 156 4 50 156 4 50 156 4 50 156 4 50 156 4 50 156 4 50 156 4 50 156 
4 50 156 4 50 156 4 50 156 4 50 156 4 50 156 4 50 156 4 50 156 4 50 156 
4 50 156 4 50 156 4 50 156 4 50 156 4 50 156 4 50 156 4 50 156 4 50 156 
4 50 156 4 50 156 4 50 156 4 50 156 4 50 156 4 50 156 4 50 156 4 50 156 
4 50 156 4 50 156 4 50 156 4 50 156 4 50 156 4 50 156 4 50 156 4 50 156 
4 50 156 4 50 156 4 50 156 4 50 156 4 50 156 4 50 156 4 50 156 4 50 156 
4 50 156 4 50 156 4 50 156 4 50 156 4 50 156 4 50 156 4 50 156 4 50 156 
4 50 156 4 50 156 4 50 156 4 50 156 4 50 156 4 50 156 4 50 156 4 50 156 
4 50 156 4 50 156 4 50 156 4 50 156 4 50 156 4 50 156 4 50 156 4 50 156 
4 50 156 4 50 156 4 50 156 4 50 156 4 50 156 4 50 156 4 50 156 4 50 156 
4 50 156 4 50 156 4 50 156 4 50 156 4 50 156 4 50 156 4 50 156 4 50 156 
4 50 156 4 50 156 4 50 156 4 50 156 4 50 156 4 50 156 4 50 156 4 50 156 
4 50 156 4 50 156 4 50 156 4 50 156 4 50 156 4 50 156 4 50 156 4 50 156 
4 50 156 4 50 156 4 50 156 4 50 156 4 50 156 4 50 156 4 50 156 4 50 156 4 50 156 4 50 156 4 50 156 4 50 156 4 50 156 4 50 156 4 50 156 4 50 156 
4 50 156 4 50 156 252 254 252 252 254 252 252 254 252 252 254 252 252 254 252 252 254 252 
252 254 252 252 254 252 252 254 252 252 254 252 252 254 252 252 254 252 252 254 252 252 254 252 
252 254 252 252 254 252 252 254 252 252 254 252 252 254 252 252 254 252 252 254 252 252 254 252 
252 254 252 252 254 252 252 254 252 252 254 252 252 254 252 180 174 180 204 206 204 204 206 204 
204 206 204 156 154 156 52 50 52 4 2 4 4 2 4 52 50 52 180 174 180 252 254 252 
236 234 236 252 254 252 252 254 252 252 254 252 252 254 252 252 254 252 252 254 252 252 254 252 
252 254 252 252 254 252 252 254 252 252 254 252 252 254 252 252 254 252 252 254 252 252 254 252 
252 254 252 252 254 252 252 254 252 236 234 236 4 50 156 4 50 156 4 50 156 4 50 156 
4 50 156 4 50 156 4 50 156 4 50 156 4 50 156 4 50 156 4 50 156 4 50 156 
4 50 156 4 50 156 4 50 156 4 50 156 4 50 156 4 50 156 4 50 156 4 50 156 
4 50 156 4 50 156 4 50 156 4 50 156 4 50 156 4 50 156 4 50 156 4 50 156 
4 50 156 4 50 156 4 50 156 4 50 156 4 50 156 4 50 156 4 50 156 4 50 156 
4 50 156 4 50 156 4 50 156 4 50 156 4 50 156 4 50 156 4 50 156 4 50 156 
4 50 156 4 50 156 4 50 156 4 50 156 4 50 156 4 50 156 4 50 156 4 50 156 
4 50 156 4 50 156 4 50 156 4 50 156 4 50 156 4 50 156 4 50 156 4 50 156 
4 50 156 4 50 156 4 50 156 4 50 156 4 50 156 4 50 156 4 50 156 4 50 156 
4 50 156 4 50 156 4 50 156 4 50 156 4 50 156 4 50 156 4 50 156 4 50 156 
4 50 156 4 50 156 4 50 156 4 50 156 4 50 156 4 50 156 4 50 156 4 50 156 
4 50 156 4 50 156 4 50 156 4 50 156 4 50 156 4 50 156 4 50 156 4 50 156 
4 50 156 4 50 156 4 50 156 4 50 156 4 50 156 4 50 156 4 50 156 4 50 156 
4 50 156 4 50 156 4 50 156 4 50 156 4 50 156 4 50 156 4 50 156 4 50 156 
4 50 156 4 50 156 4 50 156 4 50 156 4 50 156 4 50 156 4 50 156 4 50 156 
4 50 156 4 50 156 4 50 156 4 50 156 4 50 156 4 50 156 4 50 156 4 50 156 
4 50 156 4 50 156 4 50 156 4 50 156 4 50 156 4 50 156 4 50 156 4 50 156 
4 50 156 4 50 156 4 50 156 4 50 156 4 50 156 4 50 156 4 50 156 4 50 156 
4 50 156 4 50 156 4 50 156 4 50 156 4 50 156 4 50 156 4 50 156 4 50 156 
4 50 156 4 50 156 4 50 156 4 50 156 4 50 156 4 50 156 4 50 156 4 50 156 
4 50 156 4 50 156 4 50 156 4 50 156 4 50 156 4 50 156 4 50 156 4 50 156 
4 50 156 4 50 156 4 50 156 4 50 156 4 50 156 4 50 156 4 50 156 4 50 156 4 50 156 4 50 156 4 50 156 4 50 156 4 50 156 4 50 156 4 50 156 4 50 156 
4 50 156 252 254 252 252 254 252 252 254 252 252 254 252 252 254 252 252 254 252 252 254 252 
252 254 252 252 254 252 252 254 252 252 254 252 252 254 252 252 254 252 252 254 252 252 254 252 
252 254 252 252 254 252 252 254 252 252 254 252 252 254 252 252 254 252 252 254 252 252 254 252 
252 254 252 252 254 252 252 254 252 252 254 252 236 234 236 180 174 180 180 174 180 204 206 204 
204 206 204 204 206 204 204 206 204 76 70 68 4 2 4 4 2 4 4 2 4 204 206 204 
252 254 252 252 254 252 252 254 252 252 254 252 252 254 252 252 254 252 252 254 252 252 254 252 
252 254 252 252 254 252 252 254 252 252 254 252 252 254 252 252 254 252 252 254 252 252 254 252 
252 254 252 252 254 252 252 254 252 252 254 252 236 234 236 4 50 156 4 50 156 4 50 156 
4 50 156 4 50 156 4 50 156 4 50 156 4 50 156 4 50 156 4 50 156 4 50 156 
4 50 156 4 50 156 4 50 156 4 50 156 4 50 156 4 50 156 4 50 156 4 50 156 
4 50 156 4 50 156 4 50 156 4 50 156 4 50 156 4 50 156 4 50 156 4 50 156 
4 50 156 4 50 156 4 50 156 4 50 156 4 50 156 4 50 156 4 50 156 4 50 156 
4 50 156 4 50 156 4 50 156 4 50 156 4 50 156 4 50 156 4 50 156 4 50 156 
4 50 156 4 50 156 4 50 156 4 50 156 4 50 156 4 50 156 4 50 156 4 50 156 
4 50 156 4 50 156 4 50 156 4 50 156 4 50 156 4 50 156 4 50 156 4 50 156 
4 50 156 4 50 156 4 50 156 4 50 156 4 50 156 4 50 156 4 50 156 4 50 156 
4 50 156 4 50 156 4 50 156 4 50 156 4 50 156 4 50 156 4 50 156 4 50 156 
4 50 156 4 50 156 4 50 156 4 50 156 4 50 156 4 50 156 4 50 156 4 50 156 
4 50 156 4 50 156 4 50 156 4 50 156 4 50 156 4 50 156 4 50 156 4 50 156 
4 50 156 4 50 156 4 50 156 4 50 156 4 50 156 4 50 156 4 50 156 4 50 156 
4 50 156 4 50 156 4 50 156 4 50 156 4 50 156 4 50 156 4 50 156 4 50 156 
4 50 156 4 50 156 4 50 156 4 50 156 4 50 156 4 50 156 4 50 156 4 50 156 
4 50 156 4 50 156 4 50 156 4 50 156 4 50 156 4 50 156 4 50 156 4 50 156 
4 50 156 4 50 156 4 50 156 4 50 156 4 50 156 4 50 156 4 50 156 4 50 156 
4 50 156 4 50 156 4 50 156 4 50 156 4 50 156 4 50 156 4 50 156 4 50 156 
4 50 156 4 50 156 4 50 156 4 50 156 4 50 156 4 50 156 4 50 156 4 50 156 
4 50 156 4 50 156 4 50 156 4 50 156 4 50 156 4 50 156 4 50 156 4 50 156 
4 50 156 4 50 156 4 50 156 4 50 156 4 50 156 4 50 156 4 50 156 4 50 156 
4 50 156 4 50 156 4 50 156 4 50 156 4 50 156 4 50 156 4 50 156 4 50 156 4 50 156 4 50 156 4 50 156 4 50 156 4 50 156 4 50 156 4 50 156 4 50 156 
252 254 252 252 254 252 252 254 252 252 254 252 252 254 252 252 254 252 252 254 252 252 254 252 
252 254 252 252 254 252 252 254 252 252 254 252 252 254 252 252 254 252 252 254 252 252 254 252 
252 254 252 252 254 252 252 254 252 252 254 252 252 254 252 252 254 252 252 254 252 252 254 252 
252 254 252 252 254 252 252 254 252 252 254 252 236 234 236 180 174 180 180 174 180 180 174 180 
204 206 204 204 206 204 180 174 180 204 206 204 100 102 100 4 2 4 52 50 52 4 2 4 
204 206 204 252 254 252 252 254 252 252 254 252 252 254 252 252 254 252 252 254 252 252 254 252 
252 254 252 252 254 252 252 254 252 252 254 252 252 254 252 252 254 252 252 254 252 252 254 252 
252 254 252 252 254 252 252 254 252 252 254 252 252 254 252 236 234 236 4 50 156 4 50 156 
4 50 156 4 50 156 4 50 156 4 50 156 4 50 156 4 50 156 4 50 156 4 50 156 
4 50 156 4 50 156 4 50 156 4 50 156 4 50 156 4 50 156 4 50 156 4 50 156 
4 50 156 4 50 156 4 50 156 4 50 156 4 50 156 4 50 156 4 50 156 4 50 156 
4 50 156 4 50 156 4 50 156 4 50 156 4 50 156 4 50 156 4 50 156 4 50 156 
4 50 156 4 50 156 4 50 156 4 50 156 4 50 156 4 50 156 4 50 156 4 50 156 
4 50 156 4 50 156 4 50 156 4 50 156 4 50 156 4 50 156 4 50 156 4 50 156 
4 50 156 4 50 156 4 50 156 4 50 156 4 50 156 4 50 156 4 50 156 4 50 156 
4 50 156 4 50 156 4 50 156 4 50 156 4 50 156 4 50 156 4 50 156 4 50 156 
4 50 156 4 50 156 4 50 156 4 50 156 4 50 156 4 50 156 4 50 156 4 50 156 
4 50 156 4 50 156 4 50 156 4 50 156 4 50 156 4 50 156 4 50 156 4 50 156 
4 50 156 4 50 156 4 50 156 4 50 156 4 50 156 4 50 156 4 50 156 4 50 156 
4 50 156 4 50 156 4 50 156 4 50 156 4 50 156 4 50 156 4 50 156 4 50 156 
4 50 156 4 50 156 4 50 156 4 50 156 4 50 156 4 50 156 4 50 156 4 50 156 
4 50 156 4 50 156 4 50 156 4 50 156 4 50 156 4 50 156 4 50 156 4 50 156 
4 50 156 4 50 156 4 50 156 4 50 156 4 50 156 4 50 156 4 50 156 4 50 156 
4 50 156 4 50 156 4 50 156 4 50 156 4 50 156 4 50 156 4 50 156 4 50 156 
4 50 156 4 50 156 4 50 156 4 50 156 4 50 156 4 50 156 4 50 156 4 50 156 
4 50 156 4 50 156 4 50 156 4 50 156 4 50 156 4 50 156 4 50 156 4 50 156 
4 50 156 4 50 156 4 50 156 4 50 156 4 50 156 4 50 156 4 50 156 4 50 156 
4 50 156 4 50 156 4 50 156 4 50 156 4 50 156 4 50 156 4 50 156 4 50 156 
4 50 156 4 50 156 4 50 156 4 50 156 4 50 156 4 50 156 4 50 156 4 50 156 4 50 156 4 50 156 4 50 156 4 50 156 4 50 156 4 50 156 4 50 156 252 254 252 
252 254 252 252 254 252 252 254 252 252 254 252 252 254 252 252 254 252 252 254 252 252 254 252 
252 254 252 252 254 252 252 254 252 252 254 252 252 254 252 252 254 252 252 254 252 252 254 252 
252 254 252 252 254 252 252 254 252 252 254 252 252 254 252 252 254 252 252 254 252 252 254 252 
252 254 252 252 254 252 252 254 252 252 254 252 236 234 236 156 154 156 204 206 204 156 154 156 
100 102 100 100 102 100 180 174 180 204 206 204 180 174 180 100 102 100 4 2 4 52 50 52 
4 2 4 156 154 156 252 254 252 236 234 236 252 254 252 252 254 252 252 254 252 252 254 252 
252 254 252 252 254 252 252 254 252 252 254 252 252 254 252 252 254 252 252 254 252 252 254 252 
252 254 252 252 254 252 252 254 252 252 254 252 252 254 252 252 254 252 4 50 156 4 50 156 
4 50 156 4 50 156 4 50 156 4 50 156 4 50 156 4 50 156 4 50 156 4 50 156 
4 50 156 4 50 156 4 50 156 4 50 156 4 50 156 4 50 156 4 50 156 4 50 156 
4 50 156 4 50 156 4 50 156 4 50 156 4 50 156 4 50 156 4 50 156 4 50 156 
4 50 156 4 50 156 4 50 156 4 50 156 4 50 156 4 50 156 4 50 156 4 50 156 
4 50 156 4 50 156 4 50 156 4 50 156 4 50 156 4 50 156 4 50 156 4 50 156 
4 50 156 4 50 156 4 50 156 4 50 156 4 50 156 4 50 156 4 50 156 4 50 156 
4 50 156 4 50 156 4 50 156 4 50 156 4 50 156 4 50 156 4 50 156 4 50 156 
4 50 156 4 50 156 4 50 156 4 50 156 4 50 156 4 50 156 4 50 156 4 50 156 
4 50 156 4 50 156 4 50 156 4 50 156 4 50 156 4 50 156 4 50 156 4 50 156 
4 50 156 4 50 156 4 50 156 4 50 156 4 50 156 4 50 156 4 50 156 4 50 156 
4 50 156 4 50 156 4 50 156 4 50 156 4 50 156 4 50 156 4 50 156 4 50 156 
4 50 156 4 50 156 4 50 156 4 50 156 4 50 156 4 50 156 4 50 156 4 50 156 
4 50 156 4 50 156 4 50 156 4 50 156 4 50 156 4 50 156 4 50 156 4 50 156 
4 50 156 4 50 156 4 50 156 4 50 156 4 50 156 4 50 156 4 50 156 4 50 156 
4 50 156 4 50 156 4 50 156 4 50 156 4 50 156 4 50 156 4 50 156 4 50 156 
4 50 156 4 50 156 4 50 156 4 50 156 4 50 156 4 50 156 4 50 156 4 50 156 
4 50 156 4 50 156 4 50 156 4 50 156 4 50 156 4 50 156 4 50 156 4 50 156 
4 50 156 4 50 156 4 50 156 4 50 156 4 50 156 4 50 156 4 50 156 4 50 156 
4 50 156 4 50 156 4 50 156 4 50 156 4 50 156 4 50 156 4 50 156 4 50 156 
4 50 156 4 50 156 4 50 156 4 50 156 4 50 156 4 50 156 4 50 156 4 50 156 
4 50 156 4 50 156 4 50 156 4 50 156 4 50 156 4 50 156 4 50 156 4 50 156 4 50 156 4 50 156 4 50 156 4 50 156 4 50 156 4 50 156 236 234 236 252 254 252 
252 254 252 252 254 252 252 254 252 252 254 252 252 254 252 252 254 252 252 254 252 252 254 252 
252 254 252 252 254 252 252 254 252 252 254 252 252 254 252 252 254 252 252 254 252 252 254 252 
252 254 252 252 254 252 252 254 252 252 254 252 252 254 252 252 254 252 252 254 252 252 254 252 
252 254 252 252 254 252 252 254 252 252 254 252 252 254 252 156 154 156 180 174 180 100 102 100 
100 102 100 100 102 100 92 90 92 100 102 100 180 174 180 204 206 204 100 102 100 52 50 52 
52 50 52 52 50 52 180 174 180 252 254 252 252 254 252 252 254 252 252 254 252 252 254 252 
252 254 252 252 254 252 252 254 252 252 254 252 252 254 252 252 254 252 252 254 252 252 254 252 
252 254 252 252 254 252 252 254 252 252 254 252 252 254 252 252 254 252 252 254 252 4 50 156 
4 50 156 4 50 156 4 50 156 4 50 156 4 50 156 4 50 156 4 50 156 4 50 156 
4 50 156 4 50 156 4 50 156 4 50 156 4 50 156 4 50 156 4 50 156 4 50 156 
4 50 156 4 50 156 4 50 156 4 50 156 4 50 156 4 50 156 4 50 156 4 50 156 
4 50 156 4 50 156 4 50 156 4 50 156 4 50 156 4 50 156 4 50 156 4 50 156 
4 50 156 4 50 156 4 50 156 4 50 156 4 50 156 4 50 156 4 50 156 4 50 156 
4 50 156 4 50 156 4 50 156 4 50 156 4 50 156 4 50 156 4 50 156 4 50 156 
4 50 156 4 50 156 4 50 156 4 50 156 4 50 156 4 50 156 4 50 156 4 50 156 
4 50 156 4 50 156 4 50 156 4 50 156 4 50 156 4 50 156 4 50 156 4 50 156 
4 50 156 4 50 156 4 50 156 4 50 156 4 50 156 4 50 156 4 50 156 4 50 156 
4 50 156 4 50 156 4 50 156 4 50 156 4 50 156 4 50 156 4 50 156 4 50 156 
4 50 156 4 50 156 4 50 156 4 50 156 4 50 156 4 50 156 4 50 156 4 50 156 
4 50 156 4 50 156 4 50 156 4 50 156 4 50 156 4 50 156 4 50 156 4 50 156 
4 50 156 4 50 156 4 50 156 4 50 156 4 50 156 4 50 156 4 50 156 4 50 156 
4 50 156 4 50 156 4 50 156 4 50 156 4 50 156 4 50 156 4 50 156 4 50 156 
4 50 156 4 50 156 4 50 156 4 50 156 4 50 156 4 50 156 4 50 156 4 50 156 
4 50 156 4 50 156 4 50 156 4 50 156 4 50 156 4 50 156 4 50 156 4 50 156 
4 50 156 4 50 156 4 50 156 4 50 156 4 50 156 4 50 156 4 50 156 4 50 156 
4 50 156 4 50 156 4 50 156 4 50 156 4 50 156 4 50 156 4 50 156 4 50 156 
4 50 156 4 50 156 4 50 156 4 50 156 4 50 156 4 50 156 4 50 156 4 50 156 
4 50 156 4 50 156 4 50 156 4 50 156 4 50 156 4 50 156 4 50 156 4 50 156 
4 50 156 4 50 156 4 50 156 4 50 156 4 50 156 4 50 156 4 50 156 4 50 156 4 50 156 4 50 156 4 50 156 4 50 156 4 50 156 4 50 156 252 254 252 252 254 252 
252 254 252 252 254 252 252 254 252 252 254 252 252 254 252 252 254 252 252 254 252 252 254 252 
252 254 252 252 254 252 252 254 252 252 254 252 252 254 252 252 254 252 252 254 252 252 254 252 
252 254 252 252 254 252 252 254 252 252 254 252 252 254 252 252 254 252 252 254 252 252 254 252 
252 254 252 252 254 252 252 254 252 252 254 252 236 234 236 92 90 92 180 174 180 100 102 100 
92 90 92 100 102 100 100 102 100 100 102 100 100 102 100 156 154 156 180 174 180 92 90 92 
52 50 52 52 50 52 52 50 52 204 206 204 252 254 252 252 254 252 252 254 252 252 254 252 
252 254 252 252 254 252 252 254 252 252 254 252 252 254 252 252 254 252 252 254 252 252 254 252 
252 254 252 252 254 252 252 254 252 252 254 252 252 254 252 252 254 252 252 254 252 252 254 252 
4 50 156 4 50 156 4 50 156 4 50 156 4 50 156 4 50 156 4 50 156 4 50 156 
4 50 156 4 50 156 4 50 156 4 50 156 4 50 156 4 50 156 4 50 156 4 50 156 
4 50 156 4 50 156 4 50 156 4 50 156 4 50 156 4 50 156 4 50 156 4 50 156 
4 50 156 4 50 156 4 50 156 4 50 156 4 50 156 4 50 156 4 50 156 4 50 156 
4 50 156 4 50 156 4 50 156 4 50 156 4 50 156 4 50 156 4 50 156 4 50 156 
4 50 156 4 50 156 4 50 156 4 50 156 4 50 156 4 50 156 4 50 156 4 50 156 
4 50 156 4 50 156 4 50 156 4 50 156 4 50 156 4 50 156 4 50 156 4 50 156 
4 50 156 4 50 156 4 50 156 4 50 156 4 50 156 4 50 156 4 50 156 4 50 156 
4 50 156 4 50 156 4 50 156 4 50 156 4 50 156 4 50 156 4 50 156 4 50 156 
4 50 156 4 50 156 4 50 156 4 50 156 4 50 156 4 50 156 4 50 156 4 50 156 
4 50 156 4 50 156 4 50 156 4 50 156 4 50 156 4 50 156 4 50 156 4 50 156 
4 50 156 4 50 156 4 50 156 4 50 156 4 50 156 4 50 156 4 50 156 4 50 156 
4 50 156 4 50 156 4 50 156 4 50 156 4 50 156 4 50 156 4 50 156 4 50 156 
4 50 156 4 50 156 4 50 156 4 50 156 4 50 156 4 50 156 4 50 156 4 50 156 
4 50 156 4 50 156 4 50 156 4 50 156 4 50 156 4 50 156 4 50 156 4 50 156 
4 50 156 4 50 156 4 50 156 4 50 156 4 50 156 4 50 156 4 50 156 4 50 156 
4 50 156 4 50 156 4 50 156 4 50 156 4 50 156 4 50 156 4 50 156 4 50 156 
4 50 156 4 50 156 4 50 156 4 50 156 4 50 156 4 50 156 4 50 156 4 50 156 
4 50 156 4 50 156 4 50 156 4 50 156 4 50 156 4 50 156 4 50 156 4 50 156 
4 50 156 4 50 156 4 50 156 4 50 156 4 50 156 4 50 156 4 50 156 4 50 156 
4 50 156 4 50 156 4 50 156 4 50 156 4 50 156 4 50 156 4 50 156 4 50 156 4 50 156 4 50 156 4 50 156 4 50 156 4 50 156 252 254 252 252 254 252 252 254 252 
252 254 252 252 254 252 252 254 252 252 254 252 252 254 252 252 254 252 252 254 252 252 254 252 
252 254 252 252 254 252 252 254 252 252 254 252 252 254 252 252 254 252 252 254 252 252 254 252 
252 254 252 252 254 252 252 254 252 252 254 252 252 254 252 252 254 252 252 254 252 252 254 252 
252 254 252 252 254 252 252 254 252 252 254 252 252 254 252 156 154 156 156 154 156 100 102 100 
100 102 100 100 102 100 100 102 100 92 90 92 100 102 100 100 102 100 156 154 156 180 174 180 
100 102 100 4 2 4 52 50 52 52 50 52 236 234 236 252 254 252 252 254 252 252 254 252 
252 254 252 252 254 252 252 254 252 252 254 252 252 254 252 252 254 252 252 254 252 252 254 252 
252 254 252 252 254 252 252 254 252 252 254 252 252 254 252 252 254 252 252 254 252 252 254 252 
236 234 236 4 50 156 4 50 156 4 50 156 4 50 156 4 50 156 4 50 156 4 50 156 
4 50 156 4 50 156 4 50 156 4 50 156 4 50 156 4 50 156 4 50 156 4 50 156 
4 50 156 4 50 156 4 50 156 4 50 156 4 50 156 4 50 156 4 50 156 4 50 156 
4 50 156 4 50 156 4 50 156 4 50 156 4 50 156 4 50 156 4 50 156 4 50 156 
4 50 156 4 50 156 4 50 156 4 50 156 4 50 156 4 50 156 4 50 156 4 50 156 
4 50 156 4 50 156 4 50 156 4 50 156 4 50 156 4 50 156 4 50 156 4 50 156 
4 50 156 4 50 156 4 50 156 4 50 156 4 50 156 4 50 156 4 50 156 4 50 156 
4 50 156 4 50 156 4 50 156 4 50 156 4 50 156 4 50 156 4 50 156 4 50 156 
4 50 156 4 50 156 4 50 156 4 50 156 4 50 156 4 50 156 4 50 156 4 50 156 
4 50 156 4 50 156 4 50 156 4 50 156 4 50 156 4 50 156 4 50 156 4 50 156 
4 50 156 4 50 156 4 50 156 4 50 156 4 50 156 4 50 156 4 50 156 4 50 156 
4 50 156 4 50 156 4 50 156 4 50 156 4 50 156 4 50 156 4 50 156 4 50 156 
4 50 156 4 50 156 4 50 156 4 50 156 4 50 156 4 50 156 4 50 156 4 50 156 
4 50 156 4 50 156 4 50 156 4 50 156 4 50 156 4 50 156 4 50 156 4 50 156 
4 50 156 4 50 156 4 50 156 4 50 156 4 50 156 4 50 156 4 50 156 4 50 156 
4 50 156 4 50 156 4 50 156 4 50 156 4 50 156 4 50 156 4 50 156 4 50 156 
4 50 156 4 50 156 4 50 156 4 50 156 4 50 156 4 50 156 4 50 156 4 50 156 
4 50 156 4 50 156 4 50 156 4 50 156 4 50 156 4 50 156 4 50 156 4 50 156 
4 50 156 4 50 156 4 50 156 4 50 156 4 50 156 4 50 156 4 50 156 4 50 156 
4 50 156 4 50 156 4 50 156 4 50 156 4 50 156 4 50 156 4 50 156 4 50 156 
4 50 156 4 50 156 4 50 156 4 50 156 4 50 156 4 50 156 4 50 156 4 50 156 4 50 156 4 50 156 4 50 156 4 50 156 252 254 252 252 254 252 252 254 252 252 254 252 
252 254 252 252 254 252 252 254 252 252 254 252 252 254 252 252 254 252 252 254 252 252 254 252 
252 254 252 252 254 252 252 254 252 252 254 252 252 254 252 252 254 252 252 254 252 252 254 252 
252 254 252 252 254 252 252 254 252 252 254 252 252 254 252 252 254 252 252 254 252 252 254 252 
252 254 252 252 254 252 252 254 252 252 254 252 252 254 252 236 234 236 156 154 156 92 90 92 
100 102 100 100 102 100 92 90 92 100 102 100 100 102 100 100 102 100 100 102 100 156 154 156 
156 154 156 100 102 100 52 50 52 52 50 52 92 90 92 252 254 252 236 234 236 252 254 252 
252 254 252 252 254 252 252 254 252 252 254 252 252 254 252 252 254 252 252 254 252 252 254 252 
252 254 252 252 254 252 252 254 252 252 254 252 252 254 252 252 254 252 252 254 252 252 254 252 
252 254 252 4 50 156 4 50 156 4 50 156 4 50 156 4 50 156 4 50 156 4 50 156 
4 50 156 4 50 156 4 50 156 4 50 156 4 50 156 4 50 156 4 50 156 4 50 156 
4 50 156 4 50 156 4 50 156 4 50 156 4 50 156 4 50 156 4 50 156 4 50 156 
4 50 156 4 50 156 4 50 156 4 50 156 4 50 156 4 50 156 4 50 156 4 50 156 
4 50 156 4 50 156 4 50 156 4 50 156 4 50 156 4 50 156 4 50 156 4 50 156 
4 50 156 4 50 156 4 50 156 4 50 156 4 50 156 4 50 156 4 50 156 4 50 156 
4 50 156 4 50 156 4 50 156 4 50 156 4 50 156 4 50 156 4 50 156 4 50 156 
4 50 156 4 50 156 4 50 156 4 50 156 4 50 156 4 50 156 4 50 156 4 50 156 
4 50 156 4 50 156 4 50 156 4 50 156 4 50 156 4 50 156 4 50 156 4 50 156 
4 50 156 4 50 156 4 50 156 4 50 156 4 50 156 4 50 156 4 50 156 4 50 156 
4 50 156 4 50 156 4 50 156 4 50 156 4 50 156 4 50 156 4 50 156 4 50 156 
4 50 156 4 50 156 4 50 156 4 50 156 4 50 156 4 50 156 4 50 156 4 50 156 
4 50 156 4 50 156 4 50 156 4 50 156 4 50 156 4 50 156 4 50 156 4 50 156 
4 50 156 4 50 156 4 50 156 4 50 156 4 50 156 4 50 156 4 50 156 4 50 156 
4 50 156 4 50 156 4 50 156 4 50 156 4 50 156 4 50 156 4 50 156 4 50 156 
4 50 156 4 50 156 4 50 156 4 50 156 4 50 156 4 50 156 4 50 156 4 50 156 
4 50 156 4 50 156 4 50 156 4 50 156 4 50 156 4 50 156 4 50 156 4 50 156 
4 50 156 4 50 156 4 50 156 4 50 156 4 50 156 4 50 156 4 50 156 4 50 156 
4 50 156 4 50 156 4 50 156 4 50 156 4 50 156 4 50 156 4 50 156 4 50 156 
4 50 156 4 50 156 4 50 156 4 50 156 4 50 156 4 50 156 4 50 156 4 50 156 
4 50 156 4 50 156 4 50 156 4 50 156 4 50 156 4 50 156 4 50 156 4 50 156 4 50 156 4 50 156 4 50 156 4 50 156 252 254 252 252 254 252 252 254 252 252 254 252 
252 254 252 252 254 252 252 254 252 252 254 252 252 254 252 252 254 252 252 254 252 252 254 252 
252 254 252 252 254 252 252 254 252 252 254 252 252 254 252 252 254 252 252 254 252 252 254 252 
252 254 252 252 254 252 252 254 252 252 254 252 252 254 252 252 254 252 252 254 252 252 254 252 
252 254 252 252 254 252 252 254 252 252 254 252 252 254 252 252 254 252 100 102 100 100 102 100 
92 90 92 100 102 100 100 102 100 100 102 100 92 90 92 92 90 92 92 90 92 92 90 92 
156 154 156 156 154 156 76 70 68 52 50 52 52 50 52 156 154 156 252 254 252 236 234 236 
252 254 252 252 254 252 252 254 252 252 254 252 252 254 252 252 254 252 252 254 252 252 254 252 
252 254 252 252 254 252 252 254 252 252 254 252 252 254 252 252 254 252 252 254 252 252 254 252 
252 254 252 252 254 252 4 50 156 4 50 156 4 50 156 4 50 156 4 50 156 4 50 156 
4 50 156 4 50 156 4 50 156 4 50 156 4 50 156 4 50 156 4 50 156 4 50 156 
4 50 156 4 50 156 4 50 156 4 50 156 4 50 156 4 50 156 4 50 156 4 50 156 
4 50 156 4 50 156 4 50 156 4 50 156 4 50 156 4 50 156 4 50 156 4 50 156 
4 50 156 4 50 156 4 50 156 4 50 156 4 50 156 4 50 156 4 50 156 4 50 156 
4 50 156 4 50 156 4 50 156 4 50 156 4 50 156 4 50 156 4 50 156 4 50 156 
4 50 156 4 50 156 4 50 156 4 50 156 4 50 156 4 50 156 4 50 156 4 50 156 
4 50 156 4 50 156 4 50 156 4 50 156 4 50 156 4 50 156 4 50 156 4 50 156 
4 50 156 4 50 156 4 50 156 4 50 156 4 50 156 4 50 156 4 50 156 4 50 156 
4 50 156 4 50 156 4 50 156 4 50 156 4 50 156 4 50 156 4 50 156 4 50 156 
4 50 156 4 50 156 4 50 156 4 50 156 4 50 156 4 50 156 4 50 156 4 50 156 
4 50 156 4 50 156 4 50 156 4 50 156 4 50 156 4 50 156 4 50 156 4 50 156 
4 50 156 4 50 156 4 50 156 4 50 156 4 50 156 4 50 156 4 50 156 4 50 156 
4 50 156 4 50 156 4 50 156 4 50 156 4 50 156 4 50 156 4 50 156 4 50 156 
4 50 156 4 50 156 4 50 156 4 50 156 4 50 156 4 50 156 4 50 156 4 50 156 
4 50 156 4 50 156 4 50 156 4 50 156 4 50 156 4 50 156 4 50 156 4 50 156 
4 50 156 4 50 156 4 50 156 4 50 156 4 50 156 4 50 156 4 50 156 4 50 156 
4 50 156 4 50 156 4 50 156 4 50 156 4 50 156 4 50 156 4 50 156 4 50 156 
4 50 156 4 50 156 4 50 156 4 50 156 4 50 156 4 50 156 4 50 156 4 50 156 
4 50 156 4 50 156 4 50 156 4 50 156 4 50 156 4 50 156 4 50 156 4 50 156 
4 50 156 4 50 156 4 50 156 4 50 156 4 50 156 4 50 156 4 50 156 4 50 156 4 50 156 4 50 156 4 50 156 252 254 252 252 254 252 252 254 252 252 254 252 252 254 252 
252 254 252 252 254 252 252 254 252 252 254 252 252 254 252 252 254 252 252 254 252 252 254 252 
252 254 252 252 254 252 252 254 252 252 254 252 252 254 252 252 254 252 252 254 252 252 254 252 
252 254 252 252 254 252 252 254 252 252 254 252 252 254 252 252 254 252 252 254 252 252 254 252 
236 234 236 252 254 252 252 254 252 252 254 252 252 254 252 236 234 236 156 154 156 100 102 100 
92 90 92 100 102 100 92 90 92 100 102 100 100 102 100 100 102 100 100 102 100 100 102 100 
92 90 92 156 154 156 156 154 156 52 50 52 76 70 68 92 90 92 156 154 156 252 254 252 
252 254 252 252 254 252 252 254 252 252 254 252 252 254 252 252 254 252 252 254 252 252 254 252 
252 254 252 252 254 252 252 254 252 252 254 252 252 254 252 252 254 252 252 254 252 252 254 252 
252 254 252 252 254 252 4 50 156 4 50 156 4 50 156 4 50 156 4 50 156 4 50 156 
4 50 156 4 50 156 4 50 156 4 50 156 4 50 156 4 50 156 4 50 156 4 50 156 
4 50 156 4 50 156 4 50 156 4 50 156 4 50 156 4 50 156 4 50 156 4 50 156 
4 50 156 4 50 156 4 50 156 4 50 156 4 50 156 4 50 156 4 50 156 4 50 156 
4 50 156 4 50 156 4 50 156 4 50 156 4 50 156 4 50 156 4 50 156 4 50 156 
4 50 156 4 50 156 4 50 156 4 50 156 4 50 156 4 50 156 4 50 156 4 50 156 
4 50 156 4 50 156 4 50 156 4 50 156 4 50 156 4 50 156 4 50 156 4 50 156 
4 50 156 4 50 156 4 50 156 4 50 156 4 50 156 4 50 156 4 50 156 4 50 156 
4 50 156 4 50 156 4 50 156 4 50 156 4 50 156 4 50 156 4 50 156 4 50 156 
4 50 156 4 50 156 4 50 156 4 50 156 4 50 156 4 50 156 4 50 156 4 50 156 
4 50 156 4 50 156 4 50 156 4 50 156 4 50 156 4 50 156 4 50 156 4 50 156 
4 50 156 4 50 156 4 50 156 4 50 156 4 50 156 4 50 156 4 50 156 4 50 156 
4 50 156 4 50 156 4 50 156 4 50 156 4 50 156 4 50 156 4 50 156 4 50 156 
4 50 156 4 50 156 4 50 156 4 50 156 4 50 156 4 50 156 4 50 156 4 50 156 
4 50 156 4 50 156 4 50 156 4 50 156 4 50 156 4 50 156 4 50 156 4 50 156 
4 50 156 4 50 156 4 50 156 4 50 156 4 50 156 4 50 156 4 50 156 4 50 156 
4 50 156 4 50 156 4 50 156 4 50 156 4 50 156 4 50 156 4 50 156 4 50 156 
4 50 156 4 50 156 4 50 156 4 50 156 4 50 156 4 50 156 4 50 156 4 50 156 
4 50 156 4 50 156 4 50 156 4 50 156 4 50 156 4 50 156 4 50 156 4 50 156 
4 50 156 4 50 156 4 50 156 4 50 156 4 50 156 4 50 156 4 50 156 4 50 156 
4 50 156 4 50 156 4 50 156 4 50 156 4 50 156 4 50 156 4 50 156 4 50 156 4 50 156 4 50 156 4 50 156 252 254 252 252 254 252 252 254 252 252 254 252 252 254 252 
252 254 252 252 254 252 252 254 252 252 254 252 252 254 252 252 254 252 252 254 252 252 254 252 
252 254 252 252 254 252 252 254 252 252 254 252 252 254 252 252 254 252 252 254 252 252 254 252 
252 254 252 252 254 252 236 234 236 252 254 252 252 254 252 252 254 252 252 254 252 252 254 204 
252 206 204 252 254 204 252 254 204 252 254 252 236 234 236 252 254 252 252 254 252 100 102 100 
100 102 100 100 102 100 100 102 100 100 102 100 100 102 100 92 90 92 100 102 100 92 90 92 
100 102 100 100 102 100 156 154 156 100 102 100 76 70 68 52 50 52 52 50 52 236 234 236 
236 234 236 252 254 252 252 254 252 236 234 236 252 254 252 252 254 252 252 254 252 252 254 252 
252 254 252 252 254 252 252 254 252 252 254 252 252 254 252 252 254 252 252 254 252 252 254 252 
252 254 252 252 254 252 252 254 252 4 50 156 4 50 156 4 50 156 4 50 156 4 50 156 
4 50 156 4 50 156 4 50 156 4 50 156 4 50 156 4 50 156 4 50 156 4 50 156 
4 50 156 4 50 156 4 50 156 4 50 156 4 50 156 4 50 156 4 50 156 4 50 156 
4 50 156 4 50 156 4 50 156 4 50 156 4 50 156 4 50 156 4 50 156 4 50 156 
4 50 156 4 50 156 4 50 156 4 50 156 4 50 156 4 50 156 4 50 156 4 50 156 
4 50 156 4 50 156 4 50 156 4 50 156 4 50 156 4 50 156 4 50 156 4 50 156 
4 50 156 4 50 156 4 50 156 4 50 156 4 50 156 4 50 156 4 50 156 4 50 156 
4 50 156 4 50 156 4 50 156 4 50 156 4 50 156 4 50 156 4 50 156 4 50 156 
4 50 156 4 50 156 4 50 156 4 50 156 4 50 156 4 50 156 4 50 156 4 50 156 
4 50 156 4 50 156 4 50 156 4 50 156 4 50 156 4 50 156 4 50 156 4 50 156 
4 50 156 4 50 156 4 50 156 4 50 156 4 50 156 4 50 156 4 50 156 4 50 156 
4 50 156 4 50 156 4 50 156 4 50 156 4 50 156 4 50 156 4 50 156 4 50 156 
4 50 156 4 50 156 4 50 156 4 50 156 4 50 156 4 50 156 4 50 156 4 50 156 
4 50 156 4 50 156 4 50 156 4 50 156 4 50 156 4 50 156 4 50 156 4 50 156 
4 50 156 4 50 156 4 50 156 4 50 156 4 50 156 4 50 156 4 50 156 4 50 156 
4 50 156 4 50 156 4 50 156 4 50 156 4 50 156 4 50 156 4 50 156 4 50 156 
4 50 156 4 50 156 4 50 156 4 50 156 4 50 156 4 50 156 4 50 156 4 50 156 
4 50 156 4 50 156 4 50 156 4 50 156 4 50 156 4 50 156 4 50 156 4 50 156 
4 50 156 4 50 156 4 50 156 4 50 156 4 50 156 4 50 156 4 50 156 4 50 156 
4 50 156 4 50 156 4 50 156 4 50 156 4 50 156 4 50 156 4 50 156 4 50 156 
4 50 156 4 50 156 4 50 156 4 50 156 4 50 156 4 50 156 4 50 156 4 50 156 4 50 156 4 50 156 252 254 252 252 254 252 252 254 252 252 254 252 252 254 252 252 254 252 
252 254 252 252 254 252 252 254 252 252 254 252 252 254 252 252 254 252 252 254 252 252 254 252 
252 254 252 252 254 252 252 254 252 252 254 252 252 254 252 252 254 252 252 254 252 252 254 252 
252 254 252 252 254 252 252 206 204 252 254 252 252 254 204 100 102 52 100 102 52 100 50 4 
100 102 52 156 102 4 100 102 52 156 154 100 252 254 204 252 254 252 252 254 204 100 102 100 
100 102 100 100 102 100 92 90 92 100 102 100 92 90 92 100 102 100 100 102 100 100 102 100 
100 102 100 92 90 92 100 102 100 156 154 156 100 102 100 76 70 68 92 90 92 92 90 92 
252 254 252 252 254 252 252 254 252 252 254 252 252 254 252 252 254 252 252 254 252 252 254 252 
252 254 252 252 254 252 252 254 252 252 254 252 252 254 252 252 254 252 252 254 252 252 254 252 
252 254 252 252 254 252 252 254 252 4 50 156 4 50 156 4 50 156 4 50 156 4 50 156 
4 50 156 4 50 156 4 50 156 4 50 156 4 50 156 4 50 156 4 50 156 4 50 156 
4 50 156 4 50 156 4 50 156 4 50 156 4 50 156 4 50 156 4 50 156 4 50 156 
4 50 156 4 50 156 4 50 156 4 50 156 4 50 156 4 50 156 4 50 156 4 50 156 
4 50 156 4 50 156 4 50 156 4 50 156 4 50 156 4 50 156 4 50 156 4 50 156 
4 50 156 4 50 156 4 50 156 4 50 156 4 50 156 4 50 156 4 50 156 4 50 156 
4 50 156 4 50 156 4 50 156 4 50 156 4 50 156 4 50 156 4 50 156 4 50 156 
4 50 156 4 50 156 4 50 156 4 50 156 4 50 156 4 50 156 4 50 156 4 50 156 
4 50 156 4 50 156 4 50 156 4 50 156 4 50 156 4 50 156 4 50 156 4 50 156 
4 50 156 4 50 156 4 50 156 4 50 156 4 50 156 4 50 156 4 50 156 4 50 156 
4 50 156 4 50 156 4 50 156 4 50 156 4 50 156 4 50 156 4 50 156 4 50 156 
4 50 156 4 50 156 4 50 156 4 50 156 4 50 156 4 50 156 4 50 156 4 50 156 
4 50 156 4 50 156 4 50 156 4 50 156 4 50 156 4 50 156 4 50 156 4 50 156 
4 50 156 4 50 156 4 50 156 4 50 156 4 50 156 4 50 156 4 50 156 4 50 156 
4 50 156 4 50 156 4 50 156 4 50 156 4 50 156 4 50 156 4 50 156 4 50 156 
4 50 156 4 50 156 4 50 156 4 50 156 4 50 156 4 50 156 4 50 156 4 50 156 
4 50 156 4 50 156 4 50 156 4 50 156 4 50 156 4 50 156 4 50 156 4 50 156 
4 50 156 4 50 156 4 50 156 4 50 156 4 50 156 4 50 156 4 50 156 4 50 156 
4 50 156 4 50 156 4 50 156 4 50 156 4 50 156 4 50 156 4 50 156 4 50 156 
4 50 156 4 50 156 4 50 156 4 50 156 4 50 156 4 50 156 4 50 156 4 50 156 
4 50 156 4 50 156 4 50 156 4 50 156 4 50 156 4 50 156 4 50 156 4 50 156 4 50 156 4 50 156 252 254 252 252 254 252 252 254 252 252 254 252 252 254 252 252 254 252 
252 254 252 252 254 252 252 254 252 252 254 252 252 254 252 252 254 252 252 254 252 252 254 252 
252 254 252 252 254 252 252 254 252 252 254 252 252 254 252 252 254 252 252 254 252 252 254 252 
252 254 252 156 102 100 100 102 4 204 206 100 100 102 52 52 50 52 100 102 4 156 102 52 
156 154 4 204 154 52 156 102 4 204 154 52 156 102 4 180 174 180 252 254 252 204 206 204 
92 90 92 100 102 100 100 102 100 100 102 100 100 102 100 100 102 100 92 90 92 100 102 100 
100 102 100 100 102 100 92 90 92 100 102 100 156 154 156 76 70 68 76 70 68 76 70 68 
156 102 100 252 254 252 252 254 252 252 254 252 252 254 252 252 254 252 252 254 252 252 254 252 
252 254 252 252 254 252 252 254 252 252 254 252 252 254 252 252 254 252 252 254 252 252 254 252 
252 254 252 252 254 252 252 254 252 252 254 252 4 50 156 4 50 156 4 50 156 4 50 156 
4 50 156 4 50 156 4 50 156 4 50 156 4 50 156 4 50 156 4 50 156 4 50 156 
4 50 156 4 50 156 4 50 156 4 50 156 4 50 156 4 50 156 4 50 156 4 50 156 
4 50 156 4 50 156 4 50 156 4 50 156 4 50 156 4 50 156 52 94 172 4 50 156 
4 50 156 4 50 156 4 50 156 4 50 156 4 50 156 4 50 156 4 50 156 4 50 156 
4 50 156 4 50 156 4 50 156 4 50 156 4 50 156 4 50 156 4 50 156 4 50 156 
4 50 156 4 50 156 4 50 156 4 50 156 4 50 156 4 50 156 4 50 156 4 50 156 
4 50 156 4 50 156 4 50 156 4 50 156 4 50 156 52 94 172 4 50 156 4 50 156 
4 50 156 4 50 156 4 50 156 4 50 156 4 50 156 4 50 156 4 50 156 4 50 156 
4 50 156 4 50 156 4 50 156 4 50 156 4 50 156 4 50 156 4 50 156 52 94 172 
4 50 156 4 50 156 4 50 156 4 50 156 4 50 156 4 50 156 4 50 156 4 50 156 
4 50 156 4 50 156 4 50 156 4 50 156 4 50 156 4 50 156 4 50 156 4 50 156 
4 50 156 4 50 156 4 50 156 4 50 156 4 50 156 4 50 156 4 50 156 4 50 156 
4 50 156 4 50 156 4 50 156 4 50 156 4 50 156 4 50 156 4 50 156 4 50 156 
4 50 156 4 50 156 4 50 156 4 50 156 4 50 156 4 50 156 4 50 156 4 50 156 
4 50 156 4 50 156 4 50 156 4 50 156 4 50 156 52 94 172 52 94 172 52 94 172 
4 50 156 4 50 156 4 50 156 4 50 156 4 50 156 4 50 156 4 50 156 4 50 156 
4 50 156 4 50 156 4 50 156 4 50 156 4 50 156 4 50 156 4 50 156 52 94 172 
52 94 172 52 94 172 52 94 172 4 50 156 4 50 156 4 50 156 4 50 156 4 50 156 
4 50 156 4 50 156 4 50 156 4 50 156 4 50 156 4 50 156 4 50 156 4 50 156 
4 50 156 4 50 156 4 50 156 4 50 156 4 50 156 4 50 156 4 50 156 4 50 156 4 50 156 252 254 252 252 254 252 252 254 252 252 254 252 252 254 252 252 254 252 252 254 252 
252 254 252 252 254 252 252 254 252 252 254 252 252 254 252 252 254 252 252 254 252 252 254 252 
252 254 252 252 254 252 252 254 252 252 254 252 252 254 252 252 254 252 236 234 236 252 254 252 
156 154 100 156 154 100 252 206 204 252 254 156 204 206 100 204 154 52 100 102 52 156 102 100 
156 154 52 204 154 52 204 154 52 204 154 52 204 154 4 156 154 52 100 102 52 252 206 156 
100 102 100 92 90 92 92 90 92 100 102 52 100 102 100 92 90 92 100 102 100 92 90 92 
92 90 92 92 90 92 92 90 92 100 102 100 100 102 100 100 102 100 92 90 92 92 90 92 
76 70 68 236 234 236 252 254 252 252 254 252 252 254 252 252 254 252 252 254 252 252 254 252 
252 254 252 252 254 252 252 254 252 252 254 252 252 254 252 252 254 252 252 254 252 252 254 252 
252 254 252 252 254 252 252 254 252 252 254 252 4 50 156 4 50 156 4 50 156 4 50 156 
4 50 156 4 50 156 4 50 156 4 50 156 4 50 156 4 50 156 4 50 156 4 50 156 
4 50 156 4 50 156 4 50 156 4 50 156 4 50 156 4 50 156 4 50 156 4 50 156 
4 50 156 4 50 156 4 50 156 4 50 156 100 102 204 252 254 252 236 234 236 4 50 156 
4 50 156 4 50 156 4 50 156 4 50 156 4 50 156 4 50 156 4 50 156 4 50 156 
100 102 204 204 206 252 236 234 236 4 50 156 4 50 156 4 50 156 4 50 156 4 50 156 
4 50 156 4 50 156 4 50 156 4 50 156 4 50 156 4 50 156 4 50 156 4 50 156 
4 50 156 4 50 156 4 50 156 4 50 156 204 206 252 116 142 196 4 50 156 4 50 156 
4 50 156 4 50 156 4 50 156 4 50 156 4 50 156 4 50 156 4 50 156 4 50 156 
4 50 156 4 50 156 4 50 156 4 50 156 4 50 156 4 50 156 156 206 252 204 206 204 
4 50 156 4 50 156 4 50 156 4 50 156 156 154 204 100 102 204 4 50 156 4 50 156 
4 50 156 4 50 156 4 50 156 4 50 156 4 50 156 100 102 204 236 234 236 4 50 156 
4 50 156 4 50 156 4 50 156 116 142 196 236 234 236 156 154 204 4 50 156 4 50 156 
4 50 156 4 50 156 4 50 156 4 50 156 4 50 156 4 50 156 4 50 156 4 50 156 
4 50 156 4 50 156 4 50 156 4 50 156 4 50 156 4 50 156 4 50 156 100 102 204 
156 154 204 204 206 204 236 234 236 252 254 252 252 254 252 252 254 252 252 254 252 252 254 252 
252 254 252 204 206 252 116 142 196 4 50 156 4 50 156 4 50 156 4 50 156 4 50 156 
4 50 156 4 50 156 4 50 156 4 50 156 4 50 156 156 154 204 236 234 236 252 254 252 
252 254 252 252 254 252 252 254 252 116 142 196 4 50 156 4 50 156 4 50 156 4 50 156 
4 50 156 4 50 156 4 50 156 4 50 156 4 50 156 4 50 156 4 50 156 4 50 156 
4 50 156 4 50 156 4 50 156 4 50 156 4 50 156 4 50 156 4 50 156 4 50 156 4 50 156 252 254 252 252 254 252 252 254 252 252 254 252 252 254 252 252 254 252 252 254 252 
252 254 252 252 254 252 252 254 252 252 254 252 252 254 252 252 254 252 252 254 252 252 254 252 
252 254 252 252 254 252 252 254 252 252 254 252 252 254 252 252 254 252 252 254 252 252 254 252 
52 50 52 252 254 204 252 254 252 252 254 204 252 254 156 252 206 100 100 102 4 156 154 156 
100 102 52 100 50 4 100 102 4 100 102 4 100 102 4 100 50 52 100 102 4 100 50 52 
156 154 100 92 90 92 100 102 100 92 90 92 92 90 92 100 102 100 92 90 92 92 90 92 
100 102 100 92 90 92 92 90 92 100 102 100 100 102 100 156 154 156 100 102 100 92 90 92 
92 90 92 100 102 100 252 254 252 252 254 252 252 254 252 252 254 252 252 254 252 252 254 252 
252 254 252 252 254 252 252 254 252 252 254 252 252 254 252 252 254 252 252 254 252 252 254 252 
252 254 252 252 254 252 252 254 252 252 254 252 236 234 236 4 50 156 4 50 156 4 50 156 
4 50 156 4 50 156 4 50 156 4 50 156 4 50 156 4 50 156 4 50 156 4 50 156 
4 50 156 4 50 156 4 50 156 4 50 156 4 50 156 4 50 156 4 50 156 4 50 156 
4 50 156 4 50 156 4 50 156 4 50 156 236 234 236 252 254 252 204 206 204 4 50 156 
4 50 156 4 50 156 4 50 156 4 50 156 4 50 156 4 50 156 4 50 156 52 94 172 
236 234 236 252 254 252 236 234 236 4 50 156 4 50 156 4 50 156 4 50 156 4 50 156 
4 50 156 4 50 156 4 50 156 116 142 196 156 154 204 4 50 156 4 50 156 4 50 156 
4 50 156 4 50 156 4 50 156 100 102 204 252 254 252 116 142 196 4 50 156 4 50 156 
4 50 156 4 50 156 100 102 204 4 50 156 4 50 156 4 50 156 4 50 156 4 50 156 
4 50 156 4 50 156 4 50 156 4 50 156 4 50 156 116 142 196 252 254 252 204 206 252 
4 50 156 4 50 156 4 50 156 204 206 252 252 254 252 252 254 252 4 50 156 4 50 156 
4 50 156 4 50 156 4 50 156 4 50 156 116 142 196 252 254 252 252 254 252 52 94 172 
4 50 156 4 50 156 204 206 204 252 254 252 252 254 252 116 142 196 4 50 156 4 50 156 
4 50 156 4 50 156 4 50 156 4 50 156 4 50 156 4 50 156 4 50 156 4 50 156 
4 50 156 4 50 156 4 50 156 4 50 156 4 50 156 4 50 156 204 206 204 252 254 252 
252 254 252 252 254 252 252 254 252 252 254 252 252 254 252 252 254 252 252 254 252 252 254 252 
252 254 252 252 254 252 252 254 252 236 234 236 4 50 156 4 50 156 4 50 156 4 50 156 
4 50 156 4 50 156 4 50 156 52 94 172 252 254 252 252 254 252 252 254 252 252 254 252 
252 254 252 252 254 252 252 254 252 116 142 196 4 50 156 4 50 156 4 50 156 4 50 156 
4 50 156 4 50 156 4 50 156 4 50 156 4 50 156 4 50 156 4 50 156 4 50 156 
4 50 156 4 50 156 4 50 156 4 50 156 4 50 156 4 50 156 4 50 156 4 50 156 4 50 156 252 254 252 252 254 252 252 254 252 252 254 252 252 254 252 252 254 252 252 254 252 
252 254 252 252 254 252 252 254 252 252 254 252 252 254 252 252 254 252 252 254 252 252 254 252 
252 254 252 252 254 252 252 254 252 252 254 252 252 254 252 236 234 236 236 234 236 252 254 252 
100 102 52 252 254 252 252 254 252 252 254 252 252 254 204 204 206 100 52 50 4 156 154 156 
52 50 4 52 50 4 100 50 4 100 50 4 52 50 4 100 50 4 100 50 4 100 50 4 
156 102 52 100 102 100 92 90 92 92 90 92 92 90 92 92 90 92 92 90 92 92 90 92 
92 90 92 92 90 92 92 90 92 92 90 92 92 90 92 92 90 92 100 102 100 100 102 100 
92 90 92 92 90 92 156 154 156 252 254 252 236 234 236 252 254 252 252 254 252 252 254 252 
252 254 252 252 254 252 252 254 252 252 254 252 252 254 252 252 254 252 252 254 252 252 254 252 
252 254 252 252 254 252 252 254 252 252 254 252 252 254 252 4 50 156 4 50 156 4 50 156 
4 50 156 4 50 156 4 50 156 4 50 156 4 50 156 4 50 156 4 50 156 4 50 156 
4 50 156 4 50 156 4 50 156 4 50 156 4 50 156 4 50 156 4 50 156 4 50 156 
4 50 156 4 50 156 4 50 156 116 142 196 252 254 252 252 254 252 156 206 204 4 50 156 
4 50 156 4 50 156 4 50 156 4 50 156 4 50 156 4 50 156 4 50 156 116 142 196 
252 254 252 252 254 252 204 206 204 4 50 156 4 50 156 4 50 156 4 50 156 4 50 156 
116 142 196 236 234 236 204 206 204 236 234 236 156 154 204 4 50 156 4 50 156 4 50 156 
4 50 156 4 50 156 4 50 156 156 206 204 252 254 252 52 94 172 4 50 156 4 50 156 
4 50 156 4 50 156 252 254 252 156 206 204 4 50 156 4 50 156 4 50 156 4 50 156 
4 50 156 4 50 156 4 50 156 4 50 156 4 50 156 156 206 204 252 254 252 204 206 204 
4 50 156 4 50 156 52 94 172 252 254 252 252 254 252 252 254 252 52 94 172 4 50 156 
4 50 156 4 50 156 4 50 156 204 206 252 252 254 252 252 254 252 252 254 252 52 94 172 
4 50 156 116 142 196 252 254 252 252 254 252 236 234 236 4 50 156 4 50 156 4 50 156 
4 50 156 4 50 156 4 50 156 4 50 156 4 50 156 4 50 156 4 50 156 4 50 156 
4 50 156 4 50 156 4 50 156 4 50 156 4 50 156 52 94 172 204 206 252 156 154 204 
100 154 204 156 154 204 252 254 252 204 206 252 52 94 172 52 94 172 116 142 196 156 206 204 
252 254 252 252 254 252 252 254 252 252 254 252 52 94 172 4 50 156 4 50 156 4 50 156 
4 50 156 4 50 156 52 94 172 236 234 236 252 254 252 236 234 236 204 206 204 116 142 196 
116 142 196 156 206 204 252 254 252 52 94 172 4 50 156 4 50 156 4 50 156 4 50 156 
4 50 156 4 50 156 4 50 156 4 50 156 4 50 156 4 50 156 4 50 156 4 50 156 
4 50 156 4 50 156 4 50 156 4 50 156 4 50 156 4 50 156 4 50 156 4 50 156 252 254 252 252 254 252 252 254 252 252 254 252 252 254 252 252 254 252 252 254 252 252 254 252 
252 254 252 252 254 252 252 254 252 252 254 252 252 254 252 252 254 252 252 254 252 252 254 252 
252 254 252 252 254 252 252 254 252 252 254 252 252 254 252 252 254 252 252 254 252 252 254 252 
52 50 4 252 206 204 236 234 236 252 254 252 252 254 156 252 206 100 100 102 52 52 50 4 
156 154 52 204 154 4 204 154 52 204 154 52 204 154 52 204 154 52 156 154 52 100 50 4 
52 50 4 156 102 100 92 90 92 92 90 92 92 90 92 92 90 92 92 90 92 92 90 92 
92 90 92 92 90 92 92 90 92 76 70 68 92 90 92 92 90 92 100 102 100 100 102 100 
100 102 100 100 102 100 100 102 100 236 234 236 252 254 252 252 254 252 252 254 252 252 254 252 
252 254 252 252 254 252 252 254 252 252 254 252 252 254 252 252 254 252 252 254 252 252 254 252 
252 254 252 252 254 252 252 254 252 252 254 252 252 254 252 4 50 156 4 50 156 4 50 156 
4 50 156 4 50 156 4 50 156 4 50 156 4 50 156 4 50 156 4 50 156 4 50 156 
4 50 156 4 50 156 4 50 156 4 50 156 4 50 156 4 50 156 4 50 156 4 50 156 
4 50 156 4 50 156 4 50 156 204 206 204 252 254 252 252 254 252 116 142 196 4 50 156 
4 50 156 4 50 156 4 50 156 4 50 156 4 50 156 4 50 156 4 50 156 204 206 204 
252 254 252 252 254 252 156 154 204 4 50 156 4 50 156 4 50 156 4 50 156 4 50 156 
236 234 236 252 254 252 252 254 252 252 254 252 52 94 172 4 50 156 4 50 156 4 50 156 
4 50 156 4 50 156 4 50 156 236 234 236 252 254 252 52 94 172 4 50 156 4 50 156 
4 50 156 52 94 172 252 254 252 252 254 252 116 142 196 4 50 156 4 50 156 4 50 156 
4 50 156 4 50 156 4 50 156 4 50 156 4 50 156 252 254 252 252 254 252 204 206 252 
4 50 156 4 50 156 116 142 196 252 254 252 252 254 252 252 254 252 4 50 156 4 50 156 
4 50 156 4 50 156 156 154 204 252 254 252 252 254 252 252 254 252 236 234 236 4 50 156 
4 50 156 156 206 204 252 254 252 252 254 252 156 154 204 4 50 156 4 50 156 4 50 156 
4 50 156 4 50 156 4 50 156 4 50 156 4 50 156 4 50 156 4 50 156 4 50 156 
4 50 156 4 50 156 4 50 156 4 50 156 4 50 156 4 50 156 4 50 156 4 50 156 
4 50 156 204 206 204 252 254 252 116 142 196 4 50 156 4 50 156 4 50 156 4 50 156 
52 94 172 252 254 252 252 254 252 252 254 252 52 94 172 4 50 156 4 50 156 4 50 156 
4 50 156 52 94 172 236 234 236 252 254 252 116 142 196 4 50 156 4 50 156 4 50 156 
4 50 156 4 50 156 4 50 156 4 50 156 4 50 156 4 50 156 4 50 156 4 50 156 
4 50 156 4 50 156 4 50 156 4 50 156 4 50 156 4 50 156 4 50 156 4 50 156 
4 50 156 4 50 156 4 50 156 4 50 156 4 50 156 4 50 156 4 50 156 4 50 156 252 254 252 252 254 252 252 254 252 252 254 252 252 254 252 252 254 252 252 254 252 252 254 252 
252 254 252 252 254 252 252 254 252 252 254 252 252 254 252 252 254 252 252 254 252 252 254 252 
252 254 252 252 254 252 252 254 252 252 254 252 252 254 252 236 234 236 252 254 252 252 254 204 
156 102 52 156 154 100 252 254 252 236 234 236 252 254 204 156 154 100 52 2 4 100 102 52 
204 206 52 204 154 52 204 206 4 204 154 52 204 154 4 204 154 52 204 154 4 204 206 52 
156 102 52 156 102 52 100 102 100 92 90 92 92 90 92 92 90 92 76 70 68 92 90 92 
76 70 68 92 90 92 92 90 92 92 90 92 76 70 68 76 70 68 92 90 92 100 102 100 
100 102 100 100 102 100 100 102 100 100 102 100 252 254 252 252 254 252 252 254 252 252 254 252 
252 254 252 252 254 252 252 254 252 252 254 252 252 254 252 252 254 252 252 254 252 252 254 252 
252 254 252 252 254 252 252 254 252 252 254 252 252 254 252 236 234 236 4 50 156 4 50 156 
4 50 156 4 50 156 4 50 156 4 50 156 4 50 156 4 50 156 4 50 156 4 50 156 
4 50 156 4 50 156 4 50 156 4 50 156 4 50 156 4 50 156 4 50 156 4 50 156 
4 50 156 4 50 156 52 94 172 252 254 252 252 254 252 252 254 252 100 102 204 4 50 156 
4 50 156 4 50 156 4 50 156 4 50 156 4 50 156 4 50 156 52 94 172 252 254 252 
252 254 252 252 254 252 116 142 196 4 50 156 4 50 156 4 50 156 4 50 156 4 50 156 
204 206 252 252 254 252 252 254 252 252 254 252 4 50 156 4 50 156 4 50 156 4 50 156 
4 50 156 4 50 156 52 94 172 252 254 252 252 254 252 52 94 172 4 50 156 4 50 156 
4 50 156 52 94 172 252 254 252 252 254 252 116 142 196 4 50 156 4 50 156 4 50 156 
4 50 156 4 50 156 4 50 156 4 50 156 116 142 196 252 254 252 252 254 252 116 142 196 
4 50 156 4 50 156 116 142 196 252 254 252 252 254 252 252 254 252 4 50 156 4 50 156 
4 50 156 4 50 156 100 102 204 156 206 204 252 254 252 252 254 252 156 154 204 4 50 156 
4 50 156 156 154 204 252 254 252 252 254 252 100 154 204 4 50 156 4 50 156 4 50 156 
4 50 156 4 50 156 4 50 156 4 50 156 4 50 156 4 50 156 4 50 156 4 50 156 
4 50 156 4 50 156 4 50 156 4 50 156 4 50 156 4 50 156 4 50 156 4 50 156 
156 154 204 252 254 252 252 254 252 52 94 172 4 50 156 4 50 156 4 50 156 4 50 156 
52 94 172 252 254 252 252 254 252 204 206 204 4 50 156 4 50 156 4 50 156 4 50 156 
4 50 156 204 206 204 252 254 252 252 254 252 4 50 156 4 50 156 4 50 156 4 50 156 
4 50 156 4 50 156 4 50 156 4 50 156 4 50 156 4 50 156 4 50 156 4 50 156 
4 50 156 4 50 156 4 50 156 4 50 156 4 50 156 4 50 156 4 50 156 4 50 156 
4 50 156 4 50 156 4 50 156 4 50 156 4 50 156 4 50 156 4 50 156 4 50 156 252 254 252 252 254 252 252 254 252 252 254 252 252 254 252 252 254 252 252 254 252 252 254 252 
252 254 252 252 254 252 252 254 252 252 254 252 252 254 252 252 254 252 252 254 252 252 254 252 
252 254 252 252 254 252 252 254 252 236 234 236 252 254 252 252 254 204 252 254 204 252 206 156 
204 154 52 100 102 52 156 154 52 204 206 156 156 102 52 100 50 4 156 154 52 204 154 52 
252 154 52 204 206 4 252 206 4 252 154 4 204 206 4 204 154 52 204 154 4 204 154 52 
156 154 4 100 102 4 156 154 100 76 70 68 92 90 92 76 70 68 76 70 68 76 70 68 
92 90 92 76 70 68 92 90 92 76 70 68 76 70 68 92 90 92 76 70 68 100 102 100 
100 102 100 100 102 100 100 102 100 92 90 92 180 174 180 252 254 252 252 254 252 252 254 252 
252 254 252 252 254 252 252 254 252 252 254 252 252 254 252 252 254 252 252 254 252 252 254 252 
252 254 252 252 254 252 252 254 252 252 254 252 252 254 252 252 254 252 4 50 156 4 50 156 
4 50 156 4 50 156 4 50 156 4 50 156 4 50 156 4 50 156 4 50 156 4 50 156 
4 50 156 4 50 156 4 50 156 4 50 156 4 50 156 4 50 156 4 50 156 4 50 156 
4 50 156 4 50 156 52 94 172 252 254 252 252 254 252 252 254 252 52 94 172 4 50 156 
4 50 156 4 50 156 4 50 156 4 50 156 4 50 156 4 50 156 100 102 204 252 254 252 
252 254 252 252 254 252 52 94 172 4 50 156 4 50 156 4 50 156 4 50 156 4 50 156 
236 234 236 252 254 252 252 254 252 236 234 236 4 50 156 4 50 156 4 50 156 4 50 156 
4 50 156 4 50 156 52 94 172 252 254 252 252 254 252 4 50 156 4 50 156 4 50 156 
4 50 156 100 102 204 252 254 252 252 254 252 116 142 196 4 50 156 4 50 156 4 50 156 
4 50 156 4 50 156 4 50 156 4 50 156 156 206 204 252 254 252 252 254 252 52 94 172 
4 50 156 4 50 156 52 94 172 252 254 252 252 254 252 252 254 252 4 50 156 4 50 156 
4 50 156 4 50 156 52 94 172 252 254 252 252 254 252 236 234 236 4 50 156 4 50 156 
4 50 156 204 206 252 252 254 252 236 234 236 4 50 156 4 50 156 4 50 156 4 50 156 
4 50 156 4 50 156 4 50 156 4 50 156 4 50 156 4 50 156 4 50 156 4 50 156 
4 50 156 4 50 156 4 50 156 4 50 156 4 50 156 4 50 156 4 50 156 4 50 156 
204 206 252 252 254 252 252 254 252 4 50 156 4 50 156 4 50 156 4 50 156 4 50 156 
156 206 204 252 254 252 204 206 252 4 50 156 4 50 156 4 50 156 4 50 156 4 50 156 
4 50 156 252 254 252 252 254 252 204 206 204 4 50 156 4 50 156 4 50 156 4 50 156 
4 50 156 4 50 156 4 50 156 4 50 156 4 50 156 4 50 156 4 50 156 4 50 156 
4 50 156 4 50 156 4 50 156 4 50 156 4 50 156 4 50 156 4 50 156 4 50 156 
4 50 156 4 50 156 4 50 156 4 50 156 4 50 156 4 50 156 4 50 156 236 234 236 252 254 252 252 254 252 252 254 252 252 254 252 252 254 252 252 254 252 252 254 252 252 254 252 
252 254 252 252 254 252 252 254 252 252 254 252 252 254 252 252 254 252 252 254 252 252 254 252 
252 254 252 252 254 252 252 254 204 252 254 156 252 206 52 204 154 52 204 154 52 204 154 52 
204 206 52 204 154 4 204 154 52 156 102 4 204 154 52 156 154 52 204 154 4 204 154 4 
204 206 52 204 154 4 204 154 52 204 206 52 156 102 4 204 154 4 204 154 52 204 154 4 
156 102 4 156 102 4 100 102 52 92 90 92 76 70 68 76 70 68 76 70 68 76 70 68 
76 70 68 76 70 68 76 70 68 76 70 68 76 70 68 76 70 68 76 70 68 76 70 68 
100 102 100 100 102 100 100 102 100 156 154 100 92 90 92 252 254 252 236 234 236 252 254 252 
252 254 252 252 254 252 252 254 252 252 254 252 252 254 252 252 254 252 252 254 252 252 254 252 
252 254 252 252 254 252 252 254 252 252 254 252 252 254 252 252 254 252 4 50 156 4 50 156 
4 50 156 4 50 156 4 50 156 4 50 156 4 50 156 4 50 156 4 50 156 4 50 156 
4 50 156 4 50 156 4 50 156 4 50 156 4 50 156 4 50 156 4 50 156 4 50 156 
4 50 156 4 50 156 116 142 196 252 254 252 252 254 252 252 254 252 4 50 156 4 50 156 
4 50 156 4 50 156 4 50 156 4 50 156 4 50 156 4 50 156 116 142 196 252 254 252 
252 254 252 204 206 252 4 50 156 4 50 156 4 50 156 4 50 156 4 50 156 52 94 172 
252 254 252 252 254 252 252 254 252 252 254 252 52 94 172 4 50 156 4 50 156 4 50 156 
4 50 156 4 50 156 52 94 172 252 254 252 252 254 252 4 50 156 4 50 156 4 50 156 
4 50 156 116 142 196 252 254 252 252 254 252 52 94 172 4 50 156 4 50 156 4 50 156 
4 50 156 4 50 156 4 50 156 4 50 156 236 234 236 252 254 252 252 254 252 52 94 172 
4 50 156 4 50 156 4 50 156 236 234 236 252 254 252 252 254 252 116 142 196 4 50 156 
4 50 156 4 50 156 236 234 236 252 254 252 236 234 236 52 94 172 4 50 156 4 50 156 
4 50 156 252 254 252 252 254 252 156 154 204 4 50 156 4 50 156 4 50 156 4 50 156 
204 206 252 252 254 252 156 154 204 4 50 156 4 50 156 4 50 156 4 50 156 4 50 156 
4 50 156 4 50 156 4 50 156 4 50 156 4 50 156 4 50 156 4 50 156 4 50 156 
236 234 236 252 254 252 204 206 204 4 50 156 4 50 156 4 50 156 52 94 172 204 206 204 
252 254 252 204 206 252 4 50 156 4 50 156 4 50 156 4 50 156 4 50 156 4 50 156 
52 94 172 252 254 252 252 254 252 116 142 196 4 50 156 4 50 156 4 50 156 4 50 156 
4 50 156 4 50 156 4 50 156 4 50 156 4 50 156 4 50 156 4 50 156 4 50 156 
4 50 156 4 50 156 4 50 156 4 50 156 4 50 156 4 50 156 4 50 156 4 50 156 
4 50 156 4 50 156 4 50 156 4 50 156 4 50 156 4 50 156 4 50 156 236 234 236 252 254 252 252 254 252 252 254 252 252 254 252 252 254 252 252 254 252 252 254 252 252 254 252 
252 254 252 252 254 252 252 254 252 252 254 252 252 254 252 252 254 252 252 254 252 252 254 252 
252 254 252 252 254 204 252 206 204 156 154 52 156 102 52 156 102 52 156 154 4 156 102 4 
156 102 4 156 154 52 156 102 4 156 154 4 156 154 4 156 102 4 204 154 52 156 154 4 
204 154 52 204 154 4 204 206 4 204 154 52 156 102 4 156 154 4 204 154 52 156 102 4 
156 102 4 156 102 52 156 154 4 204 154 100 92 90 92 76 70 68 76 70 68 76 70 68 
76 70 68 76 70 68 76 70 68 76 70 68 76 70 68 76 70 68 76 70 68 76 70 68 
76 70 68 92 90 92 100 102 100 100 102 156 100 102 100 156 154 156 252 254 252 252 254 252 
252 254 252 252 254 252 252 254 252 252 254 252 252 254 252 252 254 252 252 254 252 252 254 252 
252 254 252 252 254 252 252 254 252 252 254 252 252 254 252 252 254 252 4 50 156 4 50 156 
4 50 156 4 50 156 4 50 156 4 50 156 4 50 156 4 50 156 4 50 156 4 50 156 
4 50 156 4 50 156 4 50 156 4 50 156 4 50 156 4 50 156 4 50 156 4 50 156 
4 50 156 4 50 156 156 206 204 252 254 252 252 254 252 236 234 236 4 50 156 4 50 156 
4 50 156 4 50 156 4 50 156 4 50 156 4 50 156 4 50 156 116 142 196 252 254 252 
252 254 252 204 206 204 4 50 156 4 50 156 4 50 156 4 50 156 4 50 156 52 94 172 
252 254 252 252 254 252 252 254 252 252 254 252 156 154 204 4 50 156 4 50 156 4 50 156 
4 50 156 4 50 156 100 102 204 252 254 252 236 234 236 4 50 156 4 50 156 4 50 156 
4 50 156 116 142 196 252 254 252 252 254 252 52 50 156 4 50 156 4 50 156 4 50 156 
4 50 156 4 50 156 4 50 156 52 94 172 252 254 252 252 254 252 236 234 236 4 50 156 
4 50 156 4 50 156 4 50 156 156 154 204 252 254 252 252 254 252 156 154 204 4 50 156 
4 50 156 116 142 196 252 254 252 252 254 252 100 102 204 4 50 156 4 50 156 4 50 156 
100 102 204 252 254 252 252 254 252 52 94 172 4 50 156 4 50 156 4 50 156 52 94 172 
252 254 252 252 254 252 204 206 252 4 50 156 4 50 156 4 50 156 4 50 156 4 50 156 
4 50 156 4 50 156 4 50 156 4 50 156 4 50 156 4 50 156 4 50 156 4 50 156 
252 254 252 252 254 252 204 206 252 4 50 156 4 50 156 116 142 196 236 234 236 252 254 252 
156 154 204 4 50 156 4 50 156 4 50 156 4 50 156 4 50 156 4 50 156 4 50 156 
156 154 204 252 254 252 252 254 252 100 102 204 4 50 156 4 50 156 4 50 156 4 50 156 
4 50 156 4 50 156 4 50 156 4 50 156 4 50 156 4 50 156 4 50 156 4 50 156 
4 50 156 4 50 156 4 50 156 4 50 156 4 50 156 4 50 156 4 50 156 4 50 156 
4 50 156 4 50 156 4 50 156 4 50 156 4 50 156 4 50 156 4 50 156 252 254 252 252 254 252 252 254 252 252 254 252 252 254 252 252 254 252 252 254 252 252 254 252 252 254 252 
252 254 252 252 254 252 252 254 252 252 254 252 252 254 252 252 254 252 252 254 252 252 254 252 
252 254 252 252 254 252 236 234 236 252 206 156 204 206 156 252 206 156 252 206 204 252 254 204 
52 50 4 52 50 4 52 50 4 52 50 52 52 2 4 4 2 4 4 50 52 156 102 100 
156 102 52 100 102 52 156 102 52 156 154 52 100 102 4 156 102 52 156 154 52 156 102 52 
156 102 4 156 102 4 204 154 52 100 102 52 100 102 100 92 90 92 76 70 68 52 50 52 
4 2 4 52 50 52 52 50 52 76 70 68 76 70 68 76 70 68 76 70 68 76 70 68 
76 70 68 92 90 92 76 70 68 156 154 100 100 154 156 156 102 100 236 234 236 252 254 252 
236 234 236 252 254 252 252 254 252 252 254 252 252 254 252 252 254 252 252 254 252 252 254 252 
252 254 252 252 254 252 252 254 252 252 254 252 252 254 252 252 254 252 4 50 156 4 50 156 
4 50 156 4 50 156 4 50 156 4 50 156 4 50 156 4 50 156 4 50 156 4 50 156 
4 50 156 4 50 156 4 50 156 4 50 156 4 50 156 4 50 156 4 50 156 4 50 156 
4 50 156 4 50 156 236 234 236 252 254 252 252 254 252 116 142 196 4 50 156 4 50 156 
4 50 156 4 50 156 4 50 156 4 50 156 4 50 156 4 50 156 4 50 156 252 254 252 
252 254 252 116 142 196 4 50 156 4 50 156 4 50 156 4 50 156 4 50 156 116 142 196 
252 254 252 252 254 252 252 254 252 252 254 252 236 234 236 4 50 156 4 50 156 4 50 156 
4 50 156 4 50 156 100 102 204 252 254 252 204 206 252 4 50 156 4 50 156 4 50 156 
4 50 156 116 142 196 252 254 252 252 254 252 4 50 156 4 50 156 4 50 156 4 50 156 
4 50 156 4 50 156 4 50 156 116 142 196 252 254 252 252 254 252 156 154 204 4 50 156 
4 50 156 4 50 156 4 50 156 116 142 196 252 254 252 252 254 252 204 206 252 4 50 156 
52 94 172 236 234 236 252 254 252 156 154 204 4 50 156 4 50 156 4 50 156 4 50 156 
116 142 196 252 254 252 236 234 236 4 50 156 4 50 156 4 50 156 4 50 156 100 102 204 
252 254 252 252 254 252 156 154 204 4 50 156 4 50 156 4 50 156 4 50 156 4 50 156 
4 50 156 4 50 156 4 50 156 4 50 156 4 50 156 4 50 156 4 50 156 52 94 172 
252 254 252 252 254 252 116 142 196 116 142 196 236 234 236 252 254 252 204 206 252 52 94 172 
4 50 156 4 50 156 4 50 156 4 50 156 4 50 156 4 50 156 4 50 156 4 50 156 
156 154 204 252 254 252 252 254 252 4 50 156 4 50 156 4 50 156 4 50 156 4 50 156 
4 50 156 4 50 156 4 50 156 4 50 156 4 50 156 4 50 156 4 50 156 4 50 156 
4 50 156 4 50 156 4 50 156 4 50 156 4 50 156 4 50 156 4 50 156 4 50 156 
4 50 156 4 50 156 4 50 156 4 50 156 4 50 156 4 50 156 4 50 156 252 254 252 252 254 252 252 254 252 252 254 252 252 254 252 252 254 252 252 254 252 252 254 252 252 254 252 
252 254 252 252 254 252 252 254 252 252 254 252 252 254 252 252 254 252 252 254 252 252 254 252 
252 254 252 252 254 252 252 254 204 252 254 252 252 254 204 252 254 252 252 254 252 252 254 252 
4 2 4 4 2 4 52 2 4 52 50 4 52 50 52 4 2 4 4 2 4 4 2 4 
4 2 4 92 90 92 156 102 156 52 50 4 52 50 4 4 2 4 52 50 4 100 102 4 
100 102 52 100 102 4 100 102 52 204 154 100 252 254 252 76 70 68 52 50 52 4 2 4 
4 2 4 4 2 4 52 50 52 52 50 52 76 70 68 76 70 68 76 70 68 76 70 68 
76 70 68 76 70 68 76 70 68 100 102 100 156 102 100 156 154 156 100 102 100 252 254 252 
252 254 252 252 254 252 252 254 252 252 254 252 252 254 252 252 254 252 252 254 252 252 254 252 
252 254 252 252 254 252 252 254 252 252 254 252 252 254 252 252 254 252 4 50 156 4 50 156 
4 50 156 4 50 156 4 50 156 4 50 156 4 50 156 4 50 156 4 50 156 4 50 156 
4 50 156 4 50 156 4 50 156 4 50 156 4 50 156 4 50 156 4 50 156 4 50 156 
4 50 156 4 50 156 236 234 236 252 254 252 252 254 252 52 94 172 4 50 156 4 50 156 
4 50 156 4 50 156 4 50 156 4 50 156 4 50 156 4 50 156 4 50 156 252 254 252 
252 254 252 116 142 196 4 50 156 4 50 156 4 50 156 4 50 156 4 50 156 156 154 204 
252 254 252 252 254 252 204 206 204 252 254 252 252 254 252 116 142 196 4 50 156 4 50 156 
4 50 156 4 50 156 116 142 196 252 254 252 204 206 204 4 50 156 4 50 156 4 50 156 
4 50 156 116 142 196 252 254 252 204 206 204 4 50 156 4 50 156 4 50 156 4 50 156 
4 50 156 4 50 156 4 50 156 156 154 204 252 254 252 252 254 252 116 142 196 4 50 156 
4 50 156 4 50 156 4 50 156 4 50 156 252 254 252 252 254 252 252 254 252 52 102 156 
204 206 252 252 254 252 204 206 252 4 50 156 4 50 156 4 50 156 4 50 156 4 50 156 
156 206 204 252 254 252 156 154 204 4 50 156 4 50 156 4 50 156 4 50 156 116 142 196 
252 254 252 252 254 252 116 142 196 4 50 156 4 50 156 4 50 156 4 50 156 4 50 156 
4 50 156 4 50 156 4 50 156 4 50 156 4 50 156 4 50 156 4 50 156 100 102 204 
252 254 252 252 254 252 252 254 252 252 254 252 204 206 252 116 142 196 4 50 156 4 50 156 
4 50 156 4 50 156 4 50 156 4 50 156 4 50 156 4 50 156 4 50 156 4 50 156 
236 234 236 252 254 252 204 206 204 4 50 156 4 50 156 52 94 172 116 142 196 156 206 204 
204 206 252 156 154 204 4 50 156 4 50 156 4 50 156 4 50 156 4 50 156 4 50 156 
4 50 156 4 50 156 4 50 156 4 50 156 4 50 156 4 50 156 4 50 156 4 50 156 
4 50 156 4 50 156 4 50 156 4 50 156 4 50 156 4 50 156 4 50 156 252 254 252 252 254 252 252 254 252 252 254 252 252 254 252 252 254 252 252 254 252 252 254 252 252 254 252 
252 254 252 252 254 252 252 254 252 252 254 252 252 254 252 252 254 252 252 254 252 252 254 252 
252 254 252 252 254 252 252 254 252 252 254 252 252 254 252 252 254 252 252 254 252 252 254 252 
4 2 4 52 50 52 204 206 204 180 174 180 76 70 68 4 2 4 4 2 4 4 2 4 
156 154 100 204 206 204 236 234 236 180 174 180 52 2 52 4 2 4 4 2 4 52 2 4 
4 2 4 156 154 100 252 254 204 252 254 204 252 254 252 180 174 180 76 70 68 4 2 4 
4 2 4 4 2 4 4 2 4 52 50 52 52 50 52 52 50 52 52 50 52 76 70 68 
52 50 52 52 50 52 76 70 68 76 70 68 100 102 156 156 154 156 100 154 156 180 174 180 
252 254 252 252 254 252 252 254 252 252 254 252 252 254 252 252 254 252 252 254 252 252 254 252 
252 254 252 252 254 252 252 254 252 252 254 252 252 254 252 252 254 252 236 234 236 4 50 156 
4 50 156 4 50 156 4 50 156 4 50 156 4 50 156 4 50 156 4 50 156 4 50 156 
4 50 156 4 50 156 4 50 156 4 50 156 4 50 156 4 50 156 4 50 156 4 50 156 
4 50 156 4 50 156 156 154 204 252 254 252 252 254 252 4 50 156 4 50 156 4 50 156 
4 50 156 4 50 156 4 50 156 4 50 156 4 50 156 4 50 156 52 94 172 252 254 252 
252 254 252 52 94 172 4 50 156 4 50 156 4 50 156 4 50 156 4 50 156 204 206 252 
252 254 252 236 234 236 52 102 204 252 254 252 252 254 252 116 142 196 4 50 156 4 50 156 
4 50 156 4 50 156 116 142 196 252 254 252 116 142 196 4 50 156 4 50 156 4 50 156 
4 50 156 116 142 196 252 254 252 204 206 252 4 50 156 4 50 156 4 50 156 4 50 156 
4 50 156 4 50 156 4 50 156 236 234 236 252 254 252 252 254 252 4 50 156 4 50 156 
4 50 156 4 50 156 4 50 156 4 50 156 156 154 204 252 254 252 252 254 252 204 206 252 
252 254 252 252 254 252 52 94 172 4 50 156 4 50 156 4 50 156 4 50 156 4 50 156 
236 234 236 252 254 252 100 102 204 4 50 156 4 50 156 4 50 156 4 50 156 156 206 204 
252 254 252 252 254 252 52 94 172 4 50 156 4 50 156 4 50 156 4 50 156 4 50 156 
4 50 156 4 50 156 4 50 156 4 50 156 4 50 156 4 50 156 52 94 172 156 206 204 
252 254 252 252 254 252 236 234 236 116 142 196 4 50 156 4 50 156 4 50 156 4 50 156 
4 50 156 4 50 156 4 50 156 4 50 156 4 50 156 4 50 156 4 50 156 4 50 156 
252 254 252 252 254 252 116 142 196 116 142 196 236 234 236 252 254 252 252 254 252 252 254 252 
252 254 252 252 254 252 52 94 172 4 50 156 4 50 156 4 50 156 4 50 156 4 50 156 
4 50 156 4 50 156 4 50 156 4 50 156 4 50 156 4 50 156 4 50 156 4 50 156 
4 50 156 4 50 156 4 50 156 4 50 156 4 50 156 4 50 156 4 50 156 252 254 252 252 254 252 252 254 252 252 254 252 252 254 252 252 254 252 252 254 252 252 254 252 252 254 252 
252 254 252 252 254 252 252 254 252 252 254 252 252 254 252 252 254 252 252 254 252 252 254 252 
252 254 252 252 254 252 252 254 252 252 254 252 252 254 252 252 254 252 252 254 252 252 254 252 
4 2 4 156 154 156 180 174 180 204 206 204 252 254 252 4 2 4 4 2 4 52 50 52 
236 234 236 180 174 180 52 50 52 236 234 236 204 206 204 4 2 4 4 2 4 4 2 4 
4 2 4 156 154 156 252 254 204 252 254 252 252 254 252 252 254 252 92 90 92 52 50 52 
4 2 4 4 2 4 4 2 4 52 50 52 52 50 52 52 50 52 52 50 52 52 50 52 
52 50 52 76 70 68 52 50 52 76 70 68 76 70 68 100 102 100 156 154 156 100 102 100 
252 254 252 252 254 252 252 254 252 252 254 252 252 254 252 252 254 252 252 254 252 252 254 252 
252 254 252 252 254 252 252 254 252 252 254 252 252 254 252 252 254 252 252 254 252 4 50 156 
4 50 156 4 50 156 4 50 156 4 50 156 4 50 156 4 50 156 4 50 156 4 50 156 
4 50 156 4 50 156 4 50 156 4 50 156 4 50 156 4 50 156 4 50 156 4 50 156 
4 50 156 4 50 156 204 206 252 252 254 252 204 206 252 4 50 156 4 50 156 4 50 156 
4 50 156 4 50 156 4 50 156 4 50 156 4 50 156 4 50 156 52 94 172 252 254 252 
252 254 252 4 50 156 4 50 156 4 50 156 4 50 156 4 50 156 4 50 156 252 254 252 
252 254 252 156 154 204 4 50 156 236 234 236 252 254 252 252 254 252 4 50 156 4 50 156 
4 50 156 4 50 156 156 154 204 252 254 252 116 142 196 4 50 156 4 50 156 4 50 156 
4 50 156 116 142 196 252 254 252 204 206 204 4 50 156 4 50 156 4 50 156 4 50 156 
4 50 156 4 50 156 52 94 172 252 254 252 252 254 252 204 206 252 4 50 156 4 50 156 
4 50 156 4 50 156 4 50 156 4 50 156 100 102 204 252 254 252 252 254 252 252 254 252 
252 254 252 116 142 196 4 50 156 4 50 156 4 50 156 4 50 156 4 50 156 4 50 156 
252 254 252 252 254 252 4 50 156 4 50 156 4 50 156 4 50 156 4 50 156 204 206 252 
252 254 252 236 234 236 4 50 156 4 50 156 4 50 156 4 50 156 4 50 156 4 50 156 
4 50 156 4 50 156 4 50 156 4 50 156 4 50 156 4 50 156 252 254 252 252 254 252 
252 254 252 252 254 252 204 206 252 4 50 156 4 50 156 4 50 156 4 50 156 4 50 156 
4 50 156 4 50 156 4 50 156 4 50 156 4 50 156 4 50 156 4 50 156 52 94 172 
252 254 252 252 254 252 236 234 236 252 254 252 252 254 252 252 254 252 252 254 252 252 254 252 
204 206 252 252 254 252 4 50 156 4 50 156 4 50 156 4 50 156 4 50 156 4 50 156 
4 50 156 4 50 156 4 50 156 4 50 156 4 50 156 4 50 156 4 50 156 4 50 156 
4 50 156 4 50 156 4 50 156 4 50 156 4 50 156 4 50 156 4 50 156 252 254 252 252 254 252 252 254 252 252 254 252 252 254 252 252 254 252 252 254 252 252 254 252 252 254 252 
252 254 252 252 254 252 252 254 252 252 254 252 252 254 252 252 254 252 252 254 252 252 254 252 
252 254 252 252 254 252 252 254 252 252 254 252 252 254 252 252 254 252 252 254 252 236 234 236 
52 2 4 204 206 204 52 50 52 100 102 100 236 234 236 4 2 4 52 50 52 76 70 68 
252 254 252 4 2 4 4 2 4 92 90 92 252 254 252 4 2 4 4 2 4 4 2 4 
4 2 4 156 154 156 252 254 252 252 254 252 252 254 252 252 254 252 252 254 252 4 2 4 
4 2 4 4 2 4 4 2 4 4 2 4 52 50 52 52 50 52 52 50 52 52 50 52 
52 50 52 52 50 52 52 50 52 52 50 52 76 70 68 100 154 156 156 102 100 156 154 156 
252 254 252 252 254 252 252 254 252 252 254 252 252 254 252 252 254 252 252 254 252 252 254 252 
252 254 252 252 254 252 252 254 252 252 254 252 252 254 252 252 254 252 252 254 252 4 50 156 
4 50 156 4 50 156 4 50 156 4 50 156 4 50 156 4 50 156 4 50 156 4 50 156 
4 50 156 4 50 156 4 50 156 4 50 156 4 50 156 4 50 156 4 50 156 4 50 156 
4 50 156 4 50 156 236 234 236 252 254 252 156 154 204 4 50 156 4 50 156 4 50 156 
4 50 156 4 50 156 4 50 156 4 50 156 4 50 156 4 50 156 116 142 196 252 254 252 
252 254 252 4 50 156 4 50 156 4 50 156 4 50 156 4 50 156 4 50 156 252 254 252 
252 254 252 116 142 196 4 50 156 116 142 196 252 254 252 252 254 252 100 102 204 4 50 156 
4 50 156 4 50 156 204 206 204 252 254 252 116 142 196 4 50 156 4 50 156 4 50 156 
4 50 156 116 142 196 252 254 252 204 206 252 4 50 156 4 50 156 4 50 156 4 50 156 
4 50 156 4 50 156 116 142 196 252 254 252 252 254 252 156 206 204 4 50 156 4 50 156 
4 50 156 4 50 156 4 50 156 4 50 156 4 50 156 236 234 236 252 254 252 252 254 252 
204 206 252 4 50 156 4 50 156 4 50 156 4 50 156 4 50 156 4 50 156 52 94 172 
252 254 252 204 206 252 4 50 156 4 50 156 4 50 156 4 50 156 4 50 156 204 206 204 
252 254 252 204 206 252 4 50 156 4 50 156 4 50 156 4 50 156 4 50 156 4 50 156 
4 50 156 4 50 156 4 50 156 4 50 156 4 50 156 4 50 156 116 142 196 236 234 236 
252 254 252 252 254 252 252 254 252 252 254 252 156 154 204 52 94 172 4 50 156 4 50 156 
4 50 156 4 50 156 4 50 156 4 50 156 4 50 156 4 50 156 4 50 156 52 94 172 
252 254 252 252 254 252 236 234 236 116 142 196 100 102 204 4 50 156 4 50 156 4 50 156 
4 50 156 4 50 156 4 50 156 4 50 156 4 50 156 4 50 156 4 50 156 4 50 156 
4 50 156 4 50 156 4 50 156 4 50 156 4 50 156 4 50 156 4 50 156 4 50 156 
4 50 156 4 50 156 4 50 156 4 50 156 4 50 156 4 50 156 4 50 156 252 254 252 252 254 252 252 254 252 252 254 252 252 254 252 252 254 252 252 254 252 252 254 252 252 254 252 
252 254 252 252 254 252 252 254 252 252 254 252 252 254 252 252 254 252 252 254 252 252 254 252 
252 254 252 252 254 252 252 254 252 252 254 252 252 254 252 252 254 252 252 254 204 204 206 204 
4 2 4 204 206 204 4 2 4 52 2 4 204 206 156 100 50 4 100 50 4 100 50 4 
204 206 204 4 2 4 4 2 4 4 2 4 252 254 252 4 2 4 4 2 4 4 2 4 
4 2 4 156 154 156 252 254 252 252 254 252 252 254 252 252 254 252 252 254 252 156 154 156 
4 2 4 4 2 4 4 2 4 4 2 4 52 50 52 52 50 52 52 50 52 52 50 52 
76 70 68 52 50 52 52 50 52 76 70 68 52 50 52 76 70 68 156 154 156 156 154 156 
100 102 100 252 254 252 252 254 252 252 254 252 252 254 252 252 254 252 252 254 252 252 254 252 
252 254 252 252 254 252 252 254 252 252 254 252 252 254 252 252 254 252 252 254 252 4 50 156 
4 50 156 4 50 156 4 50 156 4 50 156 4 50 156 4 50 156 4 50 156 4 50 156 
4 50 156 4 50 156 4 50 156 4 50 156 4 50 156 4 50 156 4 50 156 4 50 156 
4 50 156 4 50 156 252 254 252 252 254 252 116 142 196 4 50 156 4 50 156 4 50 156 
4 50 156 4 50 156 4 50 156 4 50 156 4 50 156 4 50 156 116 142 196 252 254 252 
204 206 204 4 50 156 4 50 156 4 50 156 4 50 156 4 50 156 52 94 172 252 254 252 
252 254 252 52 94 172 4 50 156 52 94 172 252 254 252 252 254 252 156 154 204 4 50 156 
4 50 156 4 50 156 204 206 252 252 254 252 52 94 172 4 50 156 4 50 156 4 50 156 
4 50 156 116 142 196 252 254 252 236 234 236 4 50 156 4 50 156 4 50 156 4 50 156 
4 50 156 4 50 156 204 206 252 252 254 252 252 254 252 116 142 196 4 50 156 4 50 156 
4 50 156 4 50 156 4 50 156 4 50 156 4 50 156 156 154 204 252 254 252 252 254 252 
156 206 204 4 50 156 4 50 156 4 50 156 4 50 156 4 50 156 4 50 156 52 94 172 
252 254 252 204 206 204 4 50 156 4 50 156 4 50 156 4 50 156 4 50 156 252 254 252 
252 254 252 116 142 196 4 50 156 4 50 156 4 50 156 4 50 156 4 50 156 4 50 156 
4 50 156 4 50 156 4 50 156 4 50 156 4 50 156 4 50 156 4 50 156 204 206 252 
252 254 252 252 254 252 204 206 252 252 254 252 252 254 252 252 254 252 204 206 252 116 142 196 
4 50 156 4 50 156 4 50 156 4 50 156 4 50 156 4 50 156 4 50 156 116 142 196 
252 254 252 252 254 252 4 50 156 4 50 156 4 50 156 4 50 156 4 50 156 4 50 156 
4 50 156 4 50 156 4 50 156 4 50 156 4 50 156 4 50 156 4 50 156 4 50 156 
4 50 156 4 50 156 4 50 156 4 50 156 4 50 156 4 50 156 4 50 156 4 50 156 
4 50 156 4 50 156 4 50 156 4 50 156 4 50 156 4 50 156 4 50 156 252 254 252 252 254 252 252 254 252 252 254 252 252 254 252 252 254 252 252 254 252 252 254 252 252 254 252 
252 254 252 252 254 252 252 254 252 252 254 252 252 254 252 252 254 252 252 254 252 252 254 252 
252 254 252 252 254 252 252 254 252 252 254 252 252 254 252 252 254 252 252 254 252 236 234 236 
4 2 4 156 154 156 100 102 52 52 50 4 156 102 52 204 206 52 204 154 52 156 102 4 
156 154 52 100 50 4 4 2 52 156 154 156 236 234 236 4 2 4 4 2 4 4 2 4 
4 2 4 156 154 156 236 234 236 252 254 252 252 254 252 252 254 252 252 254 252 236 234 236 
4 2 4 4 2 4 4 2 4 4 2 4 52 50 52 52 50 52 52 50 52 52 50 52 
52 50 52 52 50 52 52 50 52 52 50 52 52 50 52 52 50 52 156 154 156 156 154 156 
156 154 156 204 206 204 252 254 252 252 254 252 252 254 252 252 254 252 252 254 252 252 254 252 
252 254 252 252 254 252 252 254 252 252 254 252 252 254 252 252 254 252 252 254 252 4 50 156 
4 50 156 4 50 156 4 50 156 4 50 156 4 50 156 4 50 156 4 50 156 4 50 156 
4 50 156 4 50 156 4 50 156 4 50 156 4 50 156 4 50 156 4 50 156 4 50 156 
4 50 156 52 94 172 252 254 252 252 254 252 52 94 172 4 50 156 4 50 156 4 50 156 
4 50 156 4 50 156 4 50 156 4 50 156 4 50 156 4 50 156 116 142 196 252 254 252 
204 206 252 4 50 156 4 50 156 4 50 156 4 50 156 4 50 156 116 142 196 252 254 252 
204 206 252 4 50 156 4 50 156 4 50 156 204 206 204 252 254 252 236 234 236 4 50 156 
4 50 156 4 50 156 252 254 252 252 254 252 4 50 156 4 50 156 4 50 156 4 50 156 
4 50 156 116 142 196 252 254 252 252 254 252 4 50 156 4 50 156 4 50 156 4 50 156 
4 50 156 52 94 172 252 254 252 252 254 252 252 254 252 52 94 172 4 50 156 4 50 156 
4 50 156 4 50 156 4 50 156 4 50 156 4 50 156 236 234 236 252 254 252 252 254 252 
252 254 252 4 50 156 4 50 156 4 50 156 4 50 156 4 50 156 4 50 156 52 94 172 
252 254 252 236 234 236 52 94 172 4 50 156 4 50 156 4 50 156 4 50 156 252 254 252 
252 254 252 116 142 196 116 142 196 236 234 236 52 94 172 4 50 156 4 50 156 4 50 156 
4 50 156 4 50 156 4 50 156 4 50 156 4 50 156 4 50 156 4 50 156 156 154 204 
252 254 252 204 206 252 4 50 156 52 94 172 116 142 196 236 234 236 252 254 252 252 254 252 
236 234 236 100 102 204 4 50 156 4 50 156 4 50 156 4 50 156 4 50 156 116 142 196 
252 254 252 204 206 204 4 50 156 4 50 156 4 50 156 4 50 156 4 50 156 4 50 156 
4 50 156 4 50 156 4 50 156 4 50 156 4 50 156 4 50 156 4 50 156 4 50 156 
4 50 156 4 50 156 4 50 156 4 50 156 4 50 156 4 50 156 4 50 156 4 50 156 
4 50 156 4 50 156 4 50 156 4 50 156 4 50 156 4 50 156 4 50 156 252 254 252 252 254 252 252 254 252 252 254 252 252 254 252 252 254 252 252 254 252 252 254 252 252 254 252 
252 254 252 252 254 252 252 254 252 252 254 252 252 254 252 252 254 252 252 254 252 252 254 252 
252 254 252 252 254 252 252 254 252 252 254 252 252 254 252 252 254 252 252 254 252 252 254 252 
4 2 4 4 2 4 204 154 100 204 154 4 252 206 4 204 154 4 156 154 4 156 154 52 
156 102 4 204 206 52 204 154 52 204 206 52 52 50 4 4 2 4 4 2 4 4 2 52 
4 2 4 100 102 100 252 254 252 252 254 252 252 254 252 252 254 252 252 254 252 252 254 252 
4 2 4 4 2 4 4 2 4 4 2 4 4 2 4 52 50 52 52 50 52 52 50 52 
52 50 52 52 50 52 52 50 52 52 50 52 52 50 52 52 50 52 52 50 52 180 174 180 
156 154 156 156 154 156 252 254 252 252 254 252 252 254 252 252 254 252 252 254 252 252 254 252 
252 254 252 252 254 252 252 254 252 252 254 252 252 254 252 252 254 252 252 254 252 4 50 156 
4 50 156 4 50 156 4 50 156 4 50 156 4 50 156 4 50 156 4 50 156 4 50 156 
4 50 156 4 50 156 4 50 156 4 50 156 4 50 156 4 50 156 4 50 156 4 50 156 
4 50 156 116 142 196 252 254 252 252 254 252 4 50 156 4 50 156 4 50 156 4 50 156 
4 50 156 4 50 156 4 50 156 4 50 156 4 50 156 4 50 156 156 154 204 252 254 252 
156 206 204 4 50 156 4 50 156 4 50 156 4 50 156 4 50 156 156 154 204 252 254 252 
156 154 204 4 50 156 4 50 156 4 50 156 52 94 172 252 254 252 252 254 252 116 142 196 
4 50 156 52 94 172 252 254 252 252 254 252 4 50 156 4 50 156 4 50 156 4 50 156 
4 50 156 52 94 172 252 254 252 252 254 252 52 94 172 4 50 156 4 50 156 4 50 156 
4 50 156 156 154 204 252 254 252 252 254 252 252 254 252 4 50 156 4 50 156 4 50 156 
4 50 156 4 50 156 4 50 156 4 50 156 156 206 204 252 254 252 236 234 236 252 254 252 
252 254 252 116 142 196 4 50 156 4 50 156 4 50 156 4 50 156 4 50 156 52 94 172 
252 254 252 252 254 252 252 254 252 252 254 252 204 206 252 204 206 204 204 206 252 252 254 252 
252 254 252 252 254 252 252 254 252 156 154 204 4 50 156 4 50 156 4 50 156 4 50 156 
4 50 156 4 50 156 4 50 156 4 50 156 4 50 156 4 50 156 4 50 156 204 206 204 
252 254 252 156 206 204 4 50 156 4 50 156 4 50 156 4 50 156 52 94 172 236 234 236 
252 254 252 252 254 252 116 142 196 4 50 156 4 50 156 4 50 156 4 50 156 116 142 196 
252 254 252 156 206 204 4 50 156 4 50 156 4 50 156 4 50 156 4 50 156 4 50 156 
4 50 156 4 50 156 4 50 156 4 50 156 4 50 156 4 50 156 4 50 156 4 50 156 
4 50 156 4 50 156 4 50 156 4 50 156 4 50 156 4 50 156 4 50 156 4 50 156 
4 50 156 4 50 156 4 50 156 4 50 156 4 50 156 4 50 156 4 50 156 252 254 252 252 254 252 252 254 252 252 254 252 252 254 252 252 254 252 252 254 252 252 254 252 252 254 252 
252 254 252 252 254 252 252 254 252 252 254 252 252 254 252 252 254 252 252 254 252 252 254 252 
252 254 252 252 254 252 252 254 252 252 254 252 252 254 252 236 234 236 252 254 252 236 234 236 
4 2 4 100 102 4 204 154 4 204 154 4 252 206 52 204 154 4 156 102 4 156 102 4 
156 154 4 204 154 4 252 206 52 204 206 52 252 206 100 52 2 4 4 2 4 4 2 4 
4 2 4 52 50 52 252 254 252 252 254 252 252 254 252 252 254 252 252 254 252 252 254 252 
4 2 4 4 2 4 4 2 4 4 2 4 4 2 4 52 50 52 4 2 4 52 50 52 
52 50 52 52 50 52 52 50 52 52 50 52 52 50 52 52 50 52 52 50 52 156 154 156 
156 154 156 156 154 156 252 254 252 252 254 252 252 254 252 252 254 252 252 254 252 252 254 252 
252 254 252 252 254 252 252 254 252 252 254 252 252 254 252 252 254 252 236 234 236 4 50 156 
4 50 156 4 50 156 4 50 156 4 50 156 4 50 156 4 50 156 4 50 156 4 50 156 
4 50 156 4 50 156 4 50 156 4 50 156 4 50 156 4 50 156 4 50 156 4 50 156 
4 50 156 156 154 204 252 254 252 204 206 252 4 50 156 4 50 156 4 50 156 4 50 156 
4 50 156 4 50 156 4 50 156 4 50 156 4 50 156 4 50 156 204 206 204 252 254 252 
116 142 196 4 50 156 4 50 156 4 50 156 4 50 156 4 50 156 204 206 252 252 254 252 
116 142 196 4 50 156 4 50 156 4 50 156 4 50 156 236 234 236 252 254 252 236 234 236 
4 50 156 116 142 196 252 254 252 204 206 204 4 50 156 4 50 156 4 50 156 4 50 156 
4 50 156 52 94 172 252 254 252 252 254 252 116 142 196 4 50 156 4 50 156 4 50 156 
4 50 156 236 234 236 252 254 252 252 254 252 252 254 252 4 50 156 4 50 156 4 50 156 
4 50 156 4 50 156 4 50 156 116 142 196 252 254 252 252 254 252 4 50 156 236 234 236 
252 254 252 252 254 252 4 50 156 4 50 156 4 50 156 4 50 156 4 50 156 4 50 156 
236 234 236 252 254 252 252 254 252 252 254 252 252 254 252 252 254 252 252 254 252 252 254 252 
252 254 252 204 206 252 52 94 172 4 50 156 4 50 156 4 50 156 52 94 172 236 234 236 
204 206 252 4 50 156 4 50 156 4 50 156 4 50 156 4 50 156 4 50 156 204 206 252 
252 254 252 116 142 196 4 50 156 4 50 156 4 50 156 4 50 156 4 50 156 52 94 172 
252 254 252 252 254 252 236 234 236 4 50 156 4 50 156 4 50 156 4 50 156 156 206 204 
252 254 252 116 142 196 4 50 156 4 50 156 4 50 156 4 50 156 4 50 156 4 50 156 
4 50 156 4 50 156 4 50 156 4 50 156 4 50 156 4 50 156 4 50 156 4 50 156 
4 50 156 4 50 156 4 50 156 4 50 156 4 50 156 4 50 156 4 50 156 4 50 156 
4 50 156 4 50 156 4 50 156 4 50 156 4 50 156 4 50 156 4 50 156 252 254 252 252 254 252 252 254 252 252 254 252 252 254 252 252 254 252 252 254 252 252 254 252 252 254 252 
252 254 252 252 254 252 252 254 252 252 254 252 252 254 252 252 254 252 252 254 252 252 254 252 
252 254 252 252 254 252 252 254 252 252 254 252 252 254 252 252 254 252 252 254 252 204 206 204 
4 2 4 156 102 52 204 154 4 204 154 4 252 206 4 204 206 52 204 154 52 204 206 4 
204 154 52 204 206 52 204 154 4 204 154 4 204 154 52 4 2 4 4 2 4 4 2 4 
4 2 4 4 2 4 236 234 236 252 254 252 252 254 252 252 254 252 252 254 252 252 254 252 
4 2 4 4 2 4 4 2 4 4 2 4 4 2 4 4 2 4 52 50 52 52 50 52 
52 50 52 52 50 52 4 2 4 52 50 52 52 50 52 52 50 52 52 50 4 92 90 92 
180 174 180 180 174 180 100 102 100 252 254 252 252 254 252 252 254 252 252 254 252 252 254 252 
252 254 252 252 254 252 252 254 252 252 254 252 252 254 252 252 254 252 236 234 236 4 50 156 
4 50 156 4 50 156 4 50 156 4 50 156 4 50 156 4 50 156 4 50 156 4 50 156 
4 50 156 4 50 156 4 50 156 4 50 156 4 50 156 4 50 156 4 50 156 4 50 156 
4 50 156 204 206 252 252 254 252 204 206 204 4 50 156 4 50 156 4 50 156 4 50 156 
4 50 156 52 94 172 52 94 172 4 50 156 4 50 156 4 50 156 204 206 252 252 254 252 
116 142 196 4 50 156 4 50 156 4 50 156 4 50 156 4 50 156 236 234 236 252 254 252 
4 50 156 4 50 156 4 50 156 4 50 156 4 50 156 116 142 196 252 254 252 252 254 252 
100 102 204 156 206 204 252 254 252 156 154 204 4 50 156 4 50 156 4 50 156 4 50 156 
4 50 156 4 50 156 252 254 252 252 254 252 236 234 236 4 50 156 4 50 156 4 50 156 
156 206 204 236 234 236 236 234 236 252 254 252 204 206 204 4 50 156 4 50 156 4 50 156 
4 50 156 4 50 156 4 50 156 236 234 236 252 254 252 52 94 172 4 50 156 52 94 172 
252 254 252 252 254 252 116 142 196 4 50 156 4 50 156 4 50 156 4 50 156 4 50 156 
52 94 172 204 206 252 236 234 236 252 254 252 236 234 236 204 206 204 236 234 236 252 254 252 
204 206 252 4 50 156 4 50 156 4 50 156 4 50 156 4 50 156 236 234 236 252 254 252 
252 254 252 52 94 172 4 50 156 4 50 156 4 50 156 4 50 156 4 50 156 236 234 236 
252 254 252 116 142 196 4 50 156 4 50 156 4 50 156 4 50 156 52 94 172 204 206 252 
252 254 252 252 254 252 236 234 236 4 50 156 4 50 156 4 50 156 4 50 156 156 154 204 
252 254 252 116 142 196 4 50 156 4 50 156 4 50 156 4 50 156 4 50 156 4 50 156 
4 50 156 52 94 172 52 94 172 4 50 156 4 50 156 4 50 156 4 50 156 4 50 156 
4 50 156 4 50 156 4 50 156 4 50 156 4 50 156 4 50 156 4 50 156 4 50 156 
4 50 156 4 50 156 4 50 156 4 50 156 4 50 156 4 50 156 4 50 156 252 254 252 252 254 252 252 254 252 252 254 252 252 254 252 252 254 252 252 254 252 252 254 252 252 254 252 
252 254 252 252 254 252 252 254 252 252 254 252 252 254 252 252 254 252 252 254 252 252 254 252 
252 254 252 252 254 252 252 254 252 252 254 252 252 254 252 252 254 252 252 254 252 236 234 236 
4 2 4 4 2 4 156 102 52 252 206 4 252 206 52 252 206 4 252 206 52 252 206 52 
204 154 52 204 154 4 204 154 52 204 154 52 156 102 52 4 2 4 4 50 4 92 90 92 
4 2 4 52 50 52 236 234 236 252 254 252 252 254 252 252 254 252 252 254 252 180 174 180 
4 2 4 4 2 4 4 2 4 4 2 4 4 2 4 4 2 4 52 50 52 52 50 52 
52 50 52 4 2 4 52 50 52 52 50 52 52 50 52 52 50 52 52 50 52 4 2 52 
180 174 180 180 174 180 100 102 100 252 254 252 252 254 252 252 254 252 252 254 252 252 254 252 
252 254 252 252 254 252 252 254 252 252 254 252 252 254 252 252 254 252 4 50 156 4 50 156 
4 50 156 4 50 156 4 50 156 4 50 156 4 50 156 4 50 156 4 50 156 4 50 156 
4 50 156 4 50 156 4 50 156 4 50 156 4 50 156 4 50 156 4 50 156 4 50 156 
4 50 156 236 234 236 252 254 252 204 206 252 4 50 156 4 50 156 4 50 156 116 142 196 
204 206 204 252 254 252 52 94 172 4 50 156 4 50 156 4 50 156 204 206 204 252 254 252 
116 142 196 4 50 156 4 50 156 4 50 156 4 50 156 4 50 156 252 254 252 204 206 252 
4 50 156 4 50 156 4 50 156 4 50 156 4 50 156 4 50 156 236 234 236 252 254 252 
236 234 236 236 234 236 252 254 252 116 142 196 4 50 156 4 50 156 4 50 156 4 50 156 
4 50 156 4 50 156 204 206 204 252 254 252 252 254 252 156 154 204 4 50 156 116 142 196 
252 254 252 116 142 196 204 206 252 252 254 252 156 154 204 4 50 156 4 50 156 4 50 156 
4 50 156 4 50 156 116 142 196 252 254 252 204 206 252 4 50 156 4 50 156 4 50 156 
156 154 204 252 254 252 252 254 252 52 94 172 4 50 156 4 50 156 4 50 156 4 50 156 
4 50 156 4 50 156 4 50 156 4 50 156 4 50 156 4 50 156 116 142 196 252 254 252 
156 154 204 4 50 156 4 50 156 4 50 156 4 50 156 52 94 172 252 254 252 252 254 252 
156 154 204 4 50 156 4 50 156 4 50 156 4 50 156 4 50 156 4 50 156 252 254 252 
252 254 252 52 94 172 4 50 156 4 50 156 100 102 204 236 234 236 252 254 252 252 254 252 
252 254 252 252 254 252 116 142 196 4 50 156 4 50 156 4 50 156 4 50 156 204 206 252 
252 254 252 116 142 196 4 50 156 4 50 156 4 50 156 4 50 156 52 94 172 116 142 196 
156 206 204 252 254 252 52 94 172 4 50 156 4 50 156 4 50 156 4 50 156 4 50 156 
4 50 156 4 50 156 4 50 156 4 50 156 4 50 156 4 50 156 4 50 156 4 50 156 
4 50 156 4 50 156 4 50 156 4 50 156 4 50 156 4 50 156 4 50 156 252 254 252 252 254 252 252 254 252 252 254 252 252 254 252 252 254 252 252 254 252 252 254 252 252 254 252 
252 254 252 252 254 252 252 254 252 252 254 252 252 254 252 252 254 252 252 254 252 252 254 252 
252 254 252 252 254 252 252 254 252 252 254 252 252 254 252 252 254 252 252 254 252 180 174 180 
4 2 4 52 2 4 156 154 100 156 102 4 204 154 4 204 154 4 204 154 4 204 154 4 
156 102 4 156 102 4 156 154 100 204 206 156 180 174 180 4 2 4 4 2 4 100 102 100 
156 102 156 4 2 4 52 50 52 252 254 252 252 254 252 252 254 252 236 234 236 52 50 52 
4 2 4 4 2 4 4 2 4 4 2 4 4 2 4 4 2 4 52 50 52 52 50 52 
52 50 52 52 50 52 52 50 52 52 50 52 4 2 4 52 50 52 52 50 52 4 2 4 
100 102 100 180 174 180 180 174 180 204 206 204 252 254 252 252 254 252 252 254 252 252 254 252 
252 254 252 252 254 252 252 254 252 252 254 252 252 254 252 252 254 252 4 50 156 4 50 156 
4 50 156 4 50 156 4 50 156 4 50 156 4 50 156 4 50 156 4 50 156 4 50 156 
4 50 156 4 50 156 4 50 156 4 50 156 4 50 156 4 50 156 4 50 156 4 50 156 
4 50 156 252 254 252 252 254 252 252 254 252 204 206 204 204 206 252 252 254 252 252 254 252 
252 254 252 252 254 252 52 94 172 4 50 156 4 50 156 4 50 156 156 206 204 252 254 252 
156 154 204 4 50 156 4 50 156 4 50 156 4 50 156 52 94 172 252 254 252 116 142 196 
4 50 156 4 50 156 4 50 156 4 50 156 4 50 156 4 50 156 116 142 196 252 254 252 
252 254 252 252 254 252 252 254 252 52 94 172 4 50 156 4 50 156 4 50 156 4 50 156 
4 50 156 4 50 156 116 142 196 252 254 252 252 254 252 252 254 252 252 254 252 252 254 252 
204 206 204 4 50 156 204 206 252 252 254 252 116 142 196 4 50 156 4 50 156 4 50 156 
4 50 156 4 50 156 236 234 236 252 254 252 52 94 172 4 50 156 4 50 156 4 50 156 
4 50 156 204 206 252 252 254 252 156 206 204 4 50 156 4 50 156 4 50 156 4 50 156 
4 50 156 4 50 156 4 50 156 4 50 156 4 50 156 4 50 156 116 142 196 252 254 252 
116 142 196 4 50 156 4 50 156 4 50 156 4 50 156 4 50 156 52 94 172 52 94 172 
4 50 156 4 50 156 4 50 156 4 50 156 4 50 156 4 50 156 4 50 156 252 254 252 
252 254 252 116 142 196 156 206 204 236 234 236 252 254 252 252 254 252 252 254 252 252 254 252 
204 206 204 52 94 172 4 50 156 4 50 156 4 50 156 4 50 156 4 50 156 204 206 204 
252 254 252 204 206 252 204 206 204 204 206 252 204 206 204 252 254 252 252 254 252 252 254 252 
236 234 236 100 102 204 4 50 156 4 50 156 4 50 156 4 50 156 4 50 156 4 50 156 
4 50 156 4 50 156 4 50 156 4 50 156 4 50 156 4 50 156 4 50 156 4 50 156 
4 50 156 4 50 156 4 50 156 4 50 156 4 50 156 4 50 156 4 50 156 236 234 236 252 254 252 252 254 252 252 254 252 252 254 252 252 254 252 252 254 252 252 254 252 252 254 252 
252 254 252 252 254 252 252 254 252 252 254 252 252 254 252 252 254 252 252 254 252 252 254 252 
252 254 252 252 254 252 252 254 252 252 254 252 252 254 252 252 254 252 252 254 252 156 102 100 
4 2 4 52 2 4 204 206 156 156 154 156 156 102 4 204 102 4 204 154 4 156 154 4 
156 102 52 156 154 100 180 174 180 204 206 204 236 234 236 76 70 68 4 2 4 4 2 4 
76 70 68 4 2 4 4 2 4 236 234 236 252 254 252 252 254 252 52 50 52 4 2 4 
4 2 4 4 2 4 4 2 4 4 2 4 4 2 4 4 2 4 4 2 4 52 50 52 
52 50 52 4 2 4 52 50 52 52 50 52 52 50 52 52 50 52 52 50 52 4 2 4 
52 50 52 180 174 180 204 206 204 100 102 100 252 254 252 252 254 252 252 254 252 252 254 252 
252 254 252 252 254 252 252 254 252 252 254 252 252 254 252 252 254 252 4 50 156 4 50 156 
4 50 156 4 50 156 4 50 156 4 50 156 4 50 156 4 50 156 4 50 156 4 50 156 
4 50 156 4 50 156 4 50 156 4 50 156 4 50 156 4 50 156 4 50 156 4 50 156 
4 50 156 252 254 252 252 254 252 252 254 252 252 254 252 252 254 252 252 254 252 252 254 252 
236 234 236 116 142 196 4 50 156 4 50 156 4 50 156 4 50 156 116 142 196 252 254 252 
204 206 204 4 50 156 4 50 156 4 50 156 4 50 156 116 142 196 252 254 252 52 94 172 
4 50 156 4 50 156 4 50 156 4 50 156 4 50 156 4 50 156 4 50 156 236 234 236 
252 254 252 252 254 252 204 206 204 4 50 156 4 50 156 4 50 156 4 50 156 4 50 156 
4 50 156 4 50 156 4 50 156 236 234 236 252 254 252 252 254 252 252 254 252 204 206 252 
4 50 156 4 50 156 252 254 252 252 254 252 236 234 236 4 50 156 4 50 156 4 50 156 
4 50 156 116 142 196 252 254 252 156 154 204 4 50 156 4 50 156 4 50 156 4 50 156 
4 50 156 52 94 172 236 234 236 252 254 252 52 94 172 4 50 156 4 50 156 4 50 156 
4 50 156 4 50 156 4 50 156 4 50 156 4 50 156 4 50 156 156 154 204 252 254 252 
100 102 204 4 50 156 4 50 156 4 50 156 4 50 156 4 50 156 4 50 156 4 50 156 
4 50 156 4 50 156 4 50 156 4 50 156 4 50 156 52 94 172 156 206 204 252 254 252 
252 254 252 252 254 252 252 254 252 252 254 252 252 254 252 204 206 204 116 142 196 52 94 172 
4 50 156 4 50 156 4 50 156 4 50 156 4 50 156 4 50 156 4 50 156 156 154 204 
236 234 236 252 254 252 252 254 252 252 254 252 252 254 252 252 254 252 236 234 236 116 142 196 
4 50 156 4 50 156 4 50 156 4 50 156 4 50 156 4 50 156 4 50 156 4 50 156 
4 50 156 4 50 156 4 50 156 4 50 156 4 50 156 4 50 156 4 50 156 4 50 156 
4 50 156 4 50 156 4 50 156 4 50 156 4 50 156 4 50 156 4 50 156 4 50 156 252 254 252 252 254 252 252 254 252 252 254 252 252 254 252 252 254 252 252 254 252 252 254 252 
252 254 252 252 254 252 252 254 252 252 254 252 252 254 252 252 254 252 252 254 252 252 254 252 
252 254 252 252 254 252 252 254 252 252 254 252 252 254 252 252 254 252 252 254 252 52 50 52 
4 2 4 52 50 52 204 206 204 180 174 180 156 154 156 156 154 100 156 102 52 156 154 100 
204 154 156 204 206 204 204 206 252 252 254 252 252 254 252 236 234 236 4 2 4 4 2 4 
4 2 4 4 2 4 4 2 4 4 2 4 252 254 252 52 50 52 4 2 4 4 2 4 
4 2 4 4 2 4 4 2 4 4 2 4 4 2 4 76 70 68 52 50 52 52 50 52 
52 50 52 52 50 52 52 50 52 4 2 4 52 50 52 52 50 52 52 50 52 52 50 52 
4 2 4 180 174 180 204 206 204 100 102 100 252 254 252 252 254 252 252 254 252 252 254 252 
252 254 252 252 254 252 252 254 252 252 254 252 252 254 252 252 254 252 4 50 156 4 50 156 
4 50 156 4 50 156 4 50 156 4 50 156 4 50 156 4 50 156 4 50 156 4 50 156 
4 50 156 4 50 156 4 50 156 4 50 156 4 50 156 4 50 156 4 50 156 4 50 156 
4 50 156 116 142 196 252 254 252 252 254 252 236 234 236 204 206 252 156 154 204 52 94 172 
4 50 156 4 50 156 4 50 156 4 50 156 4 50 156 4 50 156 52 94 172 236 234 236 
116 142 196 4 50 156 4 50 156 4 50 156 4 50 156 156 154 204 236 234 236 4 50 156 
4 50 156 4 50 156 4 50 156 4 50 156 4 50 156 4 50 156 4 50 156 116 142 196 
252 254 252 116 142 196 52 94 172 4 50 156 4 50 156 4 50 156 4 50 156 4 50 156 
4 50 156 4 50 156 4 50 156 52 94 172 156 154 204 156 206 204 116 142 196 4 50 156 
4 50 156 4 50 156 252 254 252 252 254 252 156 154 204 4 50 156 4 50 156 4 50 156 
4 50 156 236 234 236 236 234 236 4 50 156 4 50 156 4 50 156 4 50 156 4 50 156 
4 50 156 4 50 156 52 94 172 116 142 196 52 94 172 4 50 156 4 50 156 4 50 156 
4 50 156 4 50 156 4 50 156 4 50 156 4 50 156 4 50 156 204 206 204 252 254 252 
52 94 172 4 50 156 4 50 156 4 50 156 4 50 156 4 50 156 4 50 156 4 50 156 
4 50 156 4 50 156 4 50 156 4 50 156 4 50 156 204 206 204 252 254 252 252 254 252 
236 234 236 156 154 204 116 142 196 52 94 172 4 50 156 4 50 156 4 50 156 4 50 156 
4 50 156 4 50 156 4 50 156 4 50 156 4 50 156 4 50 156 4 50 156 4 50 156 
236 234 236 252 254 252 236 234 236 204 206 204 156 154 204 100 102 204 4 50 156 4 50 156 
4 50 156 4 50 156 4 50 156 4 50 156 4 50 156 4 50 156 4 50 156 4 50 156 
4 50 156 4 50 156 4 50 156 4 50 156 4 50 156 4 50 156 4 50 156 4 50 156 
4 50 156 4 50 156 4 50 156 4 50 156 4 50 156 4 50 156 4 50 156 4 50 156 252 254 252 252 254 252 252 254 252 252 254 252 252 254 252 252 254 252 252 254 252 252 254 252 
252 254 252 252 254 252 252 254 252 252 254 252 252 254 252 252 254 252 252 254 252 252 254 252 
252 254 252 252 254 252 252 254 252 252 254 252 252 254 252 252 254 252 180 174 180 4 2 4 
4 2 4 100 154 156 204 206 204 180 174 180 204 206 156 180 174 180 204 206 204 204 206 204 
204 206 204 236 234 236 236 234 236 236 234 236 236 234 236 204 206 204 76 70 68 4 2 4 
4 2 4 4 2 4 4 50 4 4 2 4 52 50 52 4 2 4 4 2 4 4 2 4 
4 2 4 4 2 4 4 2 4 4 2 4 4 2 4 236 234 236 92 90 92 52 50 52 
52 50 52 52 50 52 52 50 52 52 50 52 52 50 52 52 50 52 52 50 52 52 50 52 
4 2 4 100 102 100 204 206 204 180 174 180 252 254 252 252 254 252 252 254 252 252 254 252 
252 254 252 252 254 252 252 254 252 252 254 252 252 254 252 236 234 236 4 50 156 4 50 156 
4 50 156 4 50 156 4 50 156 4 50 156 4 50 156 4 50 156 4 50 156 4 50 156 
4 50 156 4 50 156 4 50 156 4 50 156 4 50 156 4 50 156 4 50 156 4 50 156 
4 50 156 4 50 156 4 50 156 4 50 156 4 50 156 4 50 156 4 50 156 4 50 156 
4 50 156 4 50 156 4 50 156 4 50 156 4 50 156 4 50 156 4 50 156 4 50 156 
4 50 156 4 50 156 4 50 156 4 50 156 4 50 156 204 206 204 156 154 204 4 50 156 
4 50 156 4 50 156 4 50 156 4 50 156 4 50 156 4 50 156 4 50 156 4 50 156 
4 50 156 4 50 156 4 50 156 4 50 156 4 50 156 4 50 156 4 50 156 4 50 156 
4 50 156 4 50 156 4 50 156 4 50 156 4 50 156 4 50 156 4 50 156 4 50 156 
4 50 156 4 50 156 156 154 204 116 142 196 4 50 156 4 50 156 4 50 156 4 50 156 
4 50 156 252 254 252 52 94 172 4 50 156 4 50 156 4 50 156 4 50 156 4 50 156 
4 50 156 4 50 156 4 50 156 4 50 156 4 50 156 4 50 156 4 50 156 4 50 156 
4 50 156 4 50 156 4 50 156 4 50 156 4 50 156 4 50 156 204 206 252 252 254 252 
4 50 156 4 50 156 4 50 156 4 50 156 4 50 156 4 50 156 4 50 156 4 50 156 
4 50 156 4 50 156 4 50 156 4 50 156 4 50 156 4 50 156 4 50 156 204 206 252 
156 154 204 4 50 156 4 50 156 4 50 156 4 50 156 4 50 156 4 50 156 4 50 156 
4 50 156 4 50 156 4 50 156 4 50 156 4 50 156 4 50 156 4 50 156 4 50 156 
4 50 156 4 50 156 4 50 156 4 50 156 4 50 156 4 50 156 4 50 156 4 50 156 
4 50 156 4 50 156 4 50 156 4 50 156 4 50 156 4 50 156 4 50 156 4 50 156 
4 50 156 4 50 156 4 50 156 4 50 156 4 50 156 4 50 156 4 50 156 4 50 156 
4 50 156 4 50 156 4 50 156 4 50 156 4 50 156 4 50 156 4 50 156 4 50 156 252 254 252 252 254 252 252 254 252 252 254 252 252 254 252 252 254 252 252 254 252 252 254 252 
252 254 252 252 254 252 252 254 252 252 254 252 252 254 252 252 254 252 252 254 252 252 254 252 
252 254 252 252 254 252 252 254 252 252 254 252 252 254 252 204 206 204 4 2 4 4 2 4 
52 50 52 156 154 156 156 154 156 204 206 204 204 154 204 180 174 180 180 174 180 236 234 236 
252 254 252 252 254 252 236 234 236 204 206 204 180 174 180 156 154 156 204 206 204 4 2 4 
4 2 4 52 2 52 4 2 4 4 2 4 4 2 4 4 2 4 4 2 4 4 2 4 
4 2 4 4 2 4 4 2 4 4 2 4 52 50 52 252 254 252 252 254 252 76 70 68 
52 50 52 52 50 52 4 2 4 52 50 52 52 50 52 52 50 52 4 2 4 52 50 52 
4 2 4 52 50 52 204 206 204 204 206 204 204 206 204 252 254 252 252 254 252 252 254 252 
252 254 252 252 254 252 252 254 252 252 254 252 252 254 252 4 50 156 4 50 156 4 50 156 
4 50 156 4 50 156 4 50 156 4 50 156 4 50 156 4 50 156 4 50 156 4 50 156 
4 50 156 4 50 156 4 50 156 4 50 156 4 50 156 4 50 156 4 50 156 4 50 156 
4 50 156 4 50 156 4 50 156 4 50 156 4 50 156 4 50 156 4 50 156 4 50 156 
4 50 156 4 50 156 4 50 156 4 50 156 4 50 156 4 50 156 4 50 156 4 50 156 
4 50 156 4 50 156 4 50 156 4 50 156 4 50 156 52 94 172 4 50 156 4 50 156 
4 50 156 4 50 156 4 50 156 4 50 156 4 50 156 4 50 156 4 50 156 4 50 156 
4 50 156 4 50 156 4 50 156 4 50 156 4 50 156 4 50 156 4 50 156 4 50 156 
4 50 156 4 50 156 4 50 156 4 50 156 4 50 156 4 50 156 4 50 156 4 50 156 
4 50 156 4 50 156 4 50 156 4 50 156 4 50 156 4 50 156 4 50 156 4 50 156 
52 94 172 156 154 204 4 50 156 4 50 156 4 50 156 4 50 156 4 50 156 4 50 156 
4 50 156 4 50 156 4 50 156 4 50 156 4 50 156 4 50 156 4 50 156 4 50 156 
4 50 156 4 50 156 4 50 156 4 50 156 4 50 156 4 50 156 156 206 204 236 234 236 
4 50 156 4 50 156 4 50 156 4 50 156 4 50 156 4 50 156 4 50 156 4 50 156 
4 50 156 4 50 156 4 50 156 4 50 156 4 50 156 4 50 156 4 50 156 4 50 156 
4 50 156 4 50 156 4 50 156 4 50 156 4 50 156 4 50 156 4 50 156 4 50 156 
4 50 156 4 50 156 4 50 156 4 50 156 4 50 156 4 50 156 4 50 156 4 50 156 
4 50 156 4 50 156 4 50 156 4 50 156 4 50 156 4 50 156 4 50 156 4 50 156 
4 50 156 4 50 156 4 50 156 4 50 156 4 50 156 4 50 156 4 50 156 4 50 156 
4 50 156 4 50 156 4 50 156 4 50 156 4 50 156 4 50 156 4 50 156 4 50 156 
4 50 156 4 50 156 4 50 156 4 50 156 4 50 156 4 50 156 4 50 156 4 50 156 236 234 236 252 254 252 252 254 252 252 254 252 252 254 252 252 254 252 252 254 252 252 254 252 
252 254 252 252 254 252 252 254 252 252 254 252 252 254 252 252 254 252 252 254 252 252 254 252 
252 254 252 252 254 252 252 254 252 252 254 252 156 154 156 4 2 4 4 2 4 4 2 4 
180 174 180 156 154 156 156 154 156 204 206 204 252 254 252 252 254 252 236 234 236 252 254 252 
252 254 252 236 234 236 204 206 204 156 154 156 100 102 156 100 102 100 180 174 180 52 50 52 
4 2 4 4 2 4 4 2 4 4 2 4 4 2 4 4 2 4 4 2 4 4 2 4 
4 2 4 4 2 4 4 2 4 4 2 4 236 234 236 252 254 252 252 254 252 252 254 252 
52 50 52 52 50 52 76 70 68 4 2 4 52 50 52 52 50 52 52 50 52 52 50 52 
4 2 4 4 2 4 204 206 204 204 206 204 156 154 156 252 254 252 252 254 252 252 254 252 
252 254 252 252 254 252 252 254 252 252 254 252 252 254 252 4 50 156 4 50 156 4 50 156 
4 50 156 4 50 156 4 50 156 4 50 156 4 50 156 4 50 156 4 50 156 4 50 156 
4 50 156 4 50 156 4 50 156 4 50 156 4 50 156 4 50 156 4 50 156 4 50 156 
4 50 156 4 50 156 4 50 156 4 50 156 4 50 156 4 50 156 4 50 156 4 50 156 
4 50 156 4 50 156 4 50 156 4 50 156 4 50 156 4 50 156 4 50 156 4 50 156 
4 50 156 4 50 156 4 50 156 4 50 156 4 50 156 4 50 156 4 50 156 4 50 156 
4 50 156 4 50 156 4 50 156 4 50 156 4 50 156 4 50 156 4 50 156 4 50 156 
4 50 156 4 50 156 4 50 156 4 50 156 4 50 156 4 50 156 4 50 156 4 50 156 
4 50 156 4 50 156 4 50 156 4 50 156 4 50 156 4 50 156 4 50 156 4 50 156 
4 50 156 4 50 156 4 50 156 4 50 156 4 50 156 4 50 156 4 50 156 4 50 156 
4 50 156 4 50 156 4 50 156 4 50 156 4 50 156 4 50 156 4 50 156 4 50 156 
4 50 156 4 50 156 4 50 156 4 50 156 4 50 156 4 50 156 4 50 156 4 50 156 
4 50 156 4 50 156 4 50 156 4 50 156 4 50 156 4 50 156 204 206 252 52 94 172 
4 50 156 4 50 156 4 50 156 4 50 156 4 50 156 4 50 156 4 50 156 4 50 156 
4 50 156 4 50 156 4 50 156 4 50 156 4 50 156 4 50 156 4 50 156 4 50 156 
4 50 156 4 50 156 4 50 156 4 50 156 4 50 156 4 50 156 4 50 156 4 50 156 
4 50 156 4 50 156 4 50 156 4 50 156 4 50 156 4 50 156 4 50 156 4 50 156 
4 50 156 4 50 156 4 50 156 4 50 156 4 50 156 4 50 156 4 50 156 4 50 156 
4 50 156 4 50 156 4 50 156 4 50 156 4 50 156 4 50 156 4 50 156 4 50 156 
4 50 156 4 50 156 4 50 156 4 50 156 4 50 156 4 50 156 4 50 156 4 50 156 
4 50 156 4 50 156 4 50 156 4 50 156 4 50 156 4 50 156 4 50 156 4 50 156 4 50 156 252 254 252 252 254 252 252 254 252 252 254 252 252 254 252 252 254 252 252 254 252 
252 254 252 252 254 252 252 254 252 252 254 252 252 254 252 252 254 252 252 254 252 236 234 236 
252 254 252 252 254 252 236 234 236 76 70 68 4 2 4 4 2 4 4 2 4 100 102 100 
236 234 236 204 206 204 204 206 204 236 234 236 252 254 252 252 254 252 252 254 252 252 254 252 
252 254 252 236 234 236 204 206 204 156 154 156 156 154 100 156 154 156 180 174 180 156 154 156 
4 2 4 4 2 4 4 2 4 4 2 4 4 2 4 4 2 4 4 2 4 4 2 4 
4 2 4 4 2 4 4 2 4 52 50 52 252 254 252 252 254 252 252 254 252 252 254 252 
252 254 252 76 70 68 52 50 52 52 50 52 52 50 52 52 50 52 52 50 52 52 50 52 
4 2 4 4 2 4 180 174 180 204 206 204 100 102 100 252 254 252 252 254 252 252 254 252 
252 254 252 252 254 252 252 254 252 252 254 252 252 254 252 4 50 156 4 50 156 4 50 156 
4 50 156 4 50 156 4 50 156 4 50 156 4 50 156 4 50 156 4 50 156 4 50 156 
4 50 156 4 50 156 4 50 156 4 50 156 4 50 156 4 50 156 4 50 156 4 50 156 
4 50 156 4 50 156 4 50 156 4 50 156 4 50 156 4 50 156 4 50 156 4 50 156 
4 50 156 4 50 156 4 50 156 4 50 156 4 50 156 4 50 156 4 50 156 4 50 156 
4 50 156 4 50 156 4 50 156 4 50 156 4 50 156 4 50 156 4 50 156 4 50 156 
4 50 156 4 50 156 4 50 156 4 50 156 4 50 156 4 50 156 4 50 156 4 50 156 
4 50 156 4 50 156 4 50 156 4 50 156 4 50 156 4 50 156 4 50 156 4 50 156 
4 50 156 4 50 156 4 50 156 4 50 156 4 50 156 4 50 156 4 50 156 4 50 156 
4 50 156 4 50 156 4 50 156 4 50 156 4 50 156 4 50 156 4 50 156 4 50 156 
4 50 156 4 50 156 4 50 156 4 50 156 4 50 156 4 50 156 4 50 156 4 50 156 
4 50 156 4 50 156 4 50 156 4 50 156 4 50 156 4 50 156 4 50 156 4 50 156 
4 50 156 4 50 156 4 50 156 4 50 156 4 50 156 4 50 156 4 50 156 4 50 156 
4 50 156 4 50 156 4 50 156 4 50 156 4 50 156 4 50 156 4 50 156 4 50 156 
4 50 156 4 50 156 4 50 156 4 50 156 4 50 156 4 50 156 4 50 156 4 50 156 
4 50 156 4 50 156 4 50 156 4 50 156 4 50 156 4 50 156 4 50 156 4 50 156 
4 50 156 4 50 156 4 50 156 4 50 156 4 50 156 4 50 156 4 50 156 4 50 156 
4 50 156 4 50 156 4 50 156 4 50 156 4 50 156 4 50 156 4 50 156 4 50 156 
4 50 156 4 50 156 4 50 156 4 50 156 4 50 156 4 50 156 4 50 156 4 50 156 
4 50 156 4 50 156 4 50 156 4 50 156 4 50 156 4 50 156 4 50 156 4 50 156 
4 50 156 4 50 156 4 50 156 4 50 156 4 50 156 4 50 156 4 50 156 4 50 156 4 50 156 252 254 252 252 254 252 252 254 252 252 254 252 252 254 252 252 254 252 252 254 252 
252 254 252 252 254 252 252 254 252 252 254 252 252 254 252 252 254 252 252 254 252 252 254 252 
252 254 252 236 234 236 52 50 52 4 2 4 4 2 4 52 50 52 4 2 4 180 174 180 
236 234 236 236 234 236 236 234 236 252 254 252 236 234 236 236 234 236 252 254 252 252 254 252 
252 254 252 236 234 236 236 234 236 180 174 180 180 174 180 180 174 180 204 206 204 204 206 204 
4 2 4 4 2 4 4 2 4 4 2 4 4 2 4 4 2 4 4 2 4 4 2 4 
4 2 4 4 2 4 4 2 4 156 154 156 252 254 252 252 254 252 252 254 252 252 254 252 
252 254 252 236 234 236 92 90 92 52 50 52 52 50 52 52 50 52 52 50 52 4 2 4 
4 2 4 4 2 4 180 174 180 236 234 236 156 154 156 252 254 252 252 254 252 252 254 252 
252 254 252 252 254 252 252 254 252 252 254 252 4 50 156 4 50 156 4 50 156 4 50 156 
4 50 156 4 50 156 4 50 156 4 50 156 4 50 156 4 50 156 4 50 156 4 50 156 
4 50 156 4 50 156 4 50 156 4 50 156 4 50 156 4 50 156 4 50 156 4 50 156 
4 50 156 4 50 156 4 50 156 4 50 156 4 50 156 4 50 156 4 50 156 4 50 156 
4 50 156 4 50 156 4 50 156 4 50 156 4 50 156 4 50 156 4 50 156 4 50 156 
4 50 156 4 50 156 4 50 156 4 50 156 4 50 156 4 50 156 4 50 156 4 50 156 
4 50 156 4 50 156 4 50 156 4 50 156 4 50 156 4 50 156 4 50 156 4 50 156 
4 50 156 4 50 156 4 50 156 4 50 156 4 50 156 4 50 156 4 50 156 4 50 156 
4 50 156 4 50 156 4 50 156 4 50 156 4 50 156 4 50 156 4 50 156 4 50 156 
4 50 156 4 50 156 4 50 156 4 50 156 4 50 156 4 50 156 4 50 156 4 50 156 
4 50 156 4 50 156 4 50 156 4 50 156 4 50 156 4 50 156 4 50 156 4 50 156 
4 50 156 4 50 156 4 50 156 4 50 156 4 50 156 4 50 156 4 50 156 4 50 156 
4 50 156 4 50 156 4 50 156 4 50 156 4 50 156 4 50 156 4 50 156 4 50 156 
4 50 156 4 50 156 4 50 156 4 50 156 4 50 156 4 50 156 4 50 156 4 50 156 
4 50 156 4 50 156 4 50 156 4 50 156 4 50 156 4 50 156 4 50 156 4 50 156 
4 50 156 4 50 156 4 50 156 4 50 156 4 50 156 4 50 156 4 50 156 4 50 156 
4 50 156 4 50 156 4 50 156 4 50 156 4 50 156 4 50 156 4 50 156 4 50 156 
4 50 156 4 50 156 4 50 156 4 50 156 4 50 156 4 50 156 4 50 156 4 50 156 
4 50 156 4 50 156 4 50 156 4 50 156 4 50 156 4 50 156 4 50 156 4 50 156 
4 50 156 4 50 156 4 50 156 4 50 156 4 50 156 4 50 156 4 50 156 4 50 156 
4 50 156 4 50 156 4 50 156 4 50 156 4 50 156 4 50 156 4 50 156 4 50 156 4 50 156 236 234 236 252 254 252 252 254 252 252 254 252 252 254 252 252 254 252 252 254 252 
252 254 252 252 254 252 252 254 252 252 254 252 252 254 252 252 254 252 252 254 252 236 234 236 
180 174 180 4 2 4 4 2 4 52 50 52 92 90 92 4 2 4 4 2 4 156 154 156 
204 206 204 204 206 204 204 206 204 236 234 236 236 234 236 236 234 236 236 234 236 252 254 252 
252 254 252 236 234 236 204 206 204 180 174 180 204 206 204 204 206 204 204 206 204 204 206 204 
52 50 52 4 2 4 4 2 4 4 2 4 4 2 4 4 2 4 4 2 4 4 2 4 
4 2 4 4 2 4 4 2 4 100 102 100 156 154 156 236 234 236 236 234 236 252 254 252 
252 254 252 252 254 252 236 234 236 92 90 92 4 2 4 52 50 52 52 50 52 4 2 4 
4 2 4 4 2 4 156 154 156 180 174 180 236 234 236 252 254 252 252 254 252 252 254 252 
252 254 252 252 254 252 252 254 252 252 254 252 4 50 156 4 50 156 4 50 156 4 50 156 
4 50 156 4 50 156 4 50 156 4 50 156 4 50 156 4 50 156 4 50 156 4 50 156 
4 50 156 4 50 156 4 50 156 4 50 156 4 50 156 4 50 156 4 50 156 4 50 156 
4 50 156 4 50 156 4 50 156 4 50 156 4 50 156 4 50 156 4 50 156 4 50 156 
4 50 156 4 50 156 4 50 156 4 50 156 4 50 156 4 50 156 4 50 156 4 50 156 
4 50 156 4 50 156 4 50 156 4 50 156 4 50 156 4 50 156 4 50 156 4 50 156 
4 50 156 4 50 156 4 50 156 4 50 156 4 50 156 4 50 156 4 50 156 4 50 156 
4 50 156 4 50 156 4 50 156 4 50 156 4 50 156 4 50 156 4 50 156 4 50 156 
4 50 156 4 50 156 4 50 156 4 50 156 4 50 156 4 50 156 4 50 156 4 50 156 
4 50 156 4 50 156 4 50 156 4 50 156 4 50 156 4 50 156 4 50 156 4 50 156 
4 50 156 4 50 156 4 50 156 4 50 156 4 50 156 4 50 156 4 50 156 4 50 156 
4 50 156 4 50 156 4 50 156 4 50 156 4 50 156 4 50 156 4 50 156 4 50 156 
4 50 156 4 50 156 4 50 156 4 50 156 4 50 156 4 50 156 4 50 156 4 50 156 
4 50 156 4 50 156 4 50 156 4 50 156 4 50 156 4 50 156 4 50 156 4 50 156 
4 50 156 4 50 156 4 50 156 4 50 156 4 50 156 4 50 156 4 50 156 4 50 156 
4 50 156 4 50 156 4 50 156 4 50 156 4 50 156 4 50 156 4 50 156 4 50 156 
4 50 156 4 50 156 4 50 156 4 50 156 4 50 156 4 50 156 4 50 156 4 50 156 
4 50 156 4 50 156 4 50 156 4 50 156 4 50 156 4 50 156 4 50 156 4 50 156 
4 50 156 4 50 156 4 50 156 4 50 156 4 50 156 4 50 156 4 50 156 4 50 156 
4 50 156 4 50 156 4 50 156 4 50 156 4 50 156 4 50 156 4 50 156 4 50 156 
4 50 156 4 50 156 4 50 156 4 50 156 4 50 156 4 50 156 4 50 156 4 50 156 4 50 156 4 50 156 252 254 252 252 254 252 252 254 252 252 254 252 252 254 252 252 254 252 
252 254 252 252 254 252 252 254 252 252 254 252 236 234 236 156 154 156 52 50 52 4 2 4 
4 2 4 4 2 4 52 50 52 100 102 100 4 2 4 4 2 4 52 50 52 180 174 180 
204 206 204 180 174 180 156 154 156 156 154 156 236 234 236 236 234 236 252 254 252 252 254 252 
252 254 252 252 254 252 252 254 252 236 234 236 204 206 252 204 206 204 204 206 204 204 206 204 
236 234 236 4 2 52 4 2 4 4 2 4 4 2 4 4 2 4 4 2 4 4 2 4 
4 2 4 4 2 4 4 2 4 4 2 4 4 2 4 4 2 4 4 2 4 4 2 4 
4 2 4 92 90 92 156 154 156 252 254 252 156 154 156 4 2 4 4 2 4 4 2 4 
4 2 4 4 2 4 156 154 156 156 154 156 252 254 252 252 254 252 252 254 252 252 254 252 
252 254 252 252 254 252 252 254 252 236 234 236 4 50 156 4 50 156 4 50 156 4 50 156 
4 50 156 4 50 156 4 50 156 4 50 156 4 50 156 4 50 156 4 50 156 4 50 156 
4 50 156 4 50 156 4 50 156 4 50 156 4 50 156 4 50 156 4 50 156 4 50 156 
4 50 156 4 50 156 4 50 156 4 50 156 4 50 156 4 50 156 4 50 156 4 50 156 
4 50 156 4 50 156 4 50 156 4 50 156 4 50 156 4 50 156 4 50 156 4 50 156 
4 50 156 4 50 156 4 50 156 4 50 156 4 50 156 4 50 156 4 50 156 4 50 156 
4 50 156 4 50 156 4 50 156 4 50 156 4 50 156 4 50 156 4 50 156 4 50 156 
4 50 156 4 50 156 4 50 156 4 50 156 4 50 156 4 50 156 4 50 156 4 50 156 
4 50 156 4 50 156 4 50 156 4 50 156 4 50 156 4 50 156 4 50 156 4 50 156 
4 50 156 4 50 156 4 50 156 4 50 156 4 50 156 4 50 156 4 50 156 4 50 156 
4 50 156 4 50 156 4 50 156 4 50 156 4 50 156 4 50 156 4 50 156 4 50 156 
4 50 156 4 50 156 4 50 156 4 50 156 4 50 156 4 50 156 4 50 156 4 50 156 
4 50 156 4 50 156 4 50 156 4 50 156 4 50 156 4 50 156 4 50 156 4 50 156 
4 50 156 4 50 156 4 50 156 4 50 156 4 50 156 4 50 156 4 50 156 4 50 156 
4 50 156 4 50 156 4 50 156 4 50 156 4 50 156 4 50 156 4 50 156 4 50 156 
4 50 156 4 50 156 4 50 156 4 50 156 4 50 156 4 50 156 4 50 156 4 50 156 
4 50 156 4 50 156 4 50 156 4 50 156 4 50 156 4 50 156 4 50 156 4 50 156 
4 50 156 4 50 156 4 50 156 4 50 156 4 50 156 4 50 156 4 50 156 4 50 156 
4 50 156 4 50 156 4 50 156 4 50 156 4 50 156 4 50 156 4 50 156 4 50 156 
4 50 156 4 50 156 4 50 156 4 50 156 4 50 156 4 50 156 4 50 156 4 50 156 
4 50 156 4 50 156 4 50 156 4 50 156 4 50 156 4 50 156 4 50 156 4 50 156 4 50 156 4 50 156 236 234 236 252 254 252 252 254 252 252 254 252 252 254 252 252 254 252 
252 254 252 252 254 252 100 102 100 52 50 52 4 2 4 4 2 4 52 50 52 4 2 4 
4 2 4 4 2 4 52 50 52 76 70 68 4 2 4 4 2 4 100 102 100 236 234 236 
180 174 180 156 154 156 100 102 100 156 154 156 204 206 204 236 234 236 252 254 252 252 254 252 
252 254 252 252 254 252 236 234 236 236 234 236 236 234 236 236 234 236 236 234 236 204 206 204 
204 206 204 156 154 156 4 2 4 4 2 4 4 2 4 4 2 4 4 2 4 4 2 4 
52 50 52 4 2 4 4 2 4 4 2 4 4 2 4 4 2 4 4 2 4 4 2 4 
4 2 4 4 2 4 4 2 4 4 2 4 52 50 52 100 102 100 100 102 100 52 50 52 
52 50 52 100 102 100 100 102 100 252 254 252 252 254 252 252 254 252 252 254 252 252 254 252 
252 254 252 252 254 252 252 254 252 4 50 156 4 50 156 4 50 156 4 50 156 4 50 156 
4 50 156 4 50 156 4 50 156 4 50 156 4 50 156 4 50 156 4 50 156 4 50 156 
4 50 156 4 50 156 4 50 156 4 50 156 4 50 156 4 50 156 4 50 156 4 50 156 
4 50 156 4 50 156 4 50 156 4 50 156 4 50 156 4 50 156 4 50 156 4 50 156 
4 50 156 4 50 156 4 50 156 4 50 156 4 50 156 4 50 156 4 50 156 4 50 156 
4 50 156 4 50 156 4 50 156 4 50 156 4 50 156 4 50 156 4 50 156 4 50 156 
4 50 156 4 50 156 4 50 156 4 50 156 4 50 156 4 50 156 4 50 156 4 50 156 
4 50 156 4 50 156 4 50 156 4 50 156 4 50 156 4 50 156 4 50 156 4 50 156 
4 50 156 4 50 156 4 50 156 4 50 156 4 50 156 4 50 156 4 50 156 4 50 156 
4 50 156 4 50 156 4 50 156 4 50 156 4 50 156 4 50 156 4 50 156 4 50 156 
4 50 156 4 50 156 4 50 156 4 50 156 4 50 156 4 50 156 4 50 156 4 50 156 
4 50 156 4 50 156 4 50 156 4 50 156 4 50 156 4 50 156 4 50 156 4 50 156 
4 50 156 4 50 156 4 50 156 4 50 156 4 50 156 4 50 156 4 50 156 4 50 156 
4 50 156 4 50 156 4 50 156 4 50 156 4 50 156 4 50 156 4 50 156 4 50 156 
4 50 156 4 50 156 4 50 156 4 50 156 4 50 156 4 50 156 4 50 156 4 50 156 
4 50 156 4 50 156 4 50 156 4 50 156 4 50 156 4 50 156 4 50 156 4 50 156 
4 50 156 4 50 156 4 50 156 4 50 156 4 50 156 4 50 156 4 50 156 4 50 156 
4 50 156 4 50 156 4 50 156 4 50 156 4 50 156 4 50 156 4 50 156 4 50 156 
4 50 156 4 50 156 4 50 156 4 50 156 4 50 156 4 50 156 4 50 156 4 50 156 
4 50 156 4 50 156 4 50 156 4 50 156 4 50 156 4 50 156 4 50 156 4 50 156 
4 50 156 4 50 156 4 50 156 4 50 156 4 50 156 4 50 156 4 50 156 4 50 156 4 50 156 4 50 156 4 50 156 252 254 252 252 254 252 252 254 252 252 254 252 252 254 252 
252 254 252 52 50 52 4 2 4 4 2 4 4 2 4 4 2 4 52 50 52 4 2 4 
4 2 4 4 2 4 4 2 4 52 50 52 4 2 4 4 2 4 52 50 52 204 206 204 
204 206 204 180 174 180 180 174 180 180 174 180 236 234 236 252 254 252 252 254 252 252 254 252 
252 254 204 236 234 236 204 206 204 156 154 156 180 174 180 204 206 204 252 254 252 252 254 252 
236 234 236 236 234 236 4 2 4 4 2 4 4 2 4 4 2 4 4 2 4 52 50 52 
4 2 4 4 2 4 4 2 4 4 2 4 4 2 4 4 2 4 4 2 4 4 2 4 
4 2 4 4 2 4 4 2 4 4 2 4 4 2 4 4 2 4 252 254 252 252 254 252 
204 206 204 252 254 252 252 254 252 252 254 252 252 254 252 252 254 252 252 254 252 252 254 252 
252 254 252 252 254 252 236 234 236 4 50 156 4 50 156 4 50 156 4 50 156 4 50 156 
4 50 156 4 50 156 4 50 156 4 50 156 4 50 156 4 50 156 4 50 156 4 50 156 
4 50 156 4 50 156 4 50 156 4 50 156 4 50 156 4 50 156 4 50 156 4 50 156 
4 50 156 4 50 156 4 50 156 4 50 156 4 50 156 4 50 156 4 50 156 4 50 156 
4 50 156 4 50 156 4 50 156 4 50 156 4 50 156 4 50 156 4 50 156 4 50 156 
4 50 156 4 50 156 4 50 156 4 50 156 4 50 156 4 50 156 4 50 156 4 50 156 
4 50 156 4 50 156 4 50 156 4 50 156 4 50 156 4 50 156 4 50 156 4 50 156 
4 50 156 4 50 156 4 50 156 4 50 156 4 50 156 4 50 156 4 50 156 4 50 156 
4 50 156 4 50 156 4 50 156 4 50 156 4 50 156 4 50 156 4 50 156 4 50 156 
4 50 156 4 50 156 4 50 156 4 50 156 4 50 156 4 50 156 4 50 156 4 50 156 
4 50 156 4 50 156 4 50 156 4 50 156 4 50 156 4 50 156 4 50 156 4 50 156 
4 50 156 4 50 156 4 50 156 4 50 156 4 50 156 4 50 156 4 50 156 4 50 156 
4 50 156 4 50 156 4 50 156 4 50 156 4 50 156 4 50 156 4 50 156 4 50 156 
4 50 156 4 50 156 4 50 156 4 50 156 4 50 156 4 50 156 4 50 156 4 50 156 
4 50 156 4 50 156 4 50 156 4 50 156 4 50 156 4 50 156 4 50 156 4 50 156 
4 50 156 4 50 156 4 50 156 4 50 156 4 50 156 4 50 156 4 50 156 4 50 156 
4 50 156 4 50 156 4 50 156 4 50 156 4 50 156 4 50 156 4 50 156 4 50 156 
4 50 156 4 50 156 4 50 156 4 50 156 4 50 156 4 50 156 4 50 156 4 50 156 
4 50 156 4 50 156 4 50 156 4 50 156 4 50 156 4 50 156 4 50 156 4 50 156 
4 50 156 4 50 156 4 50 156 4 50 156 4 50 156 4 50 156 4 50 156 4 50 156 
4 50 156 4 50 156 4 50 156 4 50 156 4 50 156 4 50 156 4 50 156 4 50 156 4 50 156 4 50 156 4 50 156 236 234 236 252 254 252 252 254 252 252 254 252 252 254 252 
252 254 252 236 234 236 52 50 52 4 2 4 4 2 4 4 2 4 52 50 52 4 2 4 
4 2 4 4 2 4 4 2 4 4 2 4 4 2 4 4 2 4 4 2 4 76 70 68 
100 102 100 100 102 100 156 154 156 180 174 180 204 206 204 204 206 204 204 206 204 236 234 236 
204 206 204 180 174 180 100 102 100 92 90 92 92 90 92 156 154 156 180 174 180 180 174 180 
156 154 156 156 154 156 76 70 68 4 2 4 4 2 4 4 2 4 4 2 4 52 50 52 
4 2 4 4 2 4 4 2 4 4 2 4 4 2 4 4 2 4 4 2 4 4 2 4 
4 2 4 4 2 4 4 2 4 4 2 4 4 2 4 92 90 92 252 254 252 236 234 236 
252 254 252 252 254 252 252 254 252 252 254 252 252 254 252 252 254 252 252 254 252 252 254 252 
252 254 252 252 254 252 4 50 156 4 50 156 4 50 156 4 50 156 4 50 156 4 50 156 
4 50 156 4 50 156 4 50 156 4 50 156 4 50 156 4 50 156 4 50 156 4 50 156 
4 50 156 4 50 156 4 50 156 4 50 156 4 50 156 4 50 156 4 50 156 4 50 156 
4 50 156 4 50 156 4 50 156 4 50 156 4 50 156 4 50 156 4 50 156 4 50 156 
4 50 156 4 50 156 4 50 156 4 50 156 4 50 156 4 50 156 4 50 156 4 50 156 
4 50 156 4 50 156 4 50 156 4 50 156 4 50 156 4 50 156 4 50 156 4 50 156 
4 50 156 4 50 156 4 50 156 4 50 156 4 50 156 4 50 156 4 50 156 4 50 156 
4 50 156 4 50 156 4 50 156 4 50 156 4 50 156 4 50 156 4 50 156 4 50 156 
4 50 156 4 50 156 4 50 156 4 50 156 4 50 156 4 50 156 4 50 156 4 50 156 
4 50 156 4 50 156 4 50 156 4 50 156 4 50 156 4 50 156 4 50 156 4 50 156 
4 50 156 4 50 156 4 50 156 4 50 156 4 50 156 4 50 156 4 50 156 4 50 156 
4 50 156 4 50 156 4 50 156 4 50 156 4 50 156 4 50 156 4 50 156 4 50 156 
4 50 156 4 50 156 4 50 156 4 50 156 4 50 156 4 50 156 4 50 156 4 50 156 
4 50 156 4 50 156 4 50 156 4 50 156 4 50 156 4 50 156 4 50 156 4 50 156 
4 50 156 4 50 156 4 50 156 4 50 156 4 50 156 4 50 156 4 50 156 4 50 156 
4 50 156 4 50 156 4 50 156 4 50 156 4 50 156 4 50 156 4 50 156 4 50 156 
4 50 156 4 50 156 4 50 156 4 50 156 4 50 156 4 50 156 4 50 156 4 50 156 
4 50 156 4 50 156 4 50 156 4 50 156 4 50 156 4 50 156 4 50 156 4 50 156 
4 50 156 4 50 156 4 50 156 4 50 156 4 50 156 4 50 156 4 50 156 4 50 156 
4 50 156 4 50 156 4 50 156 4 50 156 4 50 156 4 50 156 4 50 156 4 50 156 
4 50 156 4 50 156 4 50 156 4 50 156 4 50 156 4 50 156 4 50 156 4 50 156 4 50 156 4 50 156 4 50 156 4 50 156 252 254 252 252 254 252 252 254 252 252 254 252 
252 254 252 252 254 252 252 254 252 204 206 204 204 206 204 76 70 68 4 2 4 4 2 4 
4 2 4 4 2 4 4 2 4 4 2 4 4 2 4 4 2 4 4 2 4 4 2 4 
52 50 52 52 50 52 52 50 52 52 50 52 52 50 52 52 50 52 76 70 68 76 70 68 
76 70 68 76 70 68 76 70 68 52 50 52 52 50 52 76 70 68 100 102 100 100 102 100 
92 90 92 76 70 68 52 50 52 4 2 4 4 2 4 4 2 4 4 2 4 52 50 52 
4 2 4 4 2 4 4 2 4 4 2 4 4 2 4 4 2 4 4 2 4 4 2 4 
4 2 4 52 50 52 100 102 100 204 206 204 236 234 236 252 254 252 252 254 252 252 254 252 
252 254 252 252 254 252 252 254 252 252 254 252 252 254 252 252 254 252 252 254 252 252 254 252 
252 254 252 236 234 236 4 50 156 4 50 156 4 50 156 4 50 156 4 50 156 4 50 156 
4 50 156 4 50 156 4 50 156 4 50 156 4 50 156 4 50 156 4 50 156 4 50 156 
4 50 156 4 50 156 4 50 156 4 50 156 4 50 156 4 50 156 4 50 156 4 50 156 
4 50 156 4 50 156 4 50 156 4 50 156 4 50 156 4 50 156 4 50 156 4 50 156 
4 50 156 4 50 156 4 50 156 4 50 156 4 50 156 4 50 156 4 50 156 4 50 156 
4 50 156 4 50 156 4 50 156 4 50 156 4 50 156 4 50 156 4 50 156 4 50 156 
4 50 156 4 50 156 4 50 156 4 50 156 4 50 156 4 50 156 4 50 156 4 50 156 
4 50 156 4 50 156 4 50 156 4 50 156 4 50 156 4 50 156 4 50 156 4 50 156 
4 50 156 4 50 156 4 50 156 4 50 156 4 50 156 4 50 156 4 50 156 4 50 156 
4 50 156 4 50 156 4 50 156 4 50 156 4 50 156 4 50 156 4 50 156 4 50 156 
4 50 156 4 50 156 4 50 156 4 50 156 4 50 156 4 50 156 4 50 156 4 50 156 
4 50 156 4 50 156 4 50 156 4 50 156 4 50 156 4 50 156 4 50 156 4 50 156 
4 50 156 4 50 156 4 50 156 4 50 156 4 50 156 4 50 156 4 50 156 4 50 156 
4 50 156 4 50 156 4 50 156 4 50 156 4 50 156 4 50 156 4 50 156 4 50 156 
4 50 156 4 50 156 4 50 156 4 50 156 4 50 156 4 50 156 4 50 156 4 50 156 
4 50 156 4 50 156 4 50 156 4 50 156 4 50 156 4 50 156 4 50 156 4 50 156 
4 50 156 4 50 156 4 50 156 4 50 156 4 50 156 4 50 156 4 50 156 4 50 156 
4 50 156 4 50 156 4 50 156 4 50 156 4 50 156 4 50 156 4 50 156 4 50 156 
4 50 156 4 50 156 4 50 156 4 50 156 4 50 156 4 50 156 4 50 156 4 50 156 
4 50 156 4 50 156 4 50 156 4 50 156 4 50 156 4 50 156 4 50 156 4 50 156 
4 50 156 4 50 156 4 50 156 4 50 156 4 50 156 4 50 156 4 50 156 4 50 156 4 50 156 4 50 156 4 50 156 4 50 156 4 50 156 252 254 252 252 254 252 252 254 252 
252 254 252 252 254 252 252 254 252 252 254 252 252 254 252 252 254 252 252 254 252 204 206 204 
180 174 180 52 50 52 4 2 4 4 2 4 4 2 4 4 2 4 4 2 4 4 2 4 
4 2 4 4 2 4 4 2 4 4 2 4 4 2 4 4 2 4 4 2 4 4 2 4 
4 2 4 4 2 4 4 2 4 4 2 4 4 2 4 4 2 4 4 2 4 4 2 4 
4 2 4 4 2 4 4 2 4 4 2 4 4 2 4 4 2 4 4 2 4 4 2 4 
4 2 4 4 2 4 52 50 52 76 70 68 92 90 92 156 154 156 180 174 180 204 206 204 
236 234 236 252 254 252 252 254 252 252 254 252 252 254 252 252 254 252 252 254 252 252 254 252 
252 254 252 252 254 252 252 254 252 252 254 252 252 254 252 252 254 252 252 254 252 252 254 252 
252 254 252 4 50 156 4 50 156 4 50 156 4 50 156 4 50 156 4 50 156 4 50 156 
4 50 156 4 50 156 4 50 156 4 50 156 4 50 156 4 50 156 4 50 156 4 50 156 
4 50 156 4 50 156 4 50 156 4 50 156 4 50 156 4 50 156 4 50 156 4 50 156 
4 50 156 4 50 156 4 50 156 4 50 156 4 50 156 4 50 156 4 50 156 4 50 156 
4 50 156 4 50 156 4 50 156 4 50 156 4 50 156 4 50 156 4 50 156 4 50 156 
4 50 156 4 50 156 4 50 156 4 50 156 4 50 156 4 50 156 4 50 156 4 50 156 
4 50 156 4 50 156 4 50 156 4 50 156 4 50 156 4 50 156 4 50 156 4 50 156 
4 50 156 4 50 156 4 50 156 4 50 156 4 50 156 4 50 156 4 50 156 4 50 156 
4 50 156 4 50 156 4 50 156 4 50 156 4 50 156 4 50 156 4 50 156 4 50 156 
4 50 156 4 50 156 4 50 156 4 50 156 4 50 156 4 50 156 4 50 156 4 50 156 
4 50 156 4 50 156 4 50 156 4 50 156 4 50 156 4 50 156 4 50 156 4 50 156 
4 50 156 4 50 156 4 50 156 4 50 156 4 50 156 4 50 156 4 50 156 4 50 156 
4 50 156 4 50 156 4 50 156 4 50 156 4 50 156 4 50 156 4 50 156 4 50 156 
4 50 156 4 50 156 4 50 156 4 50 156 4 50 156 4 50 156 4 50 156 4 50 156 
4 50 156 4 50 156 4 50 156 4 50 156 4 50 156 4 50 156 4 50 156 4 50 156 
4 50 156 4 50 156 4 50 156 4 50 156 4 50 156 4 50 156 4 50 156 4 50 156 
4 50 156 4 50 156 4 50 156 4 50 156 4 50 156 4 50 156 4 50 156 4 50 156 
4 50 156 4 50 156 4 50 156 4 50 156 4 50 156 4 50 156 4 50 156 4 50 156 
4 50 156 4 50 156 4 50 156 4 50 156 4 50 156 4 50 156 4 50 156 4 50 156 
4 50 156 4 50 156 4 50 156 4 50 156 4 50 156 4 50 156 4 50 156 4 50 156 
4 50 156 4 50 156 4 50 156 4 50 156 4 50 156 4 50 156 4 50 156 4 50 156 4 50 156 4 50 156 4 50 156 4 50 156 4 50 156 252 254 252 252 254 252 252 254 252 
252 254 252 252 254 252 252 254 252 252 254 252 252 254 252 252 254 252 252 254 252 252 254 252 
252 254 252 204 206 204 76 70 68 4 2 4 4 2 4 4 2 4 4 2 4 4 2 4 
4 2 4 100 102 100 252 254 252 252 254 252 252 254 252 252 254 252 252 254 252 252 254 252 
252 254 252 252 254 252 236 234 236 236 234 236 236 234 236 236 234 236 252 254 252 252 254 252 
252 254 252 252 254 252 252 254 252 252 254 252 252 254 252 252 254 252 252 254 252 252 254 252 
252 254 252 252 254 252 236 234 236 252 254 252 252 254 252 252 254 252 252 254 252 252 254 252 
252 254 252 252 254 252 252 254 252 252 254 252 252 254 252 252 254 252 252 254 252 252 254 252 
252 254 252 252 254 252 252 254 252 252 254 252 252 254 252 252 254 252 252 254 252 252 254 252 
4 50 156 4 50 156 4 50 156 4 50 156 4 50 156 4 50 156 4 50 156 4 50 156 
4 50 156 4 50 156 4 50 156 4 50 156 4 50 156 4 50 156 4 50 156 4 50 156 
4 50 156 4 50 156 4 50 156 4 50 156 4 50 156 4 50 156 4 50 156 4 50 156 
4 50 156 4 50 156 4 50 156 4 50 156 4 50 156 4 50 156 4 50 156 4 50 156 
4 50 156 4 50 156 4 50 156 4 50 156 4 50 156 4 50 156 4 50 156 4 50 156 
4 50 156 4 50 156 4 50 156 4 50 156 4 50 156 4 50 156 4 50 156 4 50 156 
4 50 156 4 50 156 4 50 156 4 50 156 4 50 156 4 50 156 4 50 156 4 50 156 
4 50 156 4 50 156 4 50 156 4 50 156 4 50 156 4 50 156 4 50 156 4 50 156 
4 50 156 4 50 156 4 50 156 4 50 156 4 50 156 4 50 156 4 50 156 4 50 156 
4 50 156 4 50 156 4 50 156 4 50 156 4 50 156 4 50 156 4 50 156 4 50 156 
4 50 156 4 50 156 4 50 156 4 50 156 4 50 156 4 50 156 4 50 156 4 50 156 
4 50 156 4 50 156 4 50 156 4 50 156 4 50 156 4 50 156 4 50 156 4 50 156 
4 50 156 4 50 156 4 50 156 4 50 156 4 50 156 4 50 156 4 50 156 4 50 156 
4 50 156 4 50 156 4 50 156 4 50 156 4 50 156 4 50 156 4 50 156 4 50 156 
4 50 156 4 50 156 4 50 156 4 50 156 4 50 156 4 50 156 4 50 156 4 50 156 
4 50 156 4 50 156 4 50 156 4 50 156 4 50 156 4 50 156 4 50 156 4 50 156 
4 50 156 4 50 156 4 50 156 4 50 156 4 50 156 4 50 156 4 50 156 4 50 156 
4 50 156 4 50 156 4 50 156 4 50 156 4 50 156 4 50 156 4 50 156 4 50 156 
4 50 156 4 50 156 4 50 156 4 50 156 4 50 156 4 50 156 4 50 156 4 50 156 
4 50 156 4 50 156 4 50 156 4 50 156 4 50 156 4 50 156 4 50 156 4 50 156 
4 50 156 4 50 156 4 50 156 4 50 156 4 50 156 4 50 156 4 50 156 4 50 156 4 50 156 4 50 156 4 50 156 4 50 156 4 50 156 4 50 156 252 254 252 252 254 252 
252 254 252 252 254 252 252 254 252 252 254 252 252 254 252 252 254 252 252 254 252 252 254 252 
236 234 236 252 254 252 252 254 252 180 174 180 52 50 52 4 2 4 4 2 4 4 2 4 
4 2 4 4 2 4 236 234 236 252 254 252 252 254 252 252 254 252 252 254 252 252 254 252 
252 254 252 252 254 252 252 254 252 252 254 252 252 254 252 252 254 252 252 254 252 252 254 252 
252 254 252 252 254 252 252 254 252 252 254 252 252 254 252 252 254 252 252 254 252 252 254 252 
252 254 252 252 254 252 252 254 252 252 254 252 252 254 252 252 254 252 252 254 252 252 254 252 
252 254 252 252 254 252 252 254 252 252 254 252 252 254 252 252 254 252 252 254 252 252 254 252 
252 254 252 252 254 252 252 254 252 252 254 252 252 254 252 252 254 252 252 254 252 236 234 236 
4 50 156 4 50 156 4 50 156 4 50 156 4 50 156 4 50 156 4 50 156 4 50 156 
4 50 156 4 50 156 4 50 156 4 50 156 4 50 156 4 50 156 4 50 156 4 50 156 
4 50 156 4 50 156 4 50 156 4 50 156 4 50 156 4 50 156 4 50 156 4 50 156 
4 50 156 4 50 156 4 50 156 4 50 156 4 50 156 4 50 156 4 50 156 4 50 156 
4 50 156 4 50 156 4 50 156 4 50 156 4 50 156 4 50 156 4 50 156 4 50 156 
4 50 156 4 50 156 4 50 156 4 50 156 4 50 156 4 50 156 4 50 156 4 50 156 
4 50 156 4 50 156 4 50 156 4 50 156 4 50 156 4 50 156 4 50 156 4 50 156 
4 50 156 4 50 156 4 50 156 4 50 156 4 50 156 4 50 156 4 50 156 4 50 156 
4 50 156 4 50 156 4 50 156 4 50 156 4 50 156 4 50 156 4 50 156 4 50 156 
4 50 156 4 50 156 4 50 156 4 50 156 4 50 156 4 50 156 4 50 156 4 50 156 
4 50 156 4 50 156 4 50 156 4 50 156 4 50 156 4 50 156 4 50 156 4 50 156 
4 50 156 4 50 156 4 50 156 4 50 156 4 50 156 4 50 156 4 50 156 4 50 156 
4 50 156 4 50 156 4 50 156 4 50 156 4 50 156 4 50 156 4 50 156 4 50 156 
4 50 156 4 50 156 4 50 156 4 50 156 4 50 156 4 50 156 4 50 156 4 50 156 
4 50 156 4 50 156 4 50 156 4 50 156 4 50 156 4 50 156 4 50 156 4 50 156 
4 50 156 4 50 156 4 50 156 4 50 156 4 50 156 4 50 156 4 50 156 4 50 156 
4 50 156 4 50 156 4 50 156 4 50 156 4 50 156 4 50 156 4 50 156 4 50 156 
4 50 156 4 50 156 4 50 156 4 50 156 4 50 156 4 50 156 4 50 156 4 50 156 
4 50 156 4 50 156 4 50 156 4 50 156 4 50 156 4 50 156 4 50 156 4 50 156 
4 50 156 4 50 156 4 50 156 4 50 156 4 50 156 4 50 156 4 50 156 4 50 156 
4 50 156 4 50 156 4 50 156 4 50 156 4 50 156 4 50 156 4 50 156 4 50 156 4 50 156 4 50 156 4 50 156 4 50 156 4 50 156 4 50 156 4 50 156 252 254 252 
252 254 252 252 254 252 252 254 252 252 254 252 252 254 252 252 254 252 252 254 252 252 254 252 
252 254 252 252 254 252 252 254 252 252 254 252 252 254 252 236 234 236 92 90 92 4 2 4 
4 2 4 156 154 156 252 254 252 252 254 252 252 254 252 252 254 252 252 254 252 252 254 252 
252 254 252 252 254 252 252 254 252 252 254 252 252 254 252 252 254 252 252 254 252 252 254 252 
252 254 252 252 254 252 252 254 252 252 254 252 252 254 252 252 254 252 252 254 252 252 254 252 
252 254 252 252 254 252 252 254 252 252 254 252 252 254 252 252 254 252 252 254 252 252 254 252 
252 254 252 252 254 252 252 254 252 252 254 252 252 254 252 252 254 252 252 254 252 252 254 252 
252 254 252 252 254 252 252 254 252 252 254 252 252 254 252 252 254 252 252 254 252 4 50 156 
4 50 156 4 50 156 4 50 156 4 50 156 4 50 156 4 50 156 4 50 156 4 50 156 
4 50 156 4 50 156 4 50 156 4 50 156 4 50 156 4 50 156 4 50 156 4 50 156 
4 50 156 4 50 156 4 50 156 4 50 156 4 50 156 4 50 156 4 50 156 4 50 156 
4 50 156 4 50 156 4 50 156 4 50 156 4 50 156 4 50 156 4 50 156 4 50 156 
4 50 156 4 50 156 4 50 156 4 50 156 4 50 156 4 50 156 4 50 156 4 50 156 
4 50 156 4 50 156 4 50 156 4 50 156 4 50 156 4 50 156 4 50 156 4 50 156 
4 50 156 4 50 156 4 50 156 4 50 156 4 50 156 4 50 156 4 50 156 4 50 156 
4 50 156 4 50 156 4 50 156 4 50 156 4 50 156 4 50 156 4 50 156 4 50 156 
4 50 156 4 50 156 4 50 156 4 50 156 4 50 156 4 50 156 4 50 156 4 50 156 
4 50 156 4 50 156 4 50 156 4 50 156 4 50 156 4 50 156 4 50 156 4 50 156 
4 50 156 4 50 156 4 50 156 4 50 156 4 50 156 4 50 156 4 50 156 4 50 156 
4 50 156 4 50 156 4 50 156 4 50 156 4 50 156 4 50 156 4 50 156 4 50 156 
4 50 156 4 50 156 4 50 156 4 50 156 4 50 156 4 50 156 4 50 156 4 50 156 
4 50 156 4 50 156 4 50 156 4 50 156 4 50 156 4 50 156 4 50 156 4 50 156 
4 50 156 4 50 156 4 50 156 4 50 156 4 50 156 4 50 156 4 50 156 4 50 156 
4 50 156 4 50 156 4 50 156 4 50 156 4 50 156 4 50 156 4 50 156 4 50 156 
4 50 156 4 50 156 4 50 156 4 50 156 4 50 156 4 50 156 4 50 156 4 50 156 
4 50 156 4 50 156 4 50 156 4 50 156 4 50 156 4 50 156 4 50 156 4 50 156 
4 50 156 4 50 156 4 50 156 4 50 156 4 50 156 4 50 156 4 50 156 4 50 156 
4 50 156 4 50 156 4 50 156 4 50 156 4 50 156 4 50 156 4 50 156 4 50 156 
4 50 156 4 50 156 4 50 156 4 50 156 4 50 156 4 50 156 4 50 156 4 50 156 4 50 156 4 50 156 4 50 156 4 50 156 4 50 156 4 50 156 4 50 156 4 50 156 
252 254 252 252 254 252 252 254 252 252 254 252 252 254 252 252 254 252 252 254 252 252 254 252 
252 254 252 252 254 252 252 254 252 252 254 252 252 254 252 252 254 252 252 254 252 252 254 252 
252 254 252 252 254 252 252 254 252 252 254 252 252 254 252 252 254 252 252 254 252 252 254 252 
252 254 252 252 254 252 252 254 252 252 254 252 252 254 252 252 254 252 252 254 252 252 254 252 
252 254 252 252 254 252 252 254 252 252 254 252 252 254 252 252 254 252 252 254 252 252 254 252 
252 254 252 252 254 252 252 254 252 252 254 252 252 254 252 252 254 252 252 254 252 252 254 252 
252 254 252 252 254 252 252 254 252 252 254 252 252 254 252 252 254 252 252 254 252 252 254 252 
252 254 252 252 254 252 252 254 252 252 254 252 252 254 252 252 254 252 4 50 156 4 50 156 
4 50 156 4 50 156 4 50 156 4 50 156 4 50 156 4 50 156 4 50 156 4 50 156 
4 50 156 4 50 156 4 50 156 4 50 156 4 50 156 4 50 156 4 50 156 4 50 156 
4 50 156 4 50 156 4 50 156 4 50 156 4 50 156 4 50 156 4 50 156 4 50 156 
4 50 156 4 50 156 4 50 156 4 50 156 4 50 156 4 50 156 4 50 156 4 50 156 
4 50 156 4 50 156 4 50 156 4 50 156 4 50 156 4 50 156 4 50 156 4 50 156 
4 50 156 4 50 156 4 50 156 4 50 156 4 50 156 4 50 156 4 50 156 4 50 156 
4 50 156 4 50 156 4 50 156 4 50 156 4 50 156 4 50 156 4 50 156 4 50 156 
4 50 156 4 50 156 4 50 156 4 50 156 4 50 156 4 50 156 4 50 156 4 50 156 
4 50 156 4 50 156 4 50 156 4 50 156 4 50 156 4 50 156 4 50 156 4 50 156 
4 50 156 4 50 156 4 50 156 4 50 156 4 50 156 4 50 156 4 50 156 4 50 156 
4 50 156 4 50 156 4 50 156 4 50 156 4 50 156 4 50 156 4 50 156 4 50 156 
4 50 156 4 50 156 4 50 156 4 50 156 4 50 156 4 50 156 4 50 156 4 50 156 
4 50 156 4 50 156 4 50 156 4 50 156 4 50 156 4 50 156 4 50 156 4 50 156 
4 50 156 4 50 156 4 50 156 4 50 156 4 50 156 4 50 156 4 50 156 4 50 156 
4 50 156 4 50 156 4 50 156 4 50 156 4 50 156 4 50 156 4 50 156 4 50 156 
4 50 156 4 50 156 4 50 156 4 50 156 4 50 156 4 50 156 4 50 156 4 50 156 
4 50 156 4 50 156 4 50 156 4 50 156 4 50 156 4 50 156 4 50 156 4 50 156 
4 50 156 4 50 156 4 50 156 4 50 156 4 50 156 4 50 156 4 50 156 4 50 156 
4 50 156 4 50 156 4 50 156 4 50 156 4 50 156 4 50 156 4 50 156 4 50 156 
4 50 156 4 50 156 4 50 156 4 50 156 4 50 156 4 50 156 4 50 156 4 50 156 
4 50 156 4 50 156 4 50 156 4 50 156 4 50 156 4 50 156 4 50 156 4 50 156 4 50 156 4 50 156 4 50 156 4 50 156 4 50 156 4 50 156 4 50 156 4 50 156 
236 234 236 252 254 252 252 254 252 252 254 252 252 254 252 252 254 252 252 254 252 252 254 252 
252 254 252 252 254 252 252 254 252 252 254 252 252 254 252 252 254 252 252 254 252 252 254 252 
252 254 252 252 254 252 252 254 252 252 254 252 252 254 252 252 254 252 252 254 252 252 254 252 
252 254 252 252 254 252 252 254 252 252 254 252 252 254 252 252 254 252 252 254 252 252 254 252 
252 254 252 252 254 252 252 254 252 252 254 252 252 254 252 252 254 252 252 254 252 252 254 252 
252 254 252 252 254 252 252 254 252 252 254 252 252 254 252 252 254 252 252 254 252 252 254 252 
252 254 252 252 254 252 252 254 252 252 254 252 252 254 252 252 254 252 252 254 252 252 254 252 
252 254 252 252 254 252 252 254 252 252 254 252 252 254 252 4 50 156 4 50 156 4 50 156 
4 50 156 4 50 156 4 50 156 4 50 156 4 50 156 4 50 156 4 50 156 4 50 156 
4 50 156 4 50 156 4 50 156 4 50 156 4 50 156 4 50 156 4 50 156 4 50 156 
4 50 156 4 50 156 4 50 156 4 50 156 4 50 156 4 50 156 4 50 156 4 50 156 
4 50 156 4 50 156 4 50 156 4 50 156 4 50 156 4 50 156 4 50 156 4 50 156 
4 50 156 4 50 156 4 50 156 4 50 156 4 50 156 4 50 156 4 50 156 4 50 156 
4 50 156 4 50 156 4 50 156 4 50 156 4 50 156 4 50 156 4 50 156 4 50 156 
4 50 156 4 50 156 4 50 156 4 50 156 4 50 156 4 50 156 4 50 156 4 50 156 
4 50 156 4 50 156 4 50 156 4 50 156 4 50 156 4 50 156 4 50 156 4 50 156 
4 50 156 4 50 156 4 50 156 4 50 156 4 50 156 4 50 156 4 50 156 4 50 156 
4 50 156 4 50 156 4 50 156 4 50 156 4 50 156 4 50 156 4 50 156 4 50 156 
4 50 156 4 50 156 4 50 156 4 50 156 4 50 156 4 50 156 4 50 156 4 50 156 
4 50 156 4 50 156 4 50 156 4 50 156 4 50 156 4 50 156 4 50 156 4 50 156 
4 50 156 4 50 156 4 50 156 4 50 156 4 50 156 4 50 156 4 50 156 4 50 156 
4 50 156 4 50 156 4 50 156 4 50 156 4 50 156 4 50 156 4 50 156 4 50 156 
4 50 156 4 50 156 4 50 156 4 50 156 4 50 156 4 50 156 4 50 156 4 50 156 
4 50 156 4 50 156 4 50 156 4 50 156 4 50 156 4 50 156 4 50 156 4 50 156 
4 50 156 4 50 156 4 50 156 4 50 156 4 50 156 4 50 156 4 50 156 4 50 156 
4 50 156 4 50 156 4 50 156 4 50 156 4 50 156 4 50 156 4 50 156 4 50 156 
4 50 156 4 50 156 4 50 156 4 50 156 4 50 156 4 50 156 4 50 156 4 50 156 
4 50 156 4 50 156 4 50 156 4 50 156 4 50 156 4 50 156 4 50 156 4 50 156 
4 50 156 4 50 156 4 50 156 4 50 156 4 50 156 4 50 156 4 50 156 4 50 156 4 50 156 4 50 156 4 50 156 4 50 156 4 50 156 4 50 156 4 50 156 4 50 156 
4 50 156 236 234 236 252 254 252 252 254 252 252 254 252 252 254 252 252 254 252 252 254 252 
252 254 252 252 254 252 252 254 252 252 254 252 252 254 252 252 254 252 252 254 252 252 254 252 
252 254 252 252 254 252 252 254 252 252 254 252 236 234 236 252 254 252 252 254 252 252 254 252 
252 254 252 252 254 252 252 254 252 252 254 252 252 254 252 252 254 252 252 254 252 252 254 252 
252 254 252 252 254 252 252 254 252 252 254 252 252 254 252 252 254 252 252 254 252 252 254 252 
252 254 252 252 254 252 252 254 252 252 254 252 252 254 252 252 254 252 252 254 252 252 254 252 
252 254 252 252 254 252 252 254 252 252 254 252 252 254 252 252 254 252 252 254 252 252 254 252 
252 254 252 252 254 252 252 254 252 252 254 252 4 50 156 4 50 156 4 50 156 4 50 156 
4 50 156 4 50 156 4 50 156 4 50 156 4 50 156 4 50 156 4 50 156 4 50 156 
4 50 156 4 50 156 4 50 156 4 50 156 4 50 156 4 50 156 4 50 156 4 50 156 
4 50 156 4 50 156 4 50 156 4 50 156 4 50 156 4 50 156 4 50 156 4 50 156 
4 50 156 4 50 156 4 50 156 4 50 156 4 50 156 4 50 156 4 50 156 4 50 156 
4 50 156 4 50 156 4 50 156 4 50 156 4 50 156 4 50 156 4 50 156 4 50 156 
4 50 156 4 50 156 4 50 156 4 50 156 4 50 156 4 50 156 4 50 156 4 50 156 
4 50 156 4 50 156 4 50 156 4 50 156 4 50 156 4 50 156 4 50 156 4 50 156 
4 50 156 4 50 156 4 50 156 4 50 156 4 50 156 4 50 156 4 50 156 4 50 156 
4 50 156 4 50 156 4 50 156 4 50 156 4 50 156 4 50 156 4 50 156 4 50 156 
4 50 156 4 50 156 4 50 156 4 50 156 4 50 156 4 50 156 4 50 156 4 50 156 
4 50 156 4 50 156 4 50 156 4 50 156 4 50 156 4 50 156 4 50 156 4 50 156 
4 50 156 4 50 156 4 50 156 4 50 156 4 50 156 4 50 156 4 50 156 4 50 156 
4 50 156 4 50 156 4 50 156 4 50 156 4 50 156 4 50 156 4 50 156 4 50 156 
4 50 156 4 50 156 4 50 156 4 50 156 4 50 156 4 50 156 4 50 156 4 50 156 
4 50 156 4 50 156 4 50 156 4 50 156 4 50 156 4 50 156 4 50 156 4 50 156 
4 50 156 4 50 156 4 50 156 4 50 156 4 50 156 4 50 156 4 50 156 4 50 156 
4 50 156 4 50 156 4 50 156 4 50 156 4 50 156 4 50 156 4 50 156 4 50 156 
4 50 156 4 50 156 4 50 156 4 50 156 4 50 156 4 50 156 4 50 156 4 50 156 
4 50 156 4 50 156 4 50 156 4 50 156 4 50 156 4 50 156 4 50 156 4 50 156 
4 50 156 4 50 156 4 50 156 4 50 156 4 50 156 4 50 156 4 50 156 4 50 156 
4 50 156 4 50 156 4 50 156 4 50 156 4 50 156 4 50 156 4 50 156 4 50 156 4 50 156 4 50 156 4 50 156 4 50 156 4 50 156 4 50 156 4 50 156 4 50 156 
4 50 156 4 50 156 236 234 236 252 254 252 252 254 252 252 254 252 252 254 252 252 254 252 
252 254 252 252 254 252 252 254 252 252 254 252 252 254 252 252 254 252 252 254 252 252 254 252 
252 254 252 252 254 252 252 254 252 252 254 252 252 254 252 252 254 252 252 254 252 252 254 252 
252 254 252 252 254 252 252 254 252 252 254 252 252 254 252 252 254 252 252 254 252 252 254 252 
252 254 252 252 254 252 252 254 252 252 254 252 252 254 252 252 254 252 252 254 252 252 254 252 
252 254 252 252 254 252 252 254 252 252 254 252 252 254 252 252 254 252 252 254 252 252 254 252 
252 254 252 252 254 252 252 254 252 252 254 252 252 254 252 252 254 252 252 254 252 252 254 252 
252 254 252 252 254 252 252 254 252 4 50 156 4 50 156 4 50 156 4 50 156 4 50 156 
4 50 156 4 50 156 4 50 156 4 50 156 4 50 156 4 50 156 4 50 156 4 50 156 
4 50 156 4 50 156 4 50 156 4 50 156 4 50 156 4 50 156 4 50 156 4 50 156 
4 50 156 4 50 156 4 50 156 4 50 156 4 50 156 4 50 156 4 50 156 4 50 156 
4 50 156 4 50 156 4 50 156 4 50 156 4 50 156 4 50 156 4 50 156 4 50 156 
4 50 156 4 50 156 4 50 156 4 50 156 4 50 156 4 50 156 4 50 156 4 50 156 
4 50 156 4 50 156 4 50 156 4 50 156 4 50 156 4 50 156 4 50 156 4 50 156 
4 50 156 4 50 156 4 50 156 4 50 156 4 50 156 4 50 156 4 50 156 4 50 156 
4 50 156 4 50 156 4 50 156 4 50 156 4 50 156 4 50 156 4 50 156 4 50 156 
4 50 156 4 50 156 4 50 156 4 50 156 4 50 156 4 50 156 4 50 156 4 50 156 
4 50 156 4 50 156 4 50 156 4 50 156 4 50 156 4 50 156 4 50 156 4 50 156 
4 50 156 4 50 156 4 50 156 4 50 156 4 50 156 4 50 156 4 50 156 4 50 156 
4 50 156 4 50 156 4 50 156 4 50 156 4 50 156 4 50 156 4 50 156 4 50 156 
4 50 156 4 50 156 4 50 156 4 50 156 4 50 156 4 50 156 4 50 156 4 50 156 
4 50 156 4 50 156 4 50 156 4 50 156 4 50 156 4 50 156 4 50 156 4 50 156 
4 50 156 4 50 156 4 50 156 4 50 156 4 50 156 4 50 156 4 50 156 4 50 156 
4 50 156 4 50 156 4 50 156 4 50 156 4 50 156 4 50 156 4 50 156 4 50 156 
4 50 156 4 50 156 4 50 156 4 50 156 4 50 156 4 50 156 4 50 156 4 50 156 
4 50 156 4 50 156 4 50 156 4 50 156 4 50 156 4 50 156 4 50 156 4 50 156 
4 50 156 4 50 156 4 50 156 4 50 156 4 50 156 4 50 156 4 50 156 4 50 156 
4 50 156 4 50 156 4 50 156 4 50 156 4 50 156 4 50 156 4 50 156 4 50 156 
4 50 156 4 50 156 4 50 156 4 50 156 4 50 156 4 50 156 4 50 156 4 50 156 4 50 156 4 50 156 4 50 156 4 50 156 4 50 156 4 50 156 4 50 156 4 50 156 
4 50 156 4 50 156 4 50 156 236 234 236 252 254 252 252 254 252 252 254 252 252 254 252 
252 254 252 252 254 252 252 254 252 252 254 252 252 254 252 252 254 252 252 254 252 252 254 252 
252 254 252 252 254 252 252 254 252 252 254 252 252 254 252 252 254 252 252 254 252 252 254 252 
252 254 252 252 254 252 252 254 252 252 254 252 252 254 252 252 254 252 252 254 252 252 254 252 
252 254 252 252 254 252 252 254 252 252 254 252 252 254 252 252 254 252 252 254 252 252 254 252 
252 254 252 252 254 252 252 254 252 252 254 252 252 254 252 252 254 252 252 254 252 252 254 252 
252 254 252 252 254 252 252 254 252 252 254 252 252 254 252 252 254 252 252 254 252 252 254 252 
252 254 252 252 254 252 4 50 156 4 50 156 4 50 156 4 50 156 4 50 156 4 50 156 
4 50 156 4 50 156 4 50 156 4 50 156 4 50 156 4 50 156 4 50 156 4 50 156 
4 50 156 4 50 156 4 50 156 4 50 156 4 50 156 4 50 156 4 50 156 4 50 156 
4 50 156 4 50 156 4 50 156 4 50 156 4 50 156 4 50 156 4 50 156 4 50 156 
4 50 156 4 50 156 4 50 156 4 50 156 4 50 156 4 50 156 4 50 156 4 50 156 
4 50 156 4 50 156 4 50 156 4 50 156 4 50 156 4 50 156 4 50 156 4 50 156 
4 50 156 4 50 156 4 50 156 4 50 156 4 50 156 4 50 156 4 50 156 4 50 156 
4 50 156 4 50 156 4 50 156 4 50 156 4 50 156 4 50 156 4 50 156 4 50 156 
4 50 156 4 50 156 4 50 156 4 50 156 4 50 156 4 50 156 4 50 156 4 50 156 
4 50 156 4 50 156 4 50 156 4 50 156 4 50 156 4 50 156 4 50 156 4 50 156 
4 50 156 4 50 156 4 50 156 4 50 156 4 50 156 4 50 156 4 50 156 4 50 156 
4 50 156 4 50 156 4 50 156 4 50 156 4 50 156 4 50 156 4 50 156 4 50 156 
4 50 156 4 50 156 4 50 156 4 50 156 4 50 156 4 50 156 4 50 156 4 50 156 
4 50 156 4 50 156 4 50 156 4 50 156 4 50 156 4 50 156 4 50 156 4 50 156 
4 50 156 4 50 156 4 50 156 4 50 156 4 50 156 4 50 156 4 50 156 4 50 156 
4 50 156 4 50 156 4 50 156 4 50 156 4 50 156 4 50 156 4 50 156 4 50 156 
4 50 156 4 50 156 4 50 156 4 50 156 4 50 156 4 50 156 4 50 156 4 50 156 
4 50 156 4 50 156 4 50 156 4 50 156 4 50 156 4 50 156 4 50 156 4 50 156 
4 50 156 4 50 156 4 50 156 4 50 156 4 50 156 4 50 156 4 50 156 4 50 156 
4 50 156 4 50 156 4 50 156 4 50 156 4 50 156 4 50 156 4 50 156 4 50 156 
4 50 156 4 50 156 4 50 156 4 50 156 4 50 156 4 50 156 4 50 156 4 50 156 
4 50 156 4 50 156 4 50 156 4 50 156 4 50 156 4 50 156 4 50 156 4 50 156 4 50 156 4 50 156 4 50 156 4 50 156 4 50 156 4 50 156 4 50 156 4 50 156 
4 50 156 4 50 156 4 50 156 4 50 156 4 50 156 252 254 252 252 254 252 252 254 252 
252 254 252 252 254 252 252 254 252 252 254 252 252 254 252 252 254 252 252 254 252 252 254 252 
252 254 252 252 254 252 252 254 252 252 254 252 252 254 252 252 254 252 252 254 252 252 254 252 
252 254 252 252 254 252 252 254 252 252 254 252 252 254 252 252 254 252 252 254 252 252 254 252 
252 254 252 252 254 252 252 254 252 252 254 252 252 254 252 252 254 252 252 254 252 252 254 252 
252 254 252 252 254 252 252 254 252 252 254 252 252 254 252 252 254 252 252 254 252 252 254 252 
252 254 252 252 254 252 252 254 252 252 254 252 252 254 252 252 254 252 252 254 252 252 254 252 
252 254 252 4 50 156 4 50 156 4 50 156 4 50 156 4 50 156 4 50 156 4 50 156 
4 50 156 4 50 156 4 50 156 4 50 156 4 50 156 4 50 156 4 50 156 4 50 156 
4 50 156 4 50 156 4 50 156 4 50 156 4 50 156 4 50 156 4 50 156 4 50 156 
4 50 156 4 50 156 4 50 156 4 50 156 4 50 156 4 50 156 4 50 156 4 50 156 
4 50 156 4 50 156 4 50 156 4 50 156 4 50 156 4 50 156 4 50 156 4 50 156 
4 50 156 4 50 156 4 50 156 4 50 156 4 50 156 4 50 156 4 50 156 4 50 156 
4 50 156 4 50 156 4 50 156 4 50 156 4 50 156 4 50 156 4 50 156 4 50 156 
4 50 156 4 50 156 4 50 156 4 50 156 4 50 156 4 50 156 4 50 156 4 50 156 
4 50 156 4 50 156 4 50 156 4 50 156 4 50 156 4 50 156 4 50 156 4 50 156 
4 50 156 4 50 156 4 50 156 4 50 156 4 50 156 4 50 156 4 50 156 4 50 156 
4 50 156 4 50 156 4 50 156 4 50 156 4 50 156 4 50 156 4 50 156 4 50 156 
4 50 156 4 50 156 4 50 156 4 50 156 4 50 156 4 50 156 4 50 156 4 50 156 
4 50 156 4 50 156 4 50 156 4 50 156 4 50 156 4 50 156 4 50 156 4 50 156 
4 50 156 4 50 156 4 50 156 4 50 156 4 50 156 4 50 156 4 50 156 4 50 156 
4 50 156 4 50 156 4 50 156 4 50 156 4 50 156 4 50 156 4 50 156 4 50 156 
4 50 156 4 50 156 4 50 156 4 50 156 4 50 156 4 50 156 4 50 156 4 50 156 
4 50 156 4 50 156 4 50 156 4 50 156 4 50 156 4 50 156 4 50 156 4 50 156 
4 50 156 4 50 156 4 50 156 4 50 156 4 50 156 4 50 156 4 50 156 4 50 156 
4 50 156 4 50 156 4 50 156 4 50 156 4 50 156 4 50 156 4 50 156 4 50 156 
4 50 156 4 50 156 4 50 156 4 50 156 4 50 156 4 50 156 4 50 156 4 50 156 
4 50 156 4 50 156 4 50 156 4 50 156 4 50 156 4 50 156 4 50 156 4 50 156 
4 50 156 4 50 156 4 50 156 4 50 156 4 50 156 4 50 156 4 50 156 4 50 156 4 50 156 4 50 156 4 50 156 4 50 156 4 50 156 4 50 156 4 50 156 4 50 156 
4 50 156 4 50 156 4 50 156 4 50 156 4 50 156 4 50 156 252 254 252 252 254 252 
252 254 252 252 254 252 252 254 252 252 254 252 252 254 252 252 254 252 252 254 252 252 254 252 
252 254 252 252 254 252 252 254 252 252 254 252 252 254 252 252 254 252 252 254 252 252 254 252 
252 254 252 252 254 252 252 254 252 252 254 252 252 254 252 252 254 252 252 254 252 252 254 252 
252 254 252 252 254 252 252 254 252 252 254 252 252 254 252 252 254 252 252 254 252 252 254 252 
252 254 252 252 254 252 252 254 252 252 254 252 252 254 252 252 254 252 252 254 252 252 254 252 
252 254 252 252 254 252 252 254 252 252 254 252 252 254 252 252 254 252 252 254 252 236 234 236 
4 50 156 4 50 156 4 50 156 4 50 156 4 50 156 4 50 156 4 50 156 4 50 156 
4 50 156 4 50 156 4 50 156 4 50 156 4 50 156 4 50 156 4 50 156 4 50 156 
4 50 156 4 50 156 4 50 156 4 50 156 4 50 156 4 50 156 4 50 156 4 50 156 
4 50 156 4 50 156 4 50 156 4 50 156 4 50 156 4 50 156 4 50 156 4 50 156 
4 50 156 4 50 156 4 50 156 4 50 156 4 50 156 4 50 156 4 50 156 4 50 156 
4 50 156 4 50 156 4 50 156 4 50 156 4 50 156 4 50 156 4 50 156 4 50 156 
4 50 156 4 50 156 4 50 156 4 50 156 4 50 156 4 50 156 4 50 156 4 50 156 
4 50 156 4 50 156 4 50 156 4 50 156 4 50 156 4 50 156 4 50 156 4 50 156 
4 50 156 4 50 156 4 50 156 4 50 156 4 50 156 4 50 156 4 50 156 4 50 156 
4 50 156 4 50 156 4 50 156 4 50 156 4 50 156 4 50 156 4 50 156 4 50 156 
4 50 156 4 50 156 4 50 156 4 50 156 4 50 156 4 50 156 4 50 156 4 50 156 
4 50 156 4 50 156 4 50 156 4 50 156 4 50 156 4 50 156 4 50 156 4 50 156 
4 50 156 4 50 156 4 50 156 4 50 156 4 50 156 4 50 156 4 50 156 4 50 156 
4 50 156 4 50 156 4 50 156 4 50 156 4 50 156 4 50 156 4 50 156 4 50 156 
4 50 156 4 50 156 4 50 156 4 50 156 4 50 156 4 50 156 4 50 156 4 50 156 
4 50 156 4 50 156 4 50 156 4 50 156 4 50 156 4 50 156 4 50 156 4 50 156 
4 50 156 4 50 156 4 50 156 4 50 156 4 50 156 4 50 156 4 50 156 4 50 156 
4 50 156 4 50 156 4 50 156 4 50 156 4 50 156 4 50 156 4 50 156 4 50 156 
4 50 156 4 50 156 4 50 156 4 50 156 4 50 156 4 50 156 4 50 156 4 50 156 
4 50 156 4 50 156 4 50 156 4 50 156 4 50 156 4 50 156 4 50 156 4 50 156 
4 50 156 4 50 156 4 50 156 4 50 156 4 50 156 4 50 156 4 50 156 4 50 156 
4 50 156 4 50 156 4 50 156 4 50 156 4 50 156 4 50 156 4 50 156 4 50 156 4 50 156 4 50 156 4 50 156 4 50 156 4 50 156 4 50 156 4 50 156 4 50 156 
4 50 156 4 50 156 4 50 156 4 50 156 4 50 156 4 50 156 4 50 156 236 234 236 
252 254 252 252 254 252 252 254 252 252 254 252 252 254 252 252 254 252 252 254 252 252 254 252 
252 254 252 252 254 252 252 254 252 252 254 252 252 254 252 252 254 252 252 254 252 252 254 252 
252 254 252 252 254 252 252 254 252 252 254 252 252 254 252 252 254 252 252 254 252 252 254 252 
252 254 252 252 254 252 252 254 252 252 254 252 252 254 252 252 254 252 252 254 252 252 254 252 
252 254 252 252 254 252 252 254 252 252 254 252 252 254 252 252 254 252 252 254 252 252 254 252 
252 254 252 252 254 252 252 254 252 252 254 252 252 254 252 252 254 252 4 50 156 4 50 156 
4 50 156 4 50 156 4 50 156 4 50 156 4 50 156 4 50 156 4 50 156 4 50 156 
4 50 156 4 50 156 4 50 156 4 50 156 4 50 156 4 50 156 4 50 156 4 50 156 
4 50 156 4 50 156 4 50 156 4 50 156 4 50 156 4 50 156 4 50 156 4 50 156 
4 50 156 4 50 156 4 50 156 4 50 156 4 50 156 4 50 156 4 50 156 4 50 156 
4 50 156 4 50 156 4 50 156 4 50 156 4 50 156 4 50 156 4 50 156 4 50 156 
4 50 156 4 50 156 4 50 156 4 50 156 4 50 156 4 50 156 4 50 156 4 50 156 
4 50 156 4 50 156 4 50 156 4 50 156 4 50 156 4 50 156 4 50 156 4 50 156 
4 50 156 4 50 156 4 50 156 4 50 156 4 50 156 4 50 156 4 50 156 4 50 156 
4 50 156 4 50 156 4 50 156 4 50 156 4 50 156 4 50 156 4 50 156 4 50 156 
4 50 156 4 50 156 4 50 156 4 50 156 4 50 156 4 50 156 4 50 156 4 50 156 
4 50 156 4 50 156 4 50 156 4 50 156 4 50 156 4 50 156 4 50 156 4 50 156 
4 50 156 4 50 156 4 50 156 4 50 156 4 50 156 4 50 156 4 50 156 4 50 156 
4 50 156 4 50 156 4 50 156 4 50 156 4 50 156 4 50 156 4 50 156 4 50 156 
4 50 156 4 50 156 4 50 156 4 50 156 4 50 156 4 50 156 4 50 156 4 50 156 
4 50 156 4 50 156 4 50 156 4 50 156 4 50 156 4 50 156 4 50 156 4 50 156 
4 50 156 4 50 156 4 50 156 4 50 156 4 50 156 4 50 156 4 50 156 4 50 156 
4 50 156 4 50 156 4 50 156 4 50 156 4 50 156 4 50 156 4 50 156 4 50 156 
4 50 156 4 50 156 4 50 156 4 50 156 4 50 156 4 50 156 4 50 156 4 50 156 
4 50 156 4 50 156 4 50 156 4 50 156 4 50 156 4 50 156 4 50 156 4 50 156 
4 50 156 4 50 156 4 50 156 4 50 156 4 50 156 4 50 156 4 50 156 4 50 156 
4 50 156 4 50 156 4 50 156 4 50 156 4 50 156 4 50 156 4 50 156 4 50 156 
4 50 156 4 50 156 4 50 156 4 50 156 4 50 156 4 50 156 4 50 156 4 50 156 4 50 156 4 50 156 4 50 156 4 50 156 4 50 156 4 50 156 4 50 156 4 50 156 
4 50 156 4 50 156 4 50 156 4 50 156 4 50 156 4 50 156 4 50 156 4 50 156 
4 50 156 252 254 252 252 254 252 252 254 252 252 254 252 252 254 252 252 254 252 252 254 252 
252 254 252 252 254 252 252 254 252 252 254 252 252 254 252 252 254 252 252 254 252 252 254 252 
252 254 252 252 254 252 252 254 252 252 254 252 252 254 252 252 254 252 252 254 252 252 254 252 
252 254 252 252 254 252 252 254 252 252 254 252 252 254 252 252 254 252 252 254 252 252 254 252 
252 254 252 252 254 252 252 254 252 252 254 252 252 254 252 252 254 252 252 254 252 252 254 252 
252 254 252 252 254 252 252 254 252 252 254 252 236 234 236 4 50 156 4 50 156 4 50 156 
4 50 156 4 50 156 4 50 156 4 50 156 4 50 156 4 50 156 4 50 156 4 50 156 
4 50 156 4 50 156 4 50 156 4 50 156 4 50 156 4 50 156 4 50 156 4 50 156 
4 50 156 4 50 156 4 50 156 4 50 156 4 50 156 4 50 156 4 50 156 4 50 156 
4 50 156 4 50 156 4 50 156 4 50 156 4 50 156 4 50 156 4 50 156 4 50 156 
4 50 156 4 50 156 4 50 156 4 50 156 4 50 156 4 50 156 4 50 156 4 50 156 
4 50 156 4 50 156 4 50 156 4 50 156 4 50 156 4 50 156 4 50 156 4 50 156 
4 50 156 4 50 156 4 50 156 4 50 156 4 50 156 4 50 156 4 50 156 4 50 156 
4 50 156 4 50 156 4 50 156 4 50 156 4 50 156 4 50 156 4 50 156 4 50 156 
4 50 156 4 50 156 4 50 156 4 50 156 4 50 156 4 50 156 4 50 156 4 50 156 
4 50 156 4 50 156 4 50 156 4 50 156 4 50 156 4 50 156 4 50 156 4 50 156 
4 50 156 4 50 156 4 50 156 4 50 156 4 50 156 4 50 156 4 50 156 4 50 156 
4 50 156 4 50 156 4 50 156 4 50 156 4 50 156 4 50 156 4 50 156 4 50 156 
4 50 156 4 50 156 4 50 156 4 50 156 4 50 156 4 50 156 4 50 156 4 50 156 
4 50 156 4 50 156 4 50 156 4 50 156 4 50 156 4 50 156 4 50 156 4 50 156 
4 50 156 4 50 156 4 50 156 4 50 156 4 50 156 4 50 156 4 50 156 4 50 156 
4 50 156 4 50 156 4 50 156 4 50 156 4 50 156 4 50 156 4 50 156 4 50 156 
4 50 156 4 50 156 4 50 156 4 50 156 4 50 156 4 50 156 4 50 156 4 50 156 
4 50 156 4 50 156 4 50 156 4 50 156 4 50 156 4 50 156 4 50 156 4 50 156 
4 50 156 4 50 156 4 50 156 4 50 156 4 50 156 4 50 156 4 50 156 4 50 156 
4 50 156 4 50 156 4 50 156 4 50 156 4 50 156 4 50 156 4 50 156 4 50 156 
4 50 156 4 50 156 4 50 156 4 50 156 4 50 156 4 50 156 4 50 156 4 50 156 
4 50 156 4 50 156 4 50 156 4 50 156 4 50 156 4 50 156 4 50 156 4 50 156 4 50 156 4 50 156 4 50 156 4 50 156 4 50 156 4 50 156 4 50 156 4 50 156 
4 50 156 4 50 156 4 50 156 4 50 156 4 50 156 4 50 156 4 50 156 4 50 156 
4 50 156 4 50 156 236 234 236 252 254 252 252 254 252 252 254 252 252 254 252 252 254 252 
252 254 252 252 254 252 252 254 252 252 254 252 252 254 252 252 254 252 252 254 252 252 254 252 
252 254 252 252 254 252 252 254 252 252 254 252 252 254 252 252 254 252 252 254 252 252 254 252 
252 254 252 252 254 252 252 254 252 252 254 252 252 254 252 252 254 252 252 254 252 252 254 252 
252 254 252 252 254 252 252 254 252 252 254 252 252 254 252 252 254 252 252 254 252 252 254 252 
252 254 252 252 254 252 252 254 252 4 50 156 4 50 156 4 50 156 4 50 156 4 50 156 
4 50 156 4 50 156 4 50 156 4 50 156 4 50 156 4 50 156 4 50 156 4 50 156 
4 50 156 4 50 156 4 50 156 4 50 156 4 50 156 4 50 156 4 50 156 4 50 156 
4 50 156 4 50 156 4 50 156 4 50 156 4 50 156 4 50 156 4 50 156 4 50 156 
4 50 156 4 50 156 4 50 156 4 50 156 4 50 156 4 50 156 4 50 156 4 50 156 
4 50 156 4 50 156 4 50 156 4 50 156 4 50 156 4 50 156 4 50 156 4 50 156 
4 50 156 4 50 156 4 50 156 4 50 156 4 50 156 4 50 156 4 50 156 4 50 156 
4 50 156 4 50 156 4 50 156 4 50 156 4 50 156 4 50 156 4 50 156 4 50 156 
4 50 156 4 50 156 4 50 156 4 50 156 4 50 156 4 50 156 4 50 156 4 50 156 
4 50 156 4 50 156 4 50 156 4 50 156 4 50 156 4 50 156 4 50 156 4 50 156 
4 50 156 4 50 156 4 50 156 4 50 156 4 50 156 4 50 156 4 50 156 4 50 156 
4 50 156 4 50 156 4 50 156 4 50 156 4 50 156 4 50 156 4 50 156 4 50 156 
4 50 156 4 50 156 4 50 156 4 50 156 4 50 156 4 50 156 4 50 156 4 50 156 
4 50 156 4 50 156 4 50 156 4 50 156 4 50 156 4 50 156 4 50 156 4 50 156 
4 50 156 4 50 156 4 50 156 4 50 156 4 50 156 4 50 156 4 50 156 4 50 156 
4 50 156 4 50 156 4 50 156 4 50 156 4 50 156 4 50 156 4 50 156 4 50 156 
4 50 156 4 50 156 4 50 156 4 50 156 4 50 156 4 50 156 4 50 156 4 50 156 
4 50 156 4 50 156 4 50 156 4 50 156 4 50 156 4 50 156 4 50 156 4 50 156 
4 50 156 4 50 156 4 50 156 4 50 156 4 50 156 4 50 156 4 50 156 4 50 156 
4 50 156 4 50 156 4 50 156 4 50 156 4 50 156 4 50 156 4 50 156 4 50 156 
4 50 156 4 50 156 4 50 156 4 50 156 4 50 156 4 50 156 4 50 156 4 50 156 
4 50 156 4 50 156 4 50 156 4 50 156 4 50 156 4 50 156 4 50 156 4 50 156 
4 50 156 4 50 156 4 50 156 4 50 156 4 50 156 4 50 156 4 50 156 4 50 156 4 50 156 4 50 156 4 50 156 4 50 156 4 50 156 4 50 156 4 50 156 4 50 156 
4 50 156 4 50 156 4 50 156 4 50 156 4 50 156 4 50 156 4 50 156 4 50 156 
4 50 156 4 50 156 4 50 156 4 50 156 236 234 236 252 254 252 252 254 252 252 254 252 
252 254 252 252 254 252 252 254 252 252 254 252 252 254 252 252 254 252 252 254 252 252 254 252 
252 254 252 252 254 252 252 254 252 252 254 252 252 254 252 252 254 252 252 254 252 252 254 252 
252 254 252 252 254 252 252 254 252 252 254 252 252 254 252 252 254 252 252 254 252 252 254 252 
252 254 252 252 254 252 252 254 252 252 254 252 252 254 252 252 254 252 252 254 252 252 254 252 
252 254 252 4 50 156 4 50 156 4 50 156 4 50 156 4 50 156 4 50 156 4 50 156 
4 50 156 4 50 156 4 50 156 4 50 156 4 50 156 4 50 156 4 50 156 4 50 156 
4 50 156 4 50 156 4 50 156 4 50 156 4 50 156 4 50 156 4 50 156 4 50 156 
4 50 156 4 50 156 4 50 156 4 50 156 4 50 156 4 50 156 4 50 156 4 50 156 
4 50 156 4 50 156 4 50 156 4 50 156 4 50 156 4 50 156 4 50 156 4 50 156 
4 50 156 4 50 156 4 50 156 4 50 156 4 50 156 4 50 156 4 50 156 4 50 156 
4 50 156 4 50 156 4 50 156 4 50 156 4 50 156 4 50 156 4 50 156 4 50 156 
4 50 156 4 50 156 4 50 156 4 50 156 4 50 156 4 50 156 4 50 156 4 50 156 
4 50 156 4 50 156 4 50 156 4 50 156 4 50 156 4 50 156 4 50 156 4 50 156 
4 50 156 4 50 156 4 50 156 4 50 156 4 50 156 4 50 156 4 50 156 4 50 156 
4 50 156 4 50 156 4 50 156 4 50 156 4 50 156 4 50 156 4 50 156 4 50 156 
4 50 156 4 50 156 4 50 156 4 50 156 4 50 156 4 50 156 4 50 156 4 50 156 
4 50 156 4 50 156 4 50 156 4 50 156 4 50 156 4 50 156 4 50 156 4 50 156 
4 50 156 4 50 156 4 50 156 4 50 156 4 50 156 4 50 156 4 50 156 4 50 156 
4 50 156 4 50 156 4 50 156 4 50 156 4 50 156 4 50 156 4 50 156 4 50 156 
4 50 156 4 50 156 4 50 156 4 50 156 4 50 156 4 50 156 4 50 156 4 50 156 
4 50 156 4 50 156 4 50 156 4 50 156 4 50 156 4 50 156 4 50 156 4 50 156 
4 50 156 4 50 156 4 50 156 4 50 156 4 50 156 4 50 156 4 50 156 4 50 156 
4 50 156 4 50 156 4 50 156 4 50 156 4 50 156 4 50 156 4 50 156 4 50 156 
4 50 156 4 50 156 4 50 156 4 50 156 4 50 156 4 50 156 4 50 156 4 50 156 
4 50 156 4 50 156 4 50 156 4 50 156 4 50 156 4 50 156 4 50 156 4 50 156 
4 50 156 4 50 156 4 50 156 4 50 156 4 50 156 4 50 156 4 50 156 4 50 156 
4 50 156 4 50 156 4 50 156 4 50 156 4 50 156 4 50 156 4 50 156 4 50 156 4 50 156 4 50 156 4 50 156 4 50 156 4 50 156 4 50 156 4 50 156 4 50 156 
4 50 156 4 50 156 4 50 156 4 50 156 4 50 156 4 50 156 4 50 156 4 50 156 
4 50 156 4 50 156 4 50 156 4 50 156 4 50 156 4 50 156 4 50 156 252 254 252 
252 254 252 252 254 252 252 254 252 252 254 252 252 254 252 252 254 252 252 254 252 252 254 252 
252 254 252 252 254 252 252 254 252 252 254 252 252 254 252 252 254 252 252 254 252 252 254 252 
252 254 252 252 254 252 252 254 252 252 254 252 252 254 252 252 254 252 252 254 252 252 254 252 
252 254 252 252 254 252 252 254 252 252 254 252 252 254 252 252 254 252 236 234 236 4 50 156 
4 50 156 4 50 156 4 50 156 4 50 156 4 50 156 4 50 156 4 50 156 4 50 156 
4 50 156 4 50 156 4 50 156 4 50 156 4 50 156 4 50 156 4 50 156 4 50 156 
4 50 156 4 50 156 4 50 156 4 50 156 4 50 156 4 50 156 4 50 156 4 50 156 
4 50 156 4 50 156 4 50 156 4 50 156 4 50 156 4 50 156 4 50 156 4 50 156 
4 50 156 4 50 156 4 50 156 4 50 156 4 50 156 4 50 156 4 50 156 4 50 156 
4 50 156 4 50 156 4 50 156 4 50 156 4 50 156 4 50 156 4 50 156 4 50 156 
4 50 156 4 50 156 4 50 156 4 50 156 4 50 156 4 50 156 4 50 156 4 50 156 
4 50 156 4 50 156 4 50 156 4 50 156 4 50 156 4 50 156 4 50 156 4 50 156 
4 50 156 4 50 156 4 50 156 4 50 156 4 50 156 4 50 156 4 50 156 4 50 156 
4 50 156 4 50 156 4 50 156 4 50 156 4 50 156 4 50 156 4 50 156 4 50 156 
4 50 156 4 50 156 4 50 156 4 50 156 4 50 156 4 50 156 4 50 156 4 50 156 
4 50 156 4 50 156 4 50 156 4 50 156 4 50 156 4 50 156 4 50 156 4 50 156 
4 50 156 4 50 156 4 50 156 4 50 156 4 50 156 4 50 156 4 50 156 4 50 156 
4 50 156 4 50 156 4 50 156 4 50 156 4 50 156 4 50 156 4 50 156 4 50 156 
4 50 156 4 50 156 4 50 156 4 50 156 4 50 156 4 50 156 4 50 156 4 50 156 
4 50 156 4 50 156 4 50 156 4 50 156 4 50 156 4 50 156 4 50 156 4 50 156 
4 50 156 4 50 156 4 50 156 4 50 156 4 50 156 4 50 156 4 50 156 4 50 156 
4 50 156 4 50 156 4 50 156 4 50 156 4 50 156 4 50 156 4 50 156 4 50 156 
4 50 156 4 50 156 4 50 156 4 50 156 4 50 156 4 50 156 4 50 156 4 50 156 
4 50 156 4 50 156 4 50 156 4 50 156 4 50 156 4 50 156 4 50 156 4 50 156 
4 50 156 4 50 156 4 50 156 4 50 156 4 50 156 4 50 156 4 50 156 4 50 156 
4 50 156 4 50 156 4 50 156 4 50 156 4 50 156 4 50 156 4 50 156 4 50 156 
4 50 156 4 50 156 4 50 156 4 50 156 4 50 156 4 50 156 4 50 156 4 50 156 4 50 156 4 50 156 4 50 156 4 50 156 4 50 156 4 50 156 4 50 156 4 50 156 
4 50 156 4 50 156 4 50 156 4 50 156 4 50 156 4 50 156 4 50 156 4 50 156 
4 50 156 4 50 156 4 50 156 4 50 156 4 50 156 4 50 156 4 50 156 4 50 156 
4 50 156 236 234 236 252 254 252 252 254 252 252 254 252 252 254 252 252 254 252 252 254 252 
252 254 252 252 254 252 252 254 252 252 254 252 252 254 252 252 254 252 252 254 252 252 254 252 
252 254 252 252 254 252 252 254 252 252 254 252 252 254 252 252 254 252 252 254 252 252 254 252 
252 254 252 252 254 252 252 254 252 252 254 252 4 50 156 4 50 156 4 50 156 4 50 156 
4 50 156 4 50 156 4 50 156 4 50 156 4 50 156 4 50 156 4 50 156 4 50 156 
4 50 156 4 50 156 4 50 156 4 50 156 4 50 156 4 50 156 4 50 156 4 50 156 
4 50 156 4 50 156 4 50 156 4 50 156 4 50 156 4 50 156 4 50 156 4 50 156 
4 50 156 4 50 156 4 50 156 4 50 156 4 50 156 4 50 156 4 50 156 4 50 156 
4 50 156 4 50 156 4 50 156 4 50 156 4 50 156 4 50 156 4 50 156 4 50 156 
4 50 156 4 50 156 4 50 156 4 50 156 4 50 156 4 50 156 4 50 156 4 50 156 
4 50 156 4 50 156 4 50 156 4 50 156 4 50 156 4 50 156 4 50 156 4 50 156 
4 50 156 4 50 156 4 50 156 4 50 156 4 50 156 4 50 156 4 50 156 4 50 156 
4 50 156 4 50 156 4 50 156 4 50 156 4 50 156 4 50 156 4 50 156 4 50 156 
4 50 156 4 50 156 4 50 156 4 50 156 4 50 156 4 50 156 4 50 156 4 50 156 
4 50 156 4 50 156 4 50 156 4 50 156 4 50 156 4 50 156 4 50 156 4 50 156 
4 50 156 4 50 156 4 50 156 4 50 156 4 50 156 4 50 156 4 50 156 4 50 156 
4 50 156 4 50 156 4 50 156 4 50 156 4 50 156 4 50 156 4 50 156 4 50 156 
4 50 156 4 50 156 4 50 156 4 50 156 4 50 156 4 50 156 4 50 156 4 50 156 
4 50 156 4 50 156 4 50 156 4 50 156 4 50 156 4 50 156 4 50 156 4 50 156 
4 50 156 4 50 156 4 50 156 4 50 156 4 50 156 4 50 156 4 50 156 4 50 156 
4 50 156 4 50 156 4 50 156 4 50 156 4 50 156 4 50 156 4 50 156 4 50 156 
4 50 156 4 50 156 4 50 156 4 50 156 4 50 156 4 50 156 4 50 156 4 50 156 
4 50 156 4 50 156 4 50 156 4 50 156 4 50 156 4 50 156 4 50 156 4 50 156 
4 50 156 4 50 156 4 50 156 4 50 156 4 50 156 4 50 156 4 50 156 4 50 156 
4 50 156 4 50 156 4 50 156 4 50 156 4 50 156 4 50 156 4 50 156 4 50 156 
4 50 156 4 50 156 4 50 156 4 50 156 4 50 156 4 50 156 4 50 156 4 50 156 
4 50 156 4 50 156 4 50 156 4 50 156 4 50 156 4 50 156 4 50 156 4 50 156 4 50 156 4 50 156 4 50 156 4 50 156 4 50 156 4 50 156 4 50 156 4 50 156 
4 50 156 4 50 156 4 50 156 4 50 156 4 50 156 4 50 156 4 50 156 4 50 156 
4 50 156 4 50 156 4 50 156 4 50 156 4 50 156 4 50 156 4 50 156 4 50 156 
4 50 156 4 50 156 4 50 156 4 50 156 4 50 156 252 254 252 252 254 252 252 254 252 
252 254 252 252 254 252 252 254 252 252 254 252 252 254 252 252 254 252 252 254 252 252 254 252 
252 254 252 252 254 252 252 254 252 252 254 252 252 254 252 252 254 252 252 254 252 252 254 252 
236 234 236 4 50 156 4 50 156 4 50 156 4 50 156 4 50 156 4 50 156 4 50 156 
4 50 156 4 50 156 4 50 156 4 50 156 4 50 156 4 50 156 4 50 156 4 50 156 
4 50 156 4 50 156 4 50 156 4 50 156 4 50 156 4 50 156 4 50 156 4 50 156 
4 50 156 4 50 156 4 50 156 4 50 156 4 50 156 4 50 156 4 50 156 4 50 156 
4 50 156 4 50 156 4 50 156 4 50 156 4 50 156 4 50 156 4 50 156 4 50 156 
4 50 156 4 50 156 4 50 156 4 50 156 4 50 156 4 50 156 4 50 156 4 50 156 
4 50 156 4 50 156 4 50 156 4 50 156 4 50 156 4 50 156 4 50 156 4 50 156 
4 50 156 4 50 156 4 50 156 4 50 156 4 50 156 4 50 156 4 50 156 4 50 156 
4 50 156 4 50 156 4 50 156 4 50 156 4 50 156 4 50 156 4 50 156 4 50 156 
4 50 156 4 50 156 4 50 156 4 50 156 4 50 156 4 50 156 4 50 156 4 50 156 
4 50 156 4 50 156 4 50 156 4 50 156 4 50 156 4 50 156 4 50 156 4 50 156 
4 50 156 4 50 156 4 50 156 4 50 156 4 50 156 4 50 156 4 50 156 4 50 156 
4 50 156 4 50 156 4 50 156 4 50 156 4 50 156 4 50 156 4 50 156 4 50 156 
4 50 156 4 50 156 4 50 156 4 50 156 4 50 156 4 50 156 4 50 156 4 50 156 
4 50 156 4 50 156 4 50 156 4 50 156 4 50 156 4 50 156 4 50 156 4 50 156 
4 50 156 4 50 156 4 50 156 4 50 156 4 50 156 4 50 156 4 50 156 4 50 156 
4 50 156 4 50 156 4 50 156 4 50 156 4 50 156 4 50 156 4 50 156 4 50 156 
4 50 156 4 50 156 4 50 156 4 50 156 4 50 156 4 50 156 4 50 156 4 50 156 
4 50 156 4 50 156 4 50 156 4 50 156 4 50 156 4 50 156 4 50 156 4 50 156 
4 50 156 4 50 156 4 50 156 4 50 156 4 50 156 4 50 156 4 50 156 4 50 156 
4 50 156 4 50 156 4 50 156 4 50 156 4 50 156 4 50 156 4 50 156 4 50 156 
4 50 156 4 50 156 4 50 156 4 50 156 4 50 156 4 50 156 4 50 156 4 50 156 
4 50 156 4 50 156 4 50 156 4 50 156 4 50 156 4 50 156 4 50 156 4 50 156 
4 50 156 4 50 156 4 50 156 4 50 156 4 50 156 4 50 156 4 50 156 4 50 156 4 50 156 4 50 156 4 50 156 4 50 156 4 50 156 4 50 156 4 50 156 4 50 156 
4 50 156 4 50 156 4 50 156 4 50 156 4 50 156 4 50 156 4 50 156 4 50 156 
4 50 156 4 50 156 4 50 156 4 50 156 4 50 156 4 50 156 4 50 156 4 50 156 
4 50 156 4 50 156 4 50 156 4 50 156 4 50 156 4 50 156 4 50 156 4 50 156 
4 50 156 4 50 156 236 234 236 236 234 236 252 254 252 252 254 252 252 254 252 252 254 252 
252 254 252 236 234 236 236 234 236 4 50 156 4 50 156 4 50 156 4 50 156 4 50 156 
4 50 156 4 50 156 4 50 156 4 50 156 4 50 156 4 50 156 4 50 156 4 50 156 
4 50 156 4 50 156 4 50 156 4 50 156 4 50 156 4 50 156 4 50 156 4 50 156 
4 50 156 4 50 156 4 50 156 4 50 156 4 50 156 4 50 156 4 50 156 4 50 156 
4 50 156 4 50 156 4 50 156 4 50 156 4 50 156 4 50 156 4 50 156 4 50 156 
4 50 156 4 50 156 4 50 156 4 50 156 4 50 156 4 50 156 4 50 156 4 50 156 
4 50 156 4 50 156 4 50 156 4 50 156 4 50 156 4 50 156 4 50 156 4 50 156 
4 50 156 4 50 156 4 50 156 4 50 156 4 50 156 4 50 156 4 50 156 4 50 156 
4 50 156 4 50 156 4 50 156 4 50 156 4 50 156 4 50 156 4 50 156 4 50 156 
4 50 156 4 50 156 4 50 156 4 50 156 4 50 156 4 50 156 4 50 156 4 50 156 
4 50 156 4 50 156 4 50 156 4 50 156 4 50 156 4 50 156 4 50 156 4 50 156 
4 50 156 4 50 156 4 50 156 4 50 156 4 50 156 4 50 156 4 50 156 4 50 156 
4 50 156 4 50 156 4 50 156 4 50 156 4 50 156 4 50 156 4 50 156 4 50 156 
4 50 156 4 50 156 4 50 156 4 50 156 4 50 156 4 50 156 4 50 156 4 50 156 
4 50 156 4 50 156 4 50 156 4 50 156 4 50 156 4 50 156 4 50 156 4 50 156 
4 50 156 4 50 156 4 50 156 4 50 156 4 50 156 4 50 156 4 50 156 4 50 156 
4 50 156 4 50 156 4 50 156 4 50 156 4 50 156 4 50 156 4 50 156 4 50 156 
4 50 156 4 50 156 4 50 156 4 50 156 4 50 156 4 50 156 4 50 156 4 50 156 
4 50 156 4 50 156 4 50 156 4 50 156 4 50 156 4 50 156 4 50 156 4 50 156 
4 50 156 4 50 156 4 50 156 4 50 156 4 50 156 4 50 156 4 50 156 4 50 156 
4 50 156 4 50 156 4 50 156 4 50 156 4 50 156 4 50 156 4 50 156 4 50 156 
4 50 156 4 50 156 4 50 156 4 50 156 4 50 156 4 50 156 4 50 156 4 50 156 
4 50 156 4 50 156 4 50 156 4 50 156 4 50 156 4 50 156 4 50 156 4 50 156 
4 50 156 4 50 156 4 50 156 4 50 156 4 50 156 4 50 156 4 50 156 4 50 156 
4 50 156 4 50 156 4 50 156 4 50 156 4 50 156 4 50 156 4 50 156 4 50 156 4 50 156 4 50 156 4 50 156 4 50 156 4 50 156 4 50 156 4 50 156 4 50 156 
4 50 156 4 50 156 4 50 156 4 50 156 4 50 156 4 50 156 4 50 156 4 50 156 
4 50 156 4 50 156 4 50 156 4 50 156 4 50 156 4 50 156 4 50 156 4 50 156 
4 50 156 4 50 156 4 50 156 4 50 156 4 50 156 4 50 156 4 50 156 4 50 156 
4 50 156 4 50 156 4 50 156 4 50 156 4 50 156 4 50 156 4 50 156 4 50 156 
4 50 156 4 50 156 4 50 156 4 50 156 4 50 156 4 50 156 4 50 156 4 50 156 
4 50 156 4 50 156 4 50 156 4 50 156 4 50 156 4 50 156 4 50 156 4 50 156 
4 50 156 4 50 156 4 50 156 4 50 156 4 50 156 4 50 156 4 50 156 4 50 156 
4 50 156 4 50 156 4 50 156 4 50 156 4 50 156 4 50 156 4 50 156 4 50 156 
4 50 156 4 50 156 4 50 156 4 50 156 4 50 156 4 50 156 4 50 156 4 50 156 
4 50 156 4 50 156 4 50 156 4 50 156 4 50 156 4 50 156 4 50 156 4 50 156 
4 50 156 4 50 156 4 50 156 4 50 156 4 50 156 4 50 156 4 50 156 4 50 156 
4 50 156 4 50 156 4 50 156 4 50 156 4 50 156 4 50 156 4 50 156 4 50 156 
4 50 156 4 50 156 4 50 156 4 50 156 4 50 156 4 50 156 4 50 156 4 50 156 
4 50 156 4 50 156 4 50 156 4 50 156 4 50 156 4 50 156 4 50 156 4 50 156 
4 50 156 4 50 156 4 50 156 4 50 156 4 50 156 4 50 156 4 50 156 4 50 156 
4 50 156 4 50 156 4 50 156 4 50 156 4 50 156 4 50 156 4 50 156 4 50 156 
4 50 156 4 50 156 4 50 156 4 50 156 4 50 156 4 50 156 4 50 156 4 50 156 
4 50 156 4 50 156 4 50 156 4 50 156 4 50 156 4 50 156 4 50 156 4 50 156 
4 50 156 4 50 156 4 50 156 4 50 156 4 50 156 4 50 156 4 50 156 4 50 156 
4 50 156 4 50 156 4 50 156 4 50 156 4 50 156 4 50 156 4 50 156 4 50 156 
4 50 156 4 50 156 4 50 156 4 50 156 4 50 156 4 50 156 4 50 156 4 50 156 
4 50 156 4 50 156 4 50 156 4 50 156 4 50 156 4 50 156 4 50 156 4 50 156 
4 50 156 4 50 156 4 50 156 4 50 156 4 50 156 4 50 156 4 50 156 4 50 156 
4 50 156 4 50 156 4 50 156 4 50 156 4 50 156 4 50 156 4 50 156 4 50 156 
4 50 156 4 50 156 4 50 156 4 50 156 4 50 156 4 50 156 4 50 156 4 50 156 
4 50 156 4 50 156 4 50 156 4 50 156 4 50 156 4 50 156 4 50 156 4 50 156 
4 50 156 4 50 156 4 50 156 4 50 156 4 50 156 4 50 156 4 50 156 4 50 156 
4 50 156 4 50 156 4 50 156 4 50 156 4 50 156 4 50 156 4 50 156 4 50 156 
4 50 156 4 50 156 4 50 156 4 50 156 4 50 156 4 50 156 4 50 156 4 50 156 4 50 156 4 50 156 4 50 156 4 50 156 4 50 156 4 50 156 4 50 156 4 50 156 
4 50 156 4 50 156 4 50 156 4 50 156 4 50 156 4 50 156 4 50 156 4 50 156 
4 50 156 4 50 156 4 50 156 4 50 156 4 50 156 4 50 156 4 50 156 4 50 156 
4 50 156 4 50 156 4 50 156 4 50 156 4 50 156 4 50 156 4 50 156 4 50 156 
4 50 156 4 50 156 4 50 156 4 50 156 4 50 156 4 50 156 4 50 156 4 50 156 
4 50 156 4 50 156 4 50 156 4 50 156 4 50 156 4 50 156 4 50 156 4 50 156 
4 50 156 4 50 156 4 50 156 4 50 156 4 50 156 4 50 156 4 50 156 4 50 156 
4 50 156 4 50 156 4 50 156 4 50 156 4 50 156 4 50 156 4 50 156 4 50 156 
4 50 156 4 50 156 4 50 156 4 50 156 4 50 156 4 50 156 4 50 156 4 50 156 
4 50 156 4 50 156 4 50 156 4 50 156 4 50 156 4 50 156 4 50 156 4 50 156 
4 50 156 4 50 156 4 50 156 4 50 156 4 50 156 4 50 156 4 50 156 4 50 156 
4 50 156 4 50 156 4 50 156 4 50 156 4 50 156 4 50 156 4 50 156 4 50 156 
4 50 156 4 50 156 4 50 156 4 50 156 4 50 156 4 50 156 4 50 156 4 50 156 
4 50 156 4 50 156 4 50 156 4 50 156 4 50 156 4 50 156 4 50 156 4 50 156 
4 50 156 4 50 156 4 50 156 4 50 156 4 50 156 4 50 156 4 50 156 4 50 156 
4 50 156 4 50 156 4 50 156 4 50 156 4 50 156 4 50 156 4 50 156 4 50 156 
4 50 156 4 50 156 4 50 156 4 50 156 4 50 156 4 50 156 4 50 156 4 50 156 
4 50 156 4 50 156 4 50 156 4 50 156 4 50 156 4 50 156 4 50 156 4 50 156 
4 50 156 4 50 156 4 50 156 4 50 156 4 50 156 4 50 156 4 50 156 4 50 156 
4 50 156 4 50 156 4 50 156 4 50 156 4 50 156 4 50 156 4 50 156 4 50 156 
4 50 156 4 50 156 4 50 156 4 50 156 4 50 156 4 50 156 4 50 156 4 50 156 
4 50 156 4 50 156 4 50 156 4 50 156 4 50 156 4 50 156 4 50 156 4 50 156 
4 50 156 4 50 156 4 50 156 4 50 156 4 50 156 4 50 156 4 50 156 4 50 156 
4 50 156 4 50 156 4 50 156 4 50 156 4 50 156 4 50 156 4 50 156 4 50 156 
4 50 156 4 50 156 4 50 156 4 50 156 4 50 156 4 50 156 4 50 156 4 50 156 
4 50 156 4 50 156 4 50 156 4 50 156 4 50 156 4 50 156 4 50 156 4 50 156 
4 50 156 4 50 156 4 50 156 4 50 156 4 50 156 4 50 156 4 50 156 4 50 156 
4 50 156 4 50 156 4 50 156 4 50 156 4 50 156 4 50 156 4 50 156 4 50 156 
4 50 156 4 50 156 4 50 156 4 50 156 4 50 156 4 50 156 4 50 156 4 50 156 
4 50 156 4 50 156 4 50 156 4 50 156 4 50 156 4 50 156 4 50 156 